; generated by Slic3r 1.3.1-dev (Build adea0d9) on 2019-12-11 at 19:11:59

; external perimeters extrusion width = 0.44mm (1.51mm^3/s)
; perimeters extrusion width = 0.56mm (2.15mm^3/s)
; infill extrusion width = 0.50mm (1.91mm^3/s)
; solid infill extrusion width = 0.56mm (1.62mm^3/s)
; top infill extrusion width = 0.56mm (1.62mm^3/s)

M107
G92 E0
;D3D:START:START
T0
M104 S215 T0

G21
G90
M107
T0
G28
G29
M109 T0 S215 T0
G0 F3000
M107
T0
G92 E0
G0 X0 Y149 Z0.1 F3600
G1 Y49 E6.5 F1200
G0 Z1
G92 E0
; Filament gcode

G21 ; set units to millimeters
G90 ; use absolute coordinates
M82 ; use absolute distances for extrusion
G92 E0
G1 Z0.300 F7800.000
G1 E-2.00000 F2400.00000
G92 E0
G1 X86.454 Y51.111 F7800.000
G1 E2.00000 F2400.00000
G1 F1800.000
G1 X88.769 Y52.480 E2.08911
G1 X90.104 Y53.387 E2.14259
G1 X91.380 Y54.377 E2.19607
G1 X92.591 Y55.444 E2.24955
G1 X93.732 Y56.586 E2.30303
G1 X94.800 Y57.796 E2.35651
G1 X95.789 Y59.072 E2.40999
G1 X96.696 Y60.407 E2.46347
G1 X97.518 Y61.797 E2.51696
G1 X98.251 Y63.235 E2.57044
G1 X98.892 Y64.717 E2.62392
G1 X99.439 Y66.235 E2.67740
G1 X99.889 Y67.786 E2.73088
G1 X100.241 Y69.361 E2.78436
G1 X100.494 Y70.955 E2.83784
G1 X100.646 Y72.563 E2.89132
G1 X100.697 Y74.176 E2.94480
G1 X100.646 Y75.790 E2.99828
G1 X100.494 Y77.397 E3.05177
G1 X100.241 Y78.991 E3.10525
G1 X99.889 Y80.567 E3.15873
G1 X99.439 Y82.117 E3.21221
G1 X98.892 Y83.636 E3.26569
G1 X98.251 Y85.117 E3.31917
G1 X97.518 Y86.555 E3.37265
G1 X96.696 Y87.945 E3.42613
G1 X95.789 Y89.280 E3.47961
G1 X94.800 Y90.556 E3.53309
G1 X93.732 Y91.767 E3.58658
G1 X92.591 Y92.908 E3.64006
G1 X91.380 Y93.976 E3.69354
G1 X90.104 Y94.965 E3.74702
G1 X88.769 Y95.872 E3.80050
G1 X86.454 Y97.242 E3.88961
G1 X86.454 Y51.171 E5.41592
G1 X86.719 Y51.576 F7800.000
G1 F1800.000
G1 X88.627 Y52.704 E5.48933
G1 X89.948 Y53.602 E5.54225
G1 X91.210 Y54.581 E5.59518
G1 X92.409 Y55.638 E5.64811
G1 X93.538 Y56.767 E5.70104
G1 X94.595 Y57.966 E5.75396
G1 X95.574 Y59.228 E5.80689
G1 X96.472 Y60.549 E5.85982
G1 X97.285 Y61.925 E5.91275
G1 X98.011 Y63.348 E5.96568
G1 X98.645 Y64.814 E6.01860
G1 X99.186 Y66.317 E6.07153
G1 X99.632 Y67.852 E6.12446
G1 X99.980 Y69.411 E6.17739
G1 X100.230 Y70.989 E6.23032
G1 X100.381 Y72.579 E6.28324
G1 X100.431 Y74.176 E6.33617
G1 X100.381 Y75.773 E6.38910
G1 X100.230 Y77.363 E6.44203
G1 X99.980 Y78.941 E6.49496
G1 X99.632 Y80.500 E6.54788
G1 X99.186 Y82.035 E6.60081
G1 X98.645 Y83.538 E6.65374
G1 X98.011 Y85.004 E6.70667
G1 X97.285 Y86.427 E6.75959
G1 X96.472 Y87.803 E6.81252
G1 X95.574 Y89.124 E6.86545
G1 X94.595 Y90.386 E6.91838
G1 X93.538 Y91.585 E6.97131
G1 X92.409 Y92.714 E7.02423
G1 X91.210 Y93.771 E7.07716
G1 X89.948 Y94.750 E7.13009
G1 X88.627 Y95.648 E7.18302
G1 X86.719 Y96.776 E7.25642
G1 X86.719 Y51.636 E8.75188
G1 X86.985 Y52.042 F7800.000
G1 F1800.000
G1 X88.484 Y52.928 E8.80958
G1 X89.792 Y53.817 E8.86195
G1 X91.041 Y54.786 E8.91433
G1 X92.227 Y55.832 E8.96670
G1 X93.345 Y56.949 E9.01908
G1 X94.390 Y58.135 E9.07145
G1 X95.359 Y59.384 E9.12383
G1 X96.248 Y60.692 E9.17620
G1 X97.052 Y62.053 E9.22858
G1 X97.770 Y63.461 E9.28095
G1 X98.398 Y64.912 E9.33333
G1 X98.933 Y66.400 E9.38570
G1 X99.374 Y67.918 E9.43808
G1 X99.719 Y69.461 E9.49045
G1 X99.967 Y71.022 E9.54283
G1 X100.115 Y72.596 E9.59520
G1 X100.165 Y74.176 E9.64758
G1 X100.115 Y75.756 E9.69995
G1 X99.967 Y77.330 E9.75233
G1 X99.719 Y78.892 E9.80470
G1 X99.374 Y80.434 E9.85707
G1 X98.933 Y81.952 E9.90945
G1 X98.398 Y83.440 E9.96182
G1 X97.770 Y84.891 E10.01420
G1 X97.052 Y86.299 E10.06657
G1 X96.248 Y87.660 E10.11895
G1 X95.359 Y88.968 E10.17132
G1 X94.390 Y90.217 E10.22370
G1 X93.345 Y91.403 E10.27607
G1 X92.227 Y92.521 E10.32845
G1 X91.041 Y93.566 E10.38082
G1 X89.792 Y94.535 E10.43320
G1 X88.484 Y95.424 E10.48557
G1 X86.985 Y96.310 E10.54327
G1 X86.985 Y52.102 E12.00787
G1 E10.00787 F2400.00000
G92 E0
G1 X80.776 Y78.980 F7800.000
G1 E2.00000 F2400.00000
G1 F1800.000
G1 X80.776 Y83.372 E2.14552
G1 X69.224 Y83.372 E2.52825
G1 X69.224 Y78.980 E2.67377
G1 X80.716 Y78.980 E3.05451
G1 X80.511 Y79.245 F7800.000
G1 F1800.000
G1 X80.511 Y83.107 E3.18243
G1 X69.489 Y83.107 E3.54756
G1 X69.489 Y79.245 E3.67548
G1 X80.451 Y79.245 E4.03862
G1 X80.245 Y79.511 F7800.000
G1 F1800.000
G1 X80.245 Y82.841 E4.14894
G1 X69.755 Y82.841 E4.49647
G1 X69.755 Y79.511 E4.60679
G1 X80.185 Y79.511 E4.95233
G1 E2.95233 F2400.00000
G92 E0
G1 X63.546 Y97.242 F7800.000
G1 E2.00000 F2400.00000
G1 F1800.000
G1 X61.231 Y95.872 E2.08911
G1 X59.896 Y94.965 E2.14259
G1 X58.620 Y93.976 E2.19607
G1 X57.409 Y92.908 E2.24955
G1 X56.268 Y91.767 E2.30303
G1 X55.200 Y90.556 E2.35651
G1 X54.211 Y89.280 E2.40999
G1 X53.304 Y87.945 E2.46347
G1 X52.482 Y86.555 E2.51696
G1 X51.749 Y85.117 E2.57044
G1 X51.108 Y83.636 E2.62392
G1 X50.561 Y82.117 E2.67740
G1 X50.111 Y80.567 E2.73088
G1 X49.759 Y78.991 E2.78436
G1 X49.506 Y77.397 E2.83784
G1 X49.354 Y75.790 E2.89132
G1 X49.303 Y74.176 E2.94480
G1 X49.354 Y72.563 E2.99828
G1 X49.506 Y70.955 E3.05177
G1 X49.759 Y69.361 E3.10525
G1 X50.111 Y67.786 E3.15873
G1 X50.561 Y66.235 E3.21221
G1 X51.108 Y64.717 E3.26569
G1 X51.749 Y63.235 E3.31917
G1 X52.482 Y61.797 E3.37265
G1 X53.304 Y60.407 E3.42613
G1 X54.211 Y59.072 E3.47961
G1 X55.200 Y57.796 E3.53310
G1 X56.268 Y56.586 E3.58658
G1 X57.409 Y55.444 E3.64006
G1 X58.620 Y54.377 E3.69354
G1 X59.896 Y53.387 E3.74702
G1 X61.231 Y52.480 E3.80050
G1 X63.546 Y51.111 E3.88961
G1 X63.546 Y97.182 E5.41592
G1 X63.281 Y96.776 F7800.000
G1 F1800.000
G1 X61.373 Y95.648 E5.48933
G1 X60.052 Y94.750 E5.54225
G1 X58.790 Y93.771 E5.59518
G1 X57.591 Y92.714 E5.64811
G1 X56.462 Y91.585 E5.70104
G1 X55.405 Y90.386 E5.75397
G1 X54.426 Y89.124 E5.80689
G1 X53.528 Y87.803 E5.85982
G1 X52.715 Y86.427 E5.91275
G1 X51.989 Y85.004 E5.96568
G1 X51.355 Y83.538 E6.01860
G1 X50.814 Y82.035 E6.07153
G1 X50.368 Y80.500 E6.12446
G1 X50.020 Y78.941 E6.17739
G1 X49.770 Y77.363 E6.23032
G1 X49.619 Y75.773 E6.28324
G1 X49.569 Y74.176 E6.33617
G1 X49.619 Y72.579 E6.38910
G1 X49.770 Y70.989 E6.44203
G1 X50.020 Y69.411 E6.49496
G1 X50.368 Y67.852 E6.54788
G1 X50.814 Y66.317 E6.60081
G1 X51.355 Y64.814 E6.65374
G1 X51.989 Y63.348 E6.70667
G1 X52.715 Y61.925 E6.75959
G1 X53.528 Y60.549 E6.81252
G1 X54.426 Y59.228 E6.86545
G1 X55.405 Y57.966 E6.91838
G1 X56.462 Y56.767 E6.97131
G1 X57.591 Y55.638 E7.02423
G1 X58.790 Y54.581 E7.07716
G1 X60.052 Y53.602 E7.13009
G1 X61.373 Y52.704 E7.18302
G1 X63.281 Y51.576 E7.25642
G1 X63.281 Y96.716 E8.75188
G1 X63.015 Y96.310 F7800.000
G1 F1800.000
G1 X61.516 Y95.424 E8.80958
G1 X60.208 Y94.535 E8.86195
G1 X58.959 Y93.566 E8.91433
G1 X57.773 Y92.521 E8.96671
G1 X56.655 Y91.403 E9.01908
G1 X55.610 Y90.217 E9.07145
G1 X54.641 Y88.968 E9.12383
G1 X53.752 Y87.660 E9.17620
G1 X52.948 Y86.299 E9.22858
G1 X52.230 Y84.891 E9.28095
G1 X51.602 Y83.440 E9.33333
G1 X51.067 Y81.952 E9.38570
G1 X50.626 Y80.434 E9.43808
G1 X50.281 Y78.892 E9.49045
G1 X50.033 Y77.330 E9.54283
G1 X49.885 Y75.756 E9.59520
G1 X49.835 Y74.176 E9.64758
G1 X49.885 Y72.596 E9.69995
G1 X50.033 Y71.022 E9.75233
G1 X50.281 Y69.461 E9.80470
G1 X50.626 Y67.918 E9.85708
G1 X51.067 Y66.400 E9.90945
G1 X51.602 Y64.912 E9.96183
G1 X52.230 Y63.461 E10.01420
G1 X52.948 Y62.053 E10.06657
G1 X53.752 Y60.692 E10.11895
G1 X54.641 Y59.384 E10.17132
G1 X55.610 Y58.135 E10.22370
G1 X56.655 Y56.949 E10.27607
G1 X57.773 Y55.832 E10.32845
G1 X58.959 Y54.786 E10.38082
G1 X60.208 Y53.817 E10.43320
G1 X61.516 Y52.928 E10.48557
G1 X63.015 Y52.042 E10.54327
G1 X63.015 Y96.250 E12.00787
G1 E10.00787 F2400.00000
G92 E0
G1 X68.154 Y66.122 F7800.000
G1 E2.00000 F2400.00000
G1 F1800.000
G1 X81.846 Y66.122 E2.45363
G1 X81.846 Y40.231 E3.31138
G1 X92.890 Y43.190 E3.69015
G1 X105.986 Y56.286 E4.30373
G1 X110.779 Y74.176 E4.91731
G1 X105.986 Y92.066 E5.53089
G1 X92.890 Y105.162 E6.14447
G1 X75.000 Y109.955 E6.75805
G1 X57.110 Y105.162 E7.37163
G1 X44.014 Y92.066 E7.98521
G1 X39.221 Y74.176 E8.59880
G1 X44.014 Y56.286 E9.21238
G1 X57.110 Y43.190 E9.82596
G1 X68.154 Y40.231 E10.20472
G1 X68.154 Y66.062 E11.06049
G1 X68.419 Y65.857 F7800.000
G1 F1800.000
G1 X81.581 Y65.857 E11.49652
G1 X81.581 Y39.885 E12.35694
G1 X93.027 Y42.952 E12.74954
G1 X106.224 Y56.149 E13.36783
G1 X111.054 Y74.176 E13.98613
G1 X106.224 Y92.203 E14.60443
G1 X93.027 Y105.400 E15.22272
G1 X75.000 Y110.230 E15.84102
G1 X56.973 Y105.400 E16.45932
G1 X43.776 Y92.203 E17.07761
G1 X38.946 Y74.176 E17.69591
G1 X43.776 Y56.149 E18.31421
G1 X56.973 Y42.952 E18.93250
G1 X68.419 Y39.885 E19.32510
G1 X68.419 Y65.797 E20.18353
G1 X68.685 Y65.591 F7800.000
G1 F1800.000
G1 X81.315 Y65.591 E20.60196
G1 X81.315 Y39.539 E21.46505
G1 X93.165 Y42.714 E21.87147
G1 X106.462 Y56.011 E22.49448
G1 X111.329 Y74.176 E23.11750
G1 X106.462 Y92.341 E23.74051
G1 X93.165 Y105.638 E24.36352
G1 X75.000 Y110.505 E24.98653
G1 X56.835 Y105.638 E25.60955
G1 X43.538 Y92.341 E26.23256
G1 X38.671 Y74.176 E26.85557
G1 X43.538 Y56.011 E27.47858
G1 X56.835 Y42.714 E28.10160
G1 X68.685 Y39.539 E28.50802
G1 X68.685 Y65.531 E29.36912
G1 E27.36912 F2400.00000
G92 E0
G1 X69.607 Y78.818 F7800.000
G1 E2.00000 F2400.00000
G1 F1800.000
G1 X82.140 Y66.285 E2.58770
G1 X81.764 Y66.285 E2.60016
G1 X69.231 Y78.818 E3.18786
G1 X68.855 Y78.818 E3.20033
G1 X68.855 Y79.193 E3.21279
G1 X69.061 Y78.987 F7800.000
G1 F1800.000
G1 X63.709 Y84.340 E3.46380
G1 X63.709 Y84.716 E3.47627
G1 X69.061 Y79.363 E3.72728
G1 X69.061 Y79.739 E3.73975
G1 X63.709 Y85.092 E3.99076
G1 X63.709 Y85.468 E4.00322
G1 X69.061 Y80.115 E4.25423
G1 X69.061 Y80.491 E4.26670
G1 X63.709 Y85.844 E4.51771
G1 X63.709 Y86.220 E4.53018
G1 X69.061 Y80.867 E4.78119
G1 X69.061 Y81.243 E4.79366
G1 X63.709 Y86.596 E5.04467
G1 X63.709 Y86.971 E5.05713
G1 X69.061 Y81.619 E5.30815
G1 X69.061 Y81.995 E5.32061
G1 X63.709 Y87.347 E5.57162
G1 X63.709 Y87.723 E5.58409
G1 X69.061 Y82.370 E5.83510
G1 X69.061 Y82.746 E5.84757
G1 X63.709 Y88.099 E6.09858
G1 X63.709 Y88.475 E6.11104
G1 X69.061 Y83.122 E6.36206
G1 X69.061 Y83.498 E6.37452
G1 X63.709 Y88.851 E6.62553
G1 X63.709 Y89.227 E6.63800
G1 X69.401 Y83.535 E6.90494
G1 X69.777 Y83.535 E6.91741
G1 X63.709 Y89.603 E7.20198
G1 X63.709 Y89.979 E7.21445
G1 X70.153 Y83.535 E7.51665
G1 X70.529 Y83.535 E7.52912
G1 X63.709 Y90.355 E7.84895
G1 X63.709 Y90.731 E7.86141
G1 X70.905 Y83.535 E8.19888
G1 X71.281 Y83.535 E8.21134
G1 X63.709 Y91.107 E8.56643
G1 X63.709 Y91.483 E8.57890
G1 X71.657 Y83.535 E8.95162
G1 X72.033 Y83.535 E8.96409
G1 X63.709 Y91.859 E9.35444
G1 X63.709 Y92.235 E9.36691
G1 X72.409 Y83.535 E9.77489
G1 X72.785 Y83.535 E9.78735
G1 X63.709 Y92.611 E10.21297
G1 X63.709 Y92.987 E10.22543
G1 X73.161 Y83.535 E10.66867
G1 X73.537 Y83.535 E10.68114
G1 X63.709 Y93.363 E11.14201
G1 X63.709 Y93.739 E11.15448
G1 X73.913 Y83.535 E11.63298
G1 X74.289 Y83.535 E11.64544
G1 X63.709 Y94.115 E12.14158
G1 X63.709 Y94.491 E12.15404
G1 X74.665 Y83.535 E12.66780
G1 X75.041 Y83.535 E12.68027
G1 X63.709 Y94.867 E13.21166
G1 X63.709 Y95.243 E13.22413
G1 X75.417 Y83.535 E13.77315
G1 X75.793 Y83.535 E13.78561
G1 X63.709 Y95.619 E14.35226
G1 X63.709 Y95.995 E14.36473
G1 X76.169 Y83.535 E14.94901
G1 X76.545 Y83.535 E14.96147
G1 X63.709 Y96.371 E15.56338
G1 X63.709 Y96.747 E15.57585
G1 X76.920 Y83.535 E16.19539
G1 X77.296 Y83.535 E16.20786
G1 X63.709 Y97.123 E16.84503
G1 X63.709 Y97.498 E16.85749
G1 X77.672 Y83.535 E17.51229
G1 X78.048 Y83.535 E17.52476
G1 X56.850 Y104.733 E18.51879
G1 X57.038 Y104.921 E18.52760
G1 X78.424 Y83.535 E19.53044
G1 X78.800 Y83.535 E19.54291
G1 X57.273 Y105.061 E20.55235
G1 X57.570 Y105.141 E20.56253
G1 X79.176 Y83.535 E21.57570
G1 X79.552 Y83.535 E21.58817
G1 X57.867 Y105.220 E22.60506
G1 X58.163 Y105.300 E22.61524
G1 X79.928 Y83.535 E23.63586
G1 X80.304 Y83.535 E23.64833
G1 X58.460 Y105.379 E24.67268
G1 X58.756 Y105.459 E24.68285
G1 X80.680 Y83.535 E25.71093
G1 X81.056 Y83.535 E25.72339
G1 X59.053 Y105.538 E26.75519
G1 X59.349 Y105.618 E26.76537
G1 X86.291 Y78.675 E28.02876
G1 X86.291 Y79.051 E28.04123
G1 X59.646 Y105.697 E29.29072
G1 X59.942 Y105.776 E29.30090
G1 X86.291 Y79.427 E30.53648
G1 X86.291 Y79.803 E30.54895
G1 X60.239 Y105.856 E31.77063
G1 X60.535 Y105.935 E31.78080
G1 X86.291 Y80.179 E32.98858
G1 X86.291 Y80.555 E33.00105
G1 X60.832 Y106.015 E34.19492
G1 X61.128 Y106.094 E34.20510
G1 X86.291 Y80.931 E35.38506
G1 X86.291 Y81.307 E35.39753
G1 X61.425 Y106.174 E36.56359
G1 X61.721 Y106.253 E36.57377
G1 X86.291 Y81.683 E37.72593
G1 X86.291 Y82.059 E37.73840
G1 X62.018 Y106.333 E38.87665
G1 X62.314 Y106.412 E38.88683
G1 X86.291 Y82.435 E40.01118
G1 X86.291 Y82.811 E40.02364
G1 X62.611 Y106.492 E41.13409
G1 X62.907 Y106.571 E41.14427
G1 X86.291 Y83.187 E42.24081
G1 X86.291 Y83.563 E42.25328
G1 X63.204 Y106.650 E43.33591
G1 X63.500 Y106.730 E43.34609
G1 X86.291 Y83.939 E44.41483
G1 X86.291 Y84.315 E44.42729
G1 X63.797 Y106.809 E45.48212
G1 X64.093 Y106.889 E45.49230
G1 X86.291 Y84.691 E46.53323
G1 X86.291 Y85.067 E46.54569
G1 X64.390 Y106.968 E47.57271
G1 X64.686 Y107.048 E47.58289
G1 X86.291 Y85.443 E48.59601
G1 X86.291 Y85.819 E48.60847
G1 X64.983 Y107.127 E49.60769
G1 X65.279 Y107.207 E49.61786
G1 X86.291 Y86.194 E50.60317
G1 X86.291 Y86.570 E50.61564
G1 X65.576 Y107.286 E51.58704
G1 X65.872 Y107.366 E51.59722
G1 X86.291 Y86.946 E52.55472
G1 X86.291 Y87.322 E52.56719
G1 X66.169 Y107.445 E53.51078
G1 X66.465 Y107.524 E53.52096
G1 X86.291 Y87.698 E54.45065
G1 X86.291 Y88.074 E54.46312
G1 X66.762 Y107.604 E55.37891
G1 X67.058 Y107.683 E55.38908
G1 X86.291 Y88.450 E56.29097
G1 X86.291 Y88.826 E56.30343
G1 X67.355 Y107.763 E57.19141
G1 X67.651 Y107.842 E57.20159
G1 X86.291 Y89.202 E58.07567
G1 X86.291 Y89.578 E58.08813
G1 X67.948 Y107.922 E58.94830
G1 X68.244 Y108.001 E58.95848
G1 X86.291 Y89.954 E59.80475
G1 X86.291 Y90.330 E59.81721
G1 X68.541 Y108.081 E60.64957
G1 X68.837 Y108.160 E60.65975
G1 X86.291 Y90.706 E61.47821
G1 X86.291 Y91.082 E61.49068
G1 X69.134 Y108.239 E62.29523
G1 X69.431 Y108.319 E62.30541
G1 X86.291 Y91.458 E63.09606
G1 X86.291 Y91.834 E63.10852
G1 X69.727 Y108.398 E63.88527
G1 X70.024 Y108.478 E63.89545
G1 X86.291 Y92.210 E64.65829
G1 X86.291 Y92.586 E64.67075
G1 X70.320 Y108.557 E65.41969
G1 X70.617 Y108.637 E65.42987
G1 X86.291 Y92.962 E66.16490
G1 X86.291 Y93.338 E66.17737
G1 X70.913 Y108.716 E66.89850
G1 X71.210 Y108.796 E66.90867
G1 X86.291 Y93.714 E67.61590
G1 X86.291 Y94.090 E67.62836
G1 X71.506 Y108.875 E68.32168
G1 X71.803 Y108.955 E68.33186
G1 X86.291 Y94.466 E69.01128
G1 X86.291 Y94.842 E69.02374
G1 X72.099 Y109.034 E69.68926
G1 X72.396 Y109.113 E69.69943
G1 X86.291 Y95.218 E70.35104
G1 X86.291 Y95.594 E70.36351
G1 X72.692 Y109.193 E71.00121
G1 X72.989 Y109.272 E71.01139
G1 X86.291 Y95.970 E71.63519
G1 X86.291 Y96.346 E71.64765
G1 X73.285 Y109.352 E72.25755
G1 X73.582 Y109.431 E72.26773
G1 X86.291 Y96.721 E72.86372
G1 X86.291 Y97.097 E72.87618
G1 X73.878 Y109.511 E73.45827
G1 X74.175 Y109.590 E73.46845
G1 X86.291 Y97.473 E74.03663
G1 X86.291 Y97.604 E74.04096
G1 X86.892 Y97.249 E74.06410
G1 X74.471 Y109.670 E74.64654
G1 X74.768 Y109.749 E74.65672
G1 X87.812 Y96.705 E75.26841
G1 X88.732 Y96.160 E75.30386
G1 X75.187 Y109.706 E75.93903
G1 X75.701 Y109.568 E75.95666
G1 X89.828 Y95.440 E76.61915
G1 X90.364 Y95.077 E76.64061
G1 X91.275 Y94.370 E76.67886
G1 X76.214 Y109.431 E77.38510
G1 X76.728 Y109.293 E77.40273
G1 X110.117 Y75.904 E78.96843
G1 X109.979 Y76.417 E78.98606
G1 X77.241 Y109.155 E80.52122
G1 X77.755 Y109.018 E80.53885
G1 X109.842 Y76.931 E82.04348
G1 X109.704 Y77.444 E82.06111
G1 X78.268 Y108.880 E83.53520
G1 X78.782 Y108.743 E83.55283
G1 X109.566 Y77.958 E84.99639
G1 X109.429 Y78.472 E85.01402
G1 X79.296 Y108.605 E86.42703
G1 X79.809 Y108.467 E86.44466
G1 X109.291 Y78.985 E87.82715
G1 X109.154 Y79.499 E87.84478
G1 X80.323 Y108.330 E89.19673
G1 X80.836 Y108.192 E89.21436
G1 X109.016 Y80.012 E90.53577
G1 X108.878 Y80.526 E90.55340
G1 X81.350 Y108.054 E91.84427
G1 X81.863 Y107.917 E91.86190
G1 X108.741 Y81.040 E93.12224
G1 X108.603 Y81.553 E93.13987
G1 X82.377 Y107.779 E94.36967
G1 X82.891 Y107.642 E94.38730
G1 X108.466 Y82.067 E95.58657
G1 X108.328 Y82.580 E95.60420
G1 X83.404 Y107.504 E96.77293
