; generated by Slic3r 1.3.1-dev (Build adea0d9) on 2020-01-22 at 18:42:52

; external perimeters extrusion width = 0.44mm (2.86mm^3/s)
; perimeters extrusion width = 0.56mm (4.14mm^3/s)
; infill extrusion width = 0.50mm (3.66mm^3/s)
; solid infill extrusion width = 0.56mm (3.10mm^3/s)
; top infill extrusion width = 0.56mm (3.10mm^3/s)

M107
G92 E0
;D3D:START:START
T0
M104 S215 T0

G21
G90
M107
T0
G28
G29
M109 T0 S215 T0
G0 F3000
M107
T0
G92 E0
G0 X0 Y149 Z0.1 F3600
G1 Y49 E6.5 F1200
G0 Z1
G92 E0
; Filament gcode

G21 ; set units to millimeters
G90 ; use absolute coordinates
M82 ; use absolute distances for extrusion
G92 E0
G1 Z0.300 F7800.000
G1 E-2.00000 F2400.00000
G92 E0
G1 X68.304 Y65.226 F7800.000
G1 E2.00000 F2400.00000
G1 F1800.000
G1 X68.304 Y95.642 E3.00768
G1 X67.158 Y95.230 E3.04803
G1 X65.929 Y94.698 E3.09237
G1 X64.737 Y94.091 E3.13671
G1 X63.585 Y93.409 E3.18104
G1 X62.478 Y92.657 E3.22538
G1 X61.421 Y91.837 E3.26972
G1 X60.417 Y90.952 E3.31405
G1 X59.470 Y90.006 E3.35839
G1 X58.585 Y89.002 E3.40273
G1 X57.765 Y87.944 E3.44707
G1 X57.013 Y86.837 E3.49140
G1 X56.332 Y85.685 E3.53574
G1 X55.724 Y84.493 E3.58008
G1 X55.193 Y83.265 E3.62442
G1 X54.739 Y82.006 E3.66876
G1 X54.366 Y80.720 E3.71309
G1 X54.074 Y79.414 E3.75743
G1 X53.865 Y78.092 E3.80177
G1 X53.739 Y76.760 E3.84611
G1 X53.697 Y75.422 E3.89044
G1 X53.739 Y74.085 E3.93478
G1 X53.865 Y72.752 E3.97912
G1 X54.074 Y71.431 E4.02346
G1 X54.366 Y70.124 E4.06780
G1 X54.739 Y68.839 E4.11213
G1 X55.193 Y67.580 E4.15647
G1 X55.724 Y66.352 E4.20081
G1 X56.332 Y65.159 E4.24515
G1 X57.013 Y64.007 E4.28948
G1 X57.765 Y62.901 E4.33382
G1 X58.585 Y61.843 E4.37816
G1 X59.470 Y60.839 E4.42250
G1 X60.417 Y59.893 E4.46684
G1 X61.421 Y59.008 E4.51117
G1 X62.478 Y58.188 E4.55551
G1 X63.585 Y57.435 E4.59985
G1 X64.737 Y56.754 E4.64418
G1 X65.929 Y56.146 E4.68852
G1 X67.158 Y55.615 E4.73286
G1 X68.417 Y55.162 E4.77720
G1 X69.702 Y54.788 E4.82154
G1 X71.008 Y54.496 E4.86587
G1 X72.330 Y54.287 E4.91021
G1 X73.662 Y54.161 E4.95455
G1 X75.000 Y54.119 E4.99889
G1 X76.338 Y54.161 E5.04322
G1 X77.670 Y54.287 E5.08756
G1 X78.992 Y54.496 E5.13190
G1 X80.298 Y54.788 E5.17624
G1 X81.583 Y55.162 E5.22058
G1 X82.842 Y55.615 E5.26491
G1 X84.071 Y56.146 E5.30925
G1 X85.263 Y56.754 E5.35359
G1 X86.415 Y57.435 E5.39793
G1 X87.522 Y58.188 E5.44226
G1 X88.579 Y59.008 E5.48660
G1 X89.583 Y59.893 E5.53094
G1 X90.530 Y60.839 E5.57528
G1 X91.415 Y61.843 E5.61961
G1 X92.235 Y62.901 E5.66395
G1 X92.987 Y64.007 E5.70829
G1 X93.668 Y65.159 E5.75263
G1 X94.276 Y66.352 E5.79696
G1 X94.807 Y67.580 E5.84130
G1 X95.261 Y68.839 E5.88564
G1 X95.634 Y70.124 E5.92998
G1 X95.926 Y71.431 E5.97431
G1 X96.135 Y72.752 E6.01865
G1 X96.261 Y74.085 E6.06299
G1 X96.303 Y75.422 E6.10733
G1 X96.261 Y76.760 E6.15166
G1 X96.135 Y78.092 E6.19600
G1 X95.926 Y79.414 E6.24034
G1 X95.634 Y80.720 E6.28468
G1 X95.261 Y82.006 E6.32902
G1 X94.807 Y83.265 E6.37335
G1 X94.276 Y84.493 E6.41769
G1 X93.668 Y85.685 E6.46203
G1 X92.987 Y86.837 E6.50637
G1 X92.235 Y87.944 E6.55070
G1 X91.415 Y89.002 E6.59504
G1 X90.530 Y90.006 E6.63938
G1 X89.583 Y90.952 E6.68372
G1 X88.579 Y91.837 E6.72806
G1 X87.522 Y92.657 E6.77239
G1 X86.415 Y93.409 E6.81673
G1 X85.263 Y94.091 E6.86107
G1 X84.071 Y94.698 E6.90541
G1 X82.842 Y95.230 E6.94974
G1 X81.696 Y95.642 E6.99010
G1 X81.696 Y65.226 E7.99777
G1 X68.364 Y65.226 E8.43947
G1 X68.569 Y65.492 F7800.000
G1 F1800.000
G1 X68.569 Y96.004 E9.45033
G1 X68.335 Y95.936 E9.45842
G1 X67.060 Y95.477 E9.50331
G1 X65.816 Y94.939 E9.54820
G1 X64.609 Y94.324 E9.59309
G1 X63.443 Y93.634 E9.63799
G1 X62.322 Y92.872 E9.68288
G1 X61.251 Y92.042 E9.72776
G1 X60.235 Y91.146 E9.77266
G1 X59.277 Y90.187 E9.81755
G1 X58.381 Y89.171 E9.86244
G1 X57.550 Y88.100 E9.90733
G1 X56.789 Y86.980 E9.95222
G1 X56.099 Y85.813 E9.99711
G1 X55.484 Y84.606 E10.04200
G1 X54.945 Y83.363 E10.08689
G1 X54.487 Y82.088 E10.13178
G1 X54.108 Y80.786 E10.17667
G1 X53.813 Y79.464 E10.22156
G1 X53.601 Y78.126 E10.26645
G1 X53.473 Y76.777 E10.31135
G1 X53.431 Y75.422 E10.35624
G1 X53.473 Y74.068 E10.40113
G1 X53.601 Y72.719 E10.44602
G1 X53.813 Y71.381 E10.49091
G1 X54.108 Y70.058 E10.53580
G1 X54.487 Y68.757 E10.58069
G1 X54.945 Y67.482 E10.62558
G1 X55.484 Y66.239 E10.67047
G1 X56.099 Y65.031 E10.71536
G1 X56.789 Y63.865 E10.76025
G1 X57.550 Y62.744 E10.80514
G1 X58.381 Y61.674 E10.85003
G1 X59.277 Y60.657 E10.89492
G1 X60.235 Y59.699 E10.93982
G1 X61.251 Y58.803 E10.98471
G1 X62.322 Y57.973 E11.02960
G1 X63.443 Y57.211 E11.07449
G1 X64.609 Y56.521 E11.11938
G1 X65.816 Y55.906 E11.16427
G1 X67.060 Y55.368 E11.20916
G1 X68.335 Y54.909 E11.25405
G1 X69.636 Y54.531 E11.29894
G1 X70.958 Y54.235 E11.34383
G1 X72.297 Y54.023 E11.38872
G1 X73.646 Y53.896 E11.43361
G1 X75.000 Y53.853 E11.47850
G1 X76.354 Y53.896 E11.52340
G1 X77.703 Y54.023 E11.56829
G1 X79.042 Y54.235 E11.61318
G1 X80.364 Y54.531 E11.65807
G1 X81.665 Y54.909 E11.70296
G1 X82.940 Y55.368 E11.74785
G1 X84.184 Y55.906 E11.79274
G1 X85.391 Y56.521 E11.83763
G1 X86.557 Y57.211 E11.88252
G1 X87.678 Y57.973 E11.92741
G1 X88.749 Y58.803 E11.97230
G1 X89.765 Y59.699 E12.01719
G1 X90.723 Y60.657 E12.06209
G1 X91.619 Y61.674 E12.10698
G1 X92.450 Y62.744 E12.15187
G1 X93.211 Y63.865 E12.19676
G1 X93.901 Y65.031 E12.24165
G1 X94.516 Y66.239 E12.28654
G1 X95.055 Y67.482 E12.33143
G1 X95.513 Y68.757 E12.37632
G1 X95.892 Y70.058 E12.42121
G1 X96.187 Y71.381 E12.46610
G1 X96.399 Y72.719 E12.51099
G1 X96.527 Y74.068 E12.55588
G1 X96.569 Y75.422 E12.60077
G1 X96.527 Y76.777 E12.64566
G1 X96.399 Y78.126 E12.69055
G1 X96.187 Y79.464 E12.73545
G1 X95.892 Y80.786 E12.78034
G1 X95.513 Y82.088 E12.82523
G1 X95.055 Y83.363 E12.87012
G1 X94.516 Y84.606 E12.91501
G1 X93.901 Y85.813 E12.95990
G1 X93.211 Y86.980 E13.00479
G1 X92.450 Y88.100 E13.04968
G1 X91.619 Y89.171 E13.09457
G1 X90.723 Y90.187 E13.13946
G1 X89.765 Y91.146 E13.18435
G1 X88.749 Y92.042 E13.22924
G1 X87.678 Y92.872 E13.27413
G1 X86.557 Y93.634 E13.31902
G1 X85.391 Y94.324 E13.36391
G1 X84.184 Y94.939 E13.40881
G1 X82.940 Y95.477 E13.45370
G1 X81.665 Y95.936 E13.49859
G1 X81.431 Y96.004 E13.50668
G1 X81.431 Y65.492 E14.51754
G1 X68.629 Y65.492 E14.94164
G1 X68.835 Y65.757 F7800.000
G1 F1800.000
G1 X68.835 Y96.358 E15.95541
G1 X68.253 Y96.189 E15.97551
G1 X66.962 Y95.724 E16.02095
G1 X65.703 Y95.179 E16.06639
G1 X64.481 Y94.556 E16.11184
G1 X63.300 Y93.858 E16.15728
G1 X62.166 Y93.087 E16.20273
G1 X61.082 Y92.247 E16.24817
G1 X60.053 Y91.339 E16.29361
G1 X59.083 Y90.369 E16.33906
G1 X58.176 Y89.340 E16.38450
G1 X57.335 Y88.257 E16.42994
G1 X56.564 Y87.122 E16.47539
G1 X55.866 Y85.941 E16.52083
G1 X55.243 Y84.719 E16.56628
G1 X54.698 Y83.460 E16.61172
G1 X54.234 Y82.170 E16.65716
G1 X53.851 Y80.853 E16.70261
G1 X53.552 Y79.514 E16.74805
G1 X53.337 Y78.159 E16.79350
G1 X53.208 Y76.793 E16.83894
G1 X53.165 Y75.422 E16.88438
G1 X53.208 Y74.051 E16.92983
G1 X53.337 Y72.686 E16.97527
G1 X53.552 Y71.331 E17.02071
G1 X53.851 Y69.992 E17.06616
G1 X54.234 Y68.675 E17.11160
G1 X54.698 Y67.384 E17.15705
G1 X55.243 Y66.126 E17.20249
G1 X55.866 Y64.903 E17.24793
G1 X56.564 Y63.723 E17.29338
G1 X57.335 Y62.588 E17.33882
G1 X58.176 Y61.504 E17.38426
G1 X59.083 Y60.475 E17.42971
G1 X60.053 Y59.505 E17.47515
G1 X61.082 Y58.598 E17.52060
G1 X62.166 Y57.758 E17.56604
G1 X63.300 Y56.987 E17.61148
G1 X64.481 Y56.288 E17.65693
G1 X65.703 Y55.666 E17.70237
G1 X66.962 Y55.121 E17.74782
G1 X68.253 Y54.656 E17.79326
G1 X69.570 Y54.273 E17.83870
G1 X70.909 Y53.974 E17.88415
G1 X72.263 Y53.760 E17.92959
G1 X73.629 Y53.631 E17.97503
G1 X75.000 Y53.587 E18.02048
G1 X76.371 Y53.631 E18.06592
G1 X77.737 Y53.760 E18.11137
G1 X79.091 Y53.974 E18.15681
G1 X80.430 Y54.273 E18.20225
G1 X81.747 Y54.656 E18.24770
G1 X83.038 Y55.121 E18.29314
G1 X84.297 Y55.666 E18.33859
G1 X85.519 Y56.288 E18.38403
G1 X86.700 Y56.987 E18.42947
G1 X87.834 Y57.758 E18.47492
G1 X88.918 Y58.598 E18.52036
G1 X89.947 Y59.505 E18.56580
G1 X90.917 Y60.475 E18.61125
G1 X91.824 Y61.504 E18.65669
G1 X92.665 Y62.588 E18.70214
G1 X93.436 Y63.723 E18.74758
G1 X94.134 Y64.903 E18.79302
G1 X94.757 Y66.126 E18.83847
G1 X95.302 Y67.384 E18.88391
G1 X95.766 Y68.675 E18.92936
G1 X96.149 Y69.992 E18.97480
G1 X96.448 Y71.331 E19.02024
G1 X96.663 Y72.686 E19.06569
G1 X96.792 Y74.051 E19.11113
G1 X96.835 Y75.422 E19.15657
G1 X96.792 Y76.793 E19.20202
G1 X96.663 Y78.159 E19.24746
G1 X96.448 Y79.514 E19.29291
G1 X96.149 Y80.853 E19.33835
G1 X95.766 Y82.170 E19.38379
G1 X95.302 Y83.460 E19.42924
G1 X94.757 Y84.719 E19.47468
G1 X94.134 Y85.941 E19.52013
G1 X93.436 Y87.122 E19.56557
G1 X92.665 Y88.257 E19.61101
G1 X91.824 Y89.340 E19.65646
G1 X90.917 Y90.369 E19.70190
G1 X89.947 Y91.339 E19.74735
G1 X88.918 Y92.247 E19.79279
G1 X87.834 Y93.087 E19.83823
G1 X86.700 Y93.858 E19.88368
G1 X85.519 Y94.556 E19.92912
G1 X84.297 Y95.179 E19.97456
G1 X83.038 Y95.724 E20.02001
G1 X81.747 Y96.189 E20.06545
G1 X81.165 Y96.358 E20.08554
G1 X81.165 Y65.757 E21.09932
G1 X68.895 Y65.757 E21.50582
G1 E19.50582 F2400.00000
G92 E0
G1 X60.705 Y59.981 F7800.000
G1 E2.00000 F2400.00000
G1 F1800.000
G1 X59.559 Y61.127 E2.05382
G1 X58.687 Y62.116 E2.09757
G1 X57.823 Y63.239 E2.14460
G1 X62.816 Y58.246 E2.37901
G1 X63.956 Y57.482 E2.42456
G1 X57.060 Y64.379 E2.74836
G1 X56.515 Y65.300 E2.78388
G1 X64.878 Y56.937 E3.17650
G1 X65.660 Y56.531 E3.20577
G1 X56.109 Y66.083 E3.65420
G1 X55.756 Y66.812 E3.68110
G1 X66.390 Y56.178 E4.18034
G1 X67.053 Y55.891 E4.20435
G1 X55.469 Y67.476 E4.74822
G1 X55.222 Y68.098 E4.77046
G1 X67.676 Y55.645 E5.35516
G1 X68.264 Y55.433 E5.37591
G1 X55.010 Y68.687 E5.99815
G1 X54.823 Y69.250 E6.01787
G1 X68.828 Y55.246 E6.67537
G1 X69.358 Y55.091 E6.69371
G1 X54.669 Y69.781 E7.38335
G1 X54.516 Y70.310 E7.40163
G1 X69.887 Y54.939 E8.12328
G1 X70.372 Y54.830 E8.13977
G1 X54.408 Y70.795 E8.88927
G1 X54.300 Y71.279 E8.90576
G1 X70.857 Y54.722 E9.68310
G1 X71.328 Y54.628 E9.69904
G1 X54.205 Y71.750 E10.50292
G1 X54.134 Y72.197 E10.51795
G1 X71.775 Y54.557 E11.34615
G1 X72.222 Y54.486 E11.36119
G1 X54.064 Y72.645 E12.21371
G1 X54.007 Y73.078 E12.22821
G1 X72.655 Y54.429 E13.10371
G1 X73.071 Y54.390 E13.11757
G1 X53.968 Y73.493 E14.01444
G1 X53.928 Y73.909 E14.02831
G1 X73.487 Y54.351 E14.94654
G1 X73.895 Y54.319 E14.96012
G1 X53.897 Y74.317 E15.89898
G1 X53.885 Y74.706 E15.91189
G1 X74.283 Y54.307 E16.86957
G1 X74.672 Y54.295 E16.88247
G1 X53.873 Y75.094 E17.85897
G1 X53.860 Y75.483 E17.87188
G1 X75.060 Y54.283 E18.86719
G1 X75.428 Y54.292 E18.87940
G1 X53.869 Y75.850 E19.89156
G1 X53.881 Y76.215 E19.90368
G1 X75.793 Y54.303 E20.93243
G1 X76.158 Y54.315 E20.94455
G1 X53.892 Y76.580 E21.98990
G1 X53.909 Y76.940 E22.00184
G1 X76.517 Y54.332 E23.06325
G1 X76.861 Y54.364 E23.07472
G1 X53.942 Y77.283 E24.15074
G1 X53.974 Y77.627 E24.16221
G1 X77.205 Y54.397 E25.25286
G1 X77.549 Y54.429 E25.26433
G1 X54.007 Y77.971 E26.36959
G1 X54.048 Y78.307 E26.38081
G1 X77.884 Y54.470 E27.49991
G1 X78.209 Y54.522 E27.51083
G1 X54.099 Y78.632 E28.64276
G1 X54.151 Y78.957 E28.65368
G1 X67.935 Y65.173 E29.30083
G1 X67.935 Y65.064 E29.30444
G1 X68.044 Y65.064 E29.30804
G1 X78.534 Y54.573 E29.80057
G1 X78.859 Y54.625 E29.81149
G1 X68.420 Y65.064 E30.30160
G1 X68.796 Y65.064 E30.31410
G1 X79.177 Y54.683 E30.80145
G1 X79.484 Y54.752 E30.81191
G1 X69.173 Y65.064 E31.29603
G1 X69.549 Y65.064 E31.30853
G1 X79.792 Y54.821 E31.78942
G1 X80.100 Y54.890 E31.79988
G1 X69.926 Y65.064 E32.27754
G1 X70.302 Y65.064 E32.29004
G1 X80.404 Y54.962 E32.76430
G1 X80.695 Y55.047 E32.77438
G1 X70.678 Y65.064 E33.24466
G1 X71.055 Y65.064 E33.25715
G1 X80.987 Y55.132 E33.72345
G1 X81.279 Y55.216 E33.73354
G1 X71.431 Y65.064 E34.19586
G1 X71.808 Y65.064 E34.20835
G1 X81.570 Y55.301 E34.66670
G1 X81.849 Y55.399 E34.67650
G1 X72.184 Y65.064 E35.13024
G1 X72.560 Y65.064 E35.14274
G1 X82.126 Y55.499 E35.59181
G1 X82.402 Y55.598 E35.60157
G1 X72.937 Y65.064 E36.04596
G1 X73.313 Y65.064 E36.05846
G1 X82.679 Y55.698 E36.49817
G1 X82.950 Y55.803 E36.50783
G1 X73.690 Y65.064 E36.94261
G1 X74.066 Y65.064 E36.95511
G1 X83.213 Y55.917 E37.38455
G1 X83.476 Y56.031 E37.39405
G1 X74.443 Y65.064 E37.81815
G1 X74.819 Y65.064 E37.83065
G1 X83.739 Y56.144 E38.24941
G1 X84.001 Y56.258 E38.25892
G1 X75.195 Y65.064 E38.67234
G1 X75.572 Y65.064 E38.68484
G1 X84.254 Y56.382 E39.09244
G1 X84.503 Y56.509 E39.10173
G1 X75.948 Y65.064 E39.50337
G1 X76.325 Y65.064 E39.51587
G1 X84.752 Y56.636 E39.91154
G1 X85.002 Y56.763 E39.92083
G1 X76.701 Y65.064 E40.31054
G1 X77.077 Y65.064 E40.32303
G1 X85.250 Y56.891 E40.70674
G1 X85.487 Y57.031 E40.71587
G1 X77.454 Y65.064 E41.09301
G1 X77.830 Y65.064 E41.10551
G1 X85.724 Y57.171 E41.47608
G1 X85.960 Y57.311 E41.48521
G1 X78.207 Y65.064 E41.84921
G1 X78.583 Y65.064 E41.86171
G1 X86.197 Y57.450 E42.21915
G1 X86.430 Y57.593 E42.22824
G1 X78.960 Y65.064 E42.57897
G1 X79.336 Y65.064 E42.59147
G1 X86.654 Y57.746 E42.93505
G1 X86.878 Y57.898 E42.94405
G1 X79.712 Y65.064 E43.28048
G1 X80.089 Y65.064 E43.29298
G1 X87.102 Y58.050 E43.62226
G1 X87.327 Y58.202 E43.63126
G1 X80.465 Y65.064 E43.95339
G1 X80.842 Y65.064 E43.96589
G1 X87.546 Y58.359 E44.28066
G1 X87.758 Y58.524 E44.28957
G1 X81.218 Y65.064 E44.59662
G1 X81.594 Y65.064 E44.60912
G1 X87.970 Y58.688 E44.90845
G1 X88.182 Y58.853 E44.91736
G1 X81.859 Y65.176 E45.21425
G1 X81.859 Y65.553 E45.22674
G1 X88.394 Y59.017 E45.53358
G1 X88.601 Y59.187 E45.54246
G1 X81.859 Y65.929 E45.85901
G1 X81.859 Y66.305 E45.87151
G1 X88.801 Y59.363 E46.19744
G1 X89.001 Y59.539 E46.20630
G1 X81.859 Y66.682 E46.54163
G1 X81.859 Y67.058 E46.55412
G1 X89.201 Y59.716 E46.89885
G1 X89.401 Y59.892 E46.90770
G1 X81.859 Y67.435 E47.26182
G1 X81.859 Y67.811 E47.27431
G1 X89.595 Y60.074 E47.63755
G1 X89.784 Y60.262 E47.64639
G1 X81.859 Y68.188 E48.01846
G1 X81.859 Y68.564 E48.03096
G1 X89.972 Y60.451 E48.41187
G1 X90.160 Y60.639 E48.42070
G1 X81.859 Y68.940 E48.81045
G1 X81.859 Y69.317 E48.82294
G1 X90.348 Y60.827 E49.22153
G1 X90.439 Y60.918 E49.22579
G1 X90.530 Y61.021 E49.23037
G1 X81.859 Y69.693 E49.63750
G1 X81.859 Y70.070 E49.65000
G1 X90.707 Y61.221 E50.06541
G1 X90.883 Y61.421 E50.07426
G1 X81.859 Y70.446 E50.49795
G1 X81.859 Y70.822 E50.51045
G1 X91.059 Y61.621 E50.94242
G1 X91.236 Y61.822 E50.95128
G1 X81.859 Y71.199 E51.39153
G1 X81.859 Y71.575 E51.40402
G1 X91.406 Y62.028 E51.85224
G1 X91.570 Y62.240 E51.86115
G1 X81.859 Y71.952 E52.31709
G1 X81.859 Y72.328 E52.32958
G1 X91.734 Y62.452 E52.79324
G1 X91.899 Y62.664 E52.80215
G1 X81.859 Y72.705 E53.27352
G1 X81.859 Y73.081 E53.28602
G1 X92.063 Y62.876 E53.76512
G1 X92.220 Y63.096 E53.77408
G1 X81.859 Y73.457 E54.26053
G1 X81.859 Y73.834 E54.27303
G1 X92.372 Y63.320 E54.76664
G1 X92.525 Y63.544 E54.77563
G1 X81.859 Y74.210 E55.27639
G1 X81.859 Y74.587 E55.28888
G1 X92.677 Y63.768 E55.79679
G1 X92.829 Y63.992 E55.80579
G1 X81.859 Y74.963 E56.32084
G1 X81.859 Y75.339 E56.33334
G1 X92.972 Y64.226 E56.85510
G1 X93.112 Y64.462 E56.86423
G1 X81.859 Y75.716 E57.39256
G1 X81.859 Y76.092 E57.40506
G1 X93.252 Y64.699 E57.93995
G1 X93.392 Y64.936 E57.94908
G1 X81.859 Y76.469 E58.49054
G1 X81.859 Y76.845 E58.50304
G1 X93.532 Y65.172 E59.05107
G1 X93.659 Y65.421 E59.06036
G1 X81.859 Y77.222 E59.61439
G1 X81.859 Y77.598 E59.62688
G1 X93.786 Y65.670 E60.18688
G1 X93.913 Y65.919 E60.19617
G1 X81.859 Y77.974 E60.76213
G1 X81.859 Y78.351 E60.77462
G1 X94.040 Y66.169 E61.34655
G1 X94.165 Y66.421 E61.35589
G1 X81.859 Y78.727 E61.93363
G1 X81.859 Y79.104 E61.94613
G1 X94.278 Y66.684 E62.52922
G1 X94.392 Y66.947 E62.53872
G1 X81.859 Y79.480 E63.12715
G1 X81.859 Y79.856 E63.13964
G1 X94.506 Y67.209 E63.73340
G1 X94.619 Y67.472 E63.74291
G1 X81.859 Y80.233 E64.34201
G1 X81.859 Y80.609 E64.35450
G1 X94.724 Y67.743 E64.95854
G1 X94.824 Y68.020 E64.96830
G1 X81.859 Y80.986 E65.57702
G1 X81.859 Y81.362 E65.58951
G1 X94.924 Y68.297 E66.20290
G1 X95.023 Y68.574 E66.21267
G1 X81.859 Y81.738 E66.83074
G1 X81.859 Y82.115 E66.84323
G1 X95.121 Y68.852 E67.46590
G1 X95.206 Y69.144 E67.47598
G1 X81.859 Y82.491 E68.10263
G1 X81.859 Y82.868 E68.11512
G1 X95.291 Y69.436 E68.74574
G1 X95.375 Y69.727 E68.75583
