; generated by Slic3r 1.3.1-dev (Build adea0d9) on 2020-01-22 at 17:23:57

; external perimeters extrusion width = 0.44mm (2.86mm^3/s)
; perimeters extrusion width = 0.56mm (4.14mm^3/s)
; infill extrusion width = 0.50mm (3.66mm^3/s)
; solid infill extrusion width = 0.56mm (3.10mm^3/s)
; top infill extrusion width = 0.56mm (3.10mm^3/s)

M107
G92 E0
;D3D:START:START
T0
M104 S215 T0

G21
G90
M107
T0
G28
G29
M109 T0 S215 T0
G0 F3000
M107
T0
G92 E0
G0 X0 Y149 Z0.1 F3600
G1 Y49 E6.5 F1200
G0 Z1
G92 E0
; Filament gcode

G21 ; set units to millimeters
G90 ; use absolute coordinates
M82 ; use absolute distances for extrusion
G92 E0
G1 Z0.300 F7800.000
G1 E-2.00000 F2400.00000
G92 E0
G1 X5.098 Y97.218 F7800.000
G1 E2.00000 F2400.00000
G1 F1800.000
G1 X7.502 Y97.218 E2.07964
G1 X8.704 Y99.300 E2.15928
G1 X7.502 Y101.382 E2.23892
G1 X5.098 Y101.382 E2.31856
G1 X3.896 Y99.300 E2.39820
G1 X5.068 Y97.270 E2.47586
G1 X5.251 Y97.484 F7800.000
G1 F1800.000
G1 X7.349 Y97.484 E2.54534
G1 X8.397 Y99.300 E2.61482
G1 X7.349 Y101.116 E2.68430
G1 X5.251 Y101.116 E2.75378
G1 X4.203 Y99.300 E2.82326
G1 X5.221 Y97.536 E2.89075
G1 X5.405 Y97.749 F7800.000
G1 F1800.000
G1 X7.195 Y97.749 E2.95007
G1 X8.091 Y99.300 E3.00938
G1 X7.195 Y100.851 E3.06870
G1 X5.405 Y100.851 E3.12802
G1 X4.509 Y99.300 E3.18734
G1 X5.375 Y97.801 E3.24467
G1 E1.24467 F2400.00000
G92 E0
G1 X5.098 Y52.782 F7800.000
G1 E2.00000 F2400.00000
G1 F1800.000
G1 X3.896 Y50.700 E2.07964
G1 X5.098 Y48.618 E2.15928
G1 X7.502 Y48.618 E2.23892
G1 X8.704 Y50.700 E2.31856
G1 X7.502 Y52.782 E2.39820
G1 X5.158 Y52.782 E2.47586
G1 X5.251 Y52.516 F7800.000
G1 F1800.000
G1 X4.203 Y50.700 E2.54534
G1 X5.251 Y48.884 E2.61482
G1 X7.349 Y48.884 E2.68430
G1 X8.397 Y50.700 E2.75378
G1 X7.349 Y52.516 E2.82325
G1 X5.311 Y52.516 E2.89075
G1 X5.405 Y52.251 F7800.000
G1 F1800.000
G1 X4.509 Y50.700 E2.95007
G1 X5.405 Y49.149 E3.00938
G1 X7.195 Y49.149 E3.06870
G1 X8.091 Y50.700 E3.12802
G1 X7.195 Y52.251 E3.18734
G1 X5.465 Y52.251 E3.24467
G1 E1.24467 F2400.00000
G92 E0
G1 X149.304 Y0.696 F7800.000
G1 E2.00000 F2400.00000
G1 F1800.000
G1 X149.304 Y149.304 E6.92330
G1 X38.196 Y149.304 E10.60424
G1 X38.196 Y149.098 E10.61104
G1 X33.653 Y149.098 E10.76154
G1 X26.128 Y147.499 E11.01642
G1 X19.100 Y144.370 E11.27129
G1 X12.876 Y139.848 E11.52617
G1 X7.728 Y134.130 E11.78104
G1 X3.882 Y127.468 E12.03592
G1 X1.504 Y120.151 E12.29079
G1 X0.696 Y112.464 E12.54688
G1 X0.696 Y37.536 E15.02918
G1 X1.504 Y29.849 E15.28527
G1 X3.882 Y22.532 E15.54014
G1 X7.728 Y15.870 E15.79502
G1 X12.876 Y10.152 E16.04989
G1 X19.100 Y5.630 E16.30477
G1 X26.128 Y2.501 E16.55964
G1 X33.653 Y0.902 E16.81452
G1 X38.196 Y0.902 E16.96502
G1 X38.196 Y0.696 E16.97182
G1 X149.244 Y0.696 E20.65078
G1 X149.569 Y0.431 F7800.000
G1 F1800.000
G1 X149.569 Y149.569 E25.59167
G1 X37.931 Y149.569 E29.29021
G1 X37.931 Y149.364 E29.29702
G1 X33.625 Y149.364 E29.43964
G1 X26.046 Y147.753 E29.69637
G1 X18.966 Y144.601 E29.95309
G1 X12.697 Y140.046 E30.20982
G1 X7.512 Y134.287 E30.46654
G1 X3.638 Y127.576 E30.72327
G1 X1.243 Y120.207 E30.97999
G1 X0.431 Y112.477 E31.23747
G1 X0.431 Y37.523 E33.72069
G1 X1.243 Y29.793 E33.97816
G1 X3.638 Y22.424 E34.23488
G1 X7.512 Y15.713 E34.49161
G1 X12.697 Y9.954 E34.74833
G1 X18.966 Y5.399 E35.00506
G1 X26.046 Y2.247 E35.26178
G1 X33.625 Y0.636 E35.51851
G1 X37.931 Y0.636 E35.66114
G1 X37.931 Y0.431 E35.66794
G1 X149.509 Y0.431 E39.36449
G1 X149.835 Y0.165 F7800.000
G1 F1800.000
G1 X149.835 Y149.835 E44.32299
G1 X37.665 Y149.835 E48.03913
G1 X37.665 Y149.630 E48.04593
G1 X33.598 Y149.630 E48.18068
G1 X25.963 Y148.007 E48.43926
G1 X18.833 Y144.832 E48.69783
G1 X12.519 Y140.245 E48.95641
G1 X7.296 Y134.444 E49.21498
G1 X3.394 Y127.685 E49.47356
G1 X0.982 Y120.262 E49.73213
G1 X0.165 Y112.491 E49.99099
G1 X0.165 Y37.509 E52.47513
G1 X0.982 Y29.738 E52.73400
G1 X3.394 Y22.315 E52.99257
G1 X7.296 Y15.556 E53.25114
G1 X12.519 Y9.755 E53.50972
G1 X18.833 Y5.168 E53.76829
G1 X25.963 Y1.993 E54.02687
G1 X33.598 Y0.370 E54.28544
G1 X37.665 Y0.370 E54.42019
G1 X37.665 Y0.165 E54.42700
G1 X149.775 Y0.165 E58.14115
G1 E56.14115 F2400.00000
G92 E0
G1 X38.705 Y0.859 F7800.000
G1 E2.00000 F2400.00000
G1 F1800.000
G1 X38.359 Y1.205 E2.01623
G1 E0.01623 F2400.00000
G92 E0
G1 X12.955 Y10.452 F7800.000
G1 E2.00000 F2400.00000
G1 F1800.000
G1 X12.944 Y10.463 E2.00052
G1 X13.161 Y10.245 E2.01072
G1 X14.535 Y9.247 E2.06700
G1 X9.547 Y14.235 E2.30078
G1 X7.841 Y16.130 E2.38527
G1 X7.586 Y16.572 E2.40220
G1 X15.909 Y8.248 E2.79230
G1 X17.284 Y7.250 E2.84859
G1 X7.072 Y17.461 E3.32714
G1 X6.559 Y18.350 E3.36116
G1 X18.658 Y6.252 E3.92817
G1 X19.337 Y5.758 E3.95599
G1 X19.679 Y5.606 E3.96842
G1 X6.046 Y19.240 E4.60737
G1 X5.532 Y20.129 E4.64139
G1 X20.357 Y5.304 E5.33613
G1 X21.034 Y5.003 E5.36070
G1 X5.019 Y21.018 E6.11124
G1 X4.506 Y21.907 E6.14526
G1 X21.711 Y4.701 E6.95160
G1 X22.389 Y4.400 E6.97617
G1 X4.012 Y22.776 E7.83740
G1 X3.831 Y23.333 E7.85679
G1 X23.066 Y4.098 E8.75824
G1 X23.743 Y3.797 E8.78281
G1 X3.650 Y23.890 E9.72447
G1 X3.469 Y24.446 E9.74386
G1 X24.420 Y3.495 E10.72574
G1 X25.098 Y3.193 E10.75031
G1 X3.288 Y25.003 E11.77240
G1 X3.107 Y25.559 E11.79179
G1 X25.775 Y2.892 E12.85410
G1 X26.314 Y2.652 E12.87366
G1 X26.411 Y2.631 E12.87696
G1 X2.927 Y26.116 E13.97757
G1 X2.746 Y26.673 E13.99696
G1 X26.889 Y2.530 E15.12841
G1 X27.366 Y2.428 E15.14458
G1 X2.565 Y27.229 E16.30687
G1 X2.384 Y27.786 E16.32626
G1 X27.843 Y2.327 E17.51939
G1 X28.320 Y2.225 E17.53556
G1 X2.203 Y28.342 E18.75952
G1 X2.022 Y28.899 E18.77891
G1 X28.797 Y2.124 E20.03371
G1 X29.274 Y2.023 E20.04988
G1 X1.842 Y29.455 E21.33552
G1 X1.662 Y30.011 E21.35487
G1 X29.752 Y1.921 E22.67130
G1 X30.229 Y1.820 E22.68746
G1 X1.618 Y30.431 E24.02832
G1 X1.574 Y30.851 E24.04231
G1 X30.706 Y1.718 E25.40760
G1 X31.183 Y1.617 E25.42377
G1 X1.529 Y31.271 E26.81349
G1 X1.485 Y31.690 E26.82748
G1 X31.660 Y1.515 E28.24163
G1 X32.138 Y1.414 E28.25780
G1 X1.441 Y32.110 E29.69638
G1 X1.397 Y32.530 E29.71037
G1 X32.615 Y1.313 E31.17339
G1 X33.092 Y1.211 E31.18955
G1 X1.353 Y32.950 E32.67700
G1 X1.309 Y33.370 E32.69099
G1 X33.569 Y1.110 E34.20287
G1 X33.785 Y1.064 E34.21017
G1 X33.991 Y1.064 E34.21700
G1 X1.265 Y33.790 E35.75070
G1 X1.221 Y34.210 E35.76469
G1 X34.366 Y1.064 E37.31807
G1 X34.742 Y1.064 E37.33052
G1 X1.176 Y34.630 E38.90358
G1 X1.132 Y35.049 E38.91757
G1 X35.118 Y1.064 E40.51030
G1 X35.494 Y1.064 E40.52275
G1 X1.088 Y35.469 E42.13516
G1 X1.044 Y35.889 E42.14916
G1 X35.869 Y1.064 E43.78124
G1 X36.245 Y1.064 E43.79370
G1 X1.000 Y36.309 E45.44546
G1 X0.956 Y36.729 E45.45945
G1 X36.621 Y1.064 E47.13090
G1 X36.997 Y1.064 E47.14335
G1 X0.912 Y37.149 E48.83447
G1 X0.867 Y37.569 E48.84846
G1 X37.372 Y1.064 E50.55926
G1 X37.748 Y1.064 E50.57171
G1 X0.859 Y37.953 E52.30054
G1 X0.859 Y38.329 E52.31299
G1 X38.124 Y1.064 E54.05943
G1 X38.500 Y1.064 E54.07188
G1 X0.859 Y38.705 E55.83593
G1 X0.859 Y39.081 E55.84838
G1 X39.081 Y0.859 E57.63966
G1 X39.456 Y0.859 E57.65211
G1 X0.859 Y39.456 E59.46100
G1 X0.859 Y39.832 E59.47346
G1 X39.832 Y0.859 E61.29996
G1 X40.208 Y0.859 E61.31241
G1 X0.859 Y40.208 E63.15652
G1 X0.859 Y40.584 E63.16897
G1 X40.584 Y0.859 E65.03069
G1 X40.959 Y0.859 E65.04314
G1 X0.859 Y40.959 E66.92247
G1 X0.859 Y41.335 E66.93492
G1 X41.335 Y0.859 E68.83185
G1 X41.711 Y0.859 E68.84431
G1 X0.859 Y41.711 E70.75885
G1 X0.859 Y42.087 E70.77130
G1 X42.087 Y0.859 E72.70346
G1 X42.462 Y0.859 E72.71591
G1 X0.859 Y42.462 E74.66568
G1 X0.859 Y42.838 E74.67813
G1 X42.838 Y0.859 E76.64550
G1 X43.214 Y0.859 E76.65795
G1 X0.859 Y43.214 E78.64294
G1 X0.859 Y43.590 E78.65539
G1 X43.590 Y0.859 E80.65798
G1 X43.965 Y0.859 E80.67043
G1 X0.859 Y43.965 E82.69064
G1 X0.859 Y44.341 E82.70309
G1 X44.341 Y0.859 E84.74090
G1 X44.717 Y0.859 E84.75335
G1 X0.859 Y44.717 E86.80877
G1 X0.859 Y45.093 E86.82122
G1 X45.093 Y0.859 E88.89426
G1 X45.468 Y0.859 E88.90671
G1 X0.859 Y45.468 E90.99735
G1 X0.859 Y45.844 E91.00980
G1 X45.844 Y0.859 E93.11805
G1 X46.220 Y0.859 E93.13050
G1 X0.859 Y46.220 E95.25636
G1 X0.859 Y46.596 E95.26881
G1 X46.596 Y0.859 E97.41228
G1 X46.971 Y0.859 E97.42473
G1 X0.859 Y46.971 E99.58580
G1 X0.859 Y47.347 E99.59826
G1 X47.347 Y0.859 E101.77694
G1 X47.723 Y0.859 E101.78939
G1 X0.859 Y47.723 E103.98569
G1 X0.859 Y48.099 E103.99814
G1 X48.099 Y0.859 E106.21205
G1 X48.474 Y0.859 E106.22450
G1 X0.859 Y48.474 E108.45601
G1 X0.859 Y48.850 E108.46846
G1 X48.850 Y0.859 E110.71759
G1 X49.226 Y0.859 E110.73004
G1 X0.859 Y49.226 E112.99677
G1 X0.859 Y49.602 E113.00922
G1 X49.602 Y0.859 E115.29357
G1 X49.977 Y0.859 E115.30602
G1 X0.859 Y49.977 E117.60797
G1 X0.859 Y50.353 E117.62042
G1 X50.353 Y0.859 E119.93998
G1 X50.729 Y0.859 E119.95243
G1 X0.859 Y50.729 E122.28960
G1 X0.859 Y51.105 E122.30205
G1 X51.105 Y0.859 E124.65683
G1 X51.480 Y0.859 E124.66928
G1 X0.859 Y51.480 E127.04167
G1 X0.859 Y51.856 E127.05412
G1 X51.856 Y0.859 E129.44412
G1 X52.232 Y0.859 E129.45657
G1 X0.859 Y52.232 E131.86418
G1 X0.859 Y52.607 E131.87663
G1 X4.817 Y48.649 E132.06216
G1 X4.304 Y49.538 E132.09618
G1 X0.859 Y52.983 E132.25766
G1 X0.859 Y53.359 E132.27011
G1 X3.791 Y50.427 E132.40753
G1 X3.693 Y50.597 E132.41404
G1 X3.804 Y50.789 E132.42141
G1 X0.859 Y53.735 E132.55944
G1 X0.859 Y54.110 E132.57189
G1 X3.941 Y51.028 E132.71637
G1 X4.079 Y51.266 E132.72549
G1 X0.859 Y54.486 E132.87642
G1 X0.859 Y54.862 E132.88887
G1 X4.217 Y51.504 E133.04624
G1 X4.354 Y51.742 E133.05535
G1 X0.859 Y55.238 E133.21917
G1 X0.859 Y55.613 E133.23162
G1 X4.492 Y51.980 E133.40188
G1 X4.629 Y52.219 E133.41100
G1 X0.859 Y55.989 E133.58771
G1 X0.859 Y56.365 E133.60016
G1 X4.767 Y52.457 E133.78331
G1 X4.904 Y52.695 E133.79243
G1 X0.859 Y56.741 E133.98203
G1 X0.859 Y57.116 E133.99448
G1 X5.042 Y52.933 E134.19052
G1 X5.407 Y52.944 E134.20262
G1 X0.859 Y57.492 E134.41576
G1 X0.859 Y57.868 E134.42822
G1 X5.782 Y52.944 E134.65897
G1 X6.158 Y52.944 E134.67142
G1 X0.859 Y58.244 E134.91978
G1 X0.859 Y58.619 E134.93224
G1 X6.534 Y52.944 E135.19821
G1 X6.910 Y52.944 E135.21066
G1 X0.859 Y58.995 E135.49424
G1 X0.859 Y59.371 E135.50669
G1 X7.285 Y52.944 E135.80788
G1 X7.661 Y52.944 E135.82034
G1 X0.859 Y59.747 E136.13914
G1 X0.859 Y60.122 E136.15159
G1 X60.122 Y0.859 E138.92899
G1 X60.498 Y0.859 E138.94144
G1 X0.859 Y60.498 E141.73645
G1 X0.859 Y60.874 E141.74890
G1 X60.874 Y0.859 E144.56153
G1 X61.250 Y0.859 E144.57398
G1 X0.859 Y61.250 E147.40421
G1 X0.859 Y61.625 E147.41666
G1 X61.625 Y0.859 E150.26450
G1 X62.001 Y0.859 E150.27695
G1 X0.859 Y62.001 E153.14240
G1 X0.859 Y62.377 E153.15485
G1 X62.377 Y0.859 E156.03791
G1 X62.753 Y0.859 E156.05036
G1 X0.859 Y62.753 E158.95103
G1 X0.859 Y63.128 E158.96348
G1 X63.128 Y0.859 E161.88176
G1 X63.504 Y0.859 E161.89421
G1 X0.859 Y63.504 E164.83010
G1 X0.859 Y63.880 E164.84255
G1 X63.880 Y0.859 E167.79604
G1 X64.256 Y0.859 E167.80849
G1 X0.859 Y64.256 E170.77960
G1 X0.859 Y64.631 E170.79205
G1 X64.631 Y0.859 E173.78077
G1 X65.007 Y0.859 E173.79322
G1 X0.859 Y65.007 E176.79954
G1 X0.859 Y65.383 E176.81199
G1 X65.383 Y0.859 E179.83593
G1 X65.759 Y0.859 E179.84838
G1 X0.859 Y65.759 E182.88992
G1 X0.859 Y66.134 E182.90237
G1 X66.134 Y0.859 E185.96152
G1 X66.510 Y0.859 E185.97397
G1 X0.859 Y66.510 E189.05073
G1 X0.859 Y66.886 E189.06319
G1 X66.886 Y0.859 E192.15756
G1 X67.262 Y0.859 E192.17001
G1 X0.859 Y67.262 E195.28199
G1 X0.859 Y67.637 E195.29444
G1 X67.637 Y0.859 E198.42403
G1 X68.013 Y0.859 E198.43648
G1 X0.859 Y68.013 E201.58368
G1 X0.859 Y68.389 E201.59613
G1 X68.389 Y0.859 E204.76094
G1 X68.765 Y0.859 E204.77339
G1 X0.859 Y68.765 E207.95580
G1 X0.859 Y69.140 E207.96826
G1 X69.140 Y0.859 E211.16828
G1 X69.516 Y0.859 E211.18073
G1 X0.859 Y69.516 E214.39837
G1 X0.859 Y69.892 E214.41082
G1 X69.892 Y0.859 E217.64607
G1 X70.268 Y0.859 E217.65852
G1 X0.859 Y70.268 E220.91137
G1 X0.859 Y70.643 E220.92382
G1 X70.643 Y0.859 E224.19429
G1 X71.019 Y0.859 E224.20674
G1 X0.859 Y71.019 E227.49481
G1 X0.859 Y71.395 E227.50726
G1 X71.395 Y0.859 E230.81294
G1 X71.771 Y0.859 E230.82540
G1 X0.859 Y71.770 E234.14869
G1 X0.859 Y72.146 E234.16114
G1 X72.146 Y0.859 E237.50204
G1 X72.522 Y0.859 E237.51449
G1 X0.859 Y72.522 E240.87300
G1 X0.859 Y72.898 E240.88545
G1 X72.898 Y0.859 E244.26157
G1 X73.274 Y0.859 E244.27402
G1 X0.859 Y73.273 E247.66775
G1 X0.859 Y73.649 E247.68020
G1 X73.649 Y0.859 E251.09154
G1 X74.025 Y0.859 E251.10399
G1 X0.859 Y74.025 E254.53294
G1 X0.859 Y74.401 E254.54539
G1 X74.401 Y0.859 E257.99195
G1 X74.776 Y0.859 E258.00440
G1 X0.859 Y74.776 E261.46856
G1 X0.859 Y75.152 E261.48101
G1 X75.152 Y0.859 E264.96279
G1 X75.528 Y0.859 E264.97524
G1 X0.859 Y75.528 E268.47463
G1 X0.859 Y75.904 E268.48708
G1 X75.904 Y0.859 E272.00407
G1 X76.279 Y0.859 E272.01652
G1 X0.859 Y76.279 E275.55112
G1 X0.859 Y76.655 E275.56358
G1 X76.655 Y0.859 E279.11579
G1 X77.031 Y0.859 E279.12824
G1 X0.859 Y77.031 E282.69806
G1 X0.859 Y77.407 E282.71051
G1 X77.407 Y0.859 E286.29794
G1 X77.782 Y0.859 E286.31040
G1 X0.859 Y77.782 E289.91544
G1 X0.859 Y78.158 E289.92789
G1 X78.158 Y0.859 E293.55054
G1 X78.534 Y0.859 E293.56299
G1 X0.859 Y78.534 E297.20325
G1 X0.859 Y78.910 E297.21570
G1 X78.910 Y0.859 E300.87357
G1 X79.285 Y0.859 E300.88602
G1 X0.859 Y79.285 E304.56150
G1 X0.859 Y79.661 E304.57395
G1 X79.661 Y0.859 E308.26703
G1 X80.037 Y0.859 E308.27949
G1 X0.859 Y80.037 E311.99018
G1 X0.859 Y80.413 E312.00263
G1 X80.413 Y0.859 E315.73094
G1 X80.788 Y0.859 E315.74339
G1 X0.859 Y80.788 E319.48930
G1 X0.859 Y81.164 E319.50176
G1 X81.164 Y0.859 E323.26528
G1 X81.540 Y0.859 E323.27773
G1 X0.859 Y81.540 E327.05886
G1 X0.859 Y81.916 E327.07132
G1 X81.916 Y0.859 E330.87006
G1 X82.291 Y0.859 E330.88251
G1 X0.859 Y82.291 E334.69886
G1 X0.859 Y82.667 E334.71131
G1 X82.667 Y0.859 E338.54527
G1 X83.043 Y0.859 E338.55773
G1 X0.859 Y83.043 E342.40930
G1 X0.859 Y83.419 E342.42175
G1 X83.419 Y0.859 E346.29093
G1 X83.794 Y0.859 E346.30338
G1 X0.859 Y83.794 E350.19017
G1 X0.859 Y84.170 E350.20262
G1 X84.170 Y0.859 E354.10702
G1 X84.546 Y0.859 E354.11947
G1 X0.859 Y84.546 E358.04148
G1 X0.859 Y84.922 E358.05393
G1 X84.922 Y0.859 E361.99355
G1 X85.297 Y0.859 E362.00600
G1 X0.859 Y85.297 E365.96322
G1 X0.859 Y85.673 E365.97568
G1 X85.673 Y0.859 E369.95051
G1 X86.049 Y0.859 E369.96296
G1 X0.859 Y86.049 E373.95541
G1 X0.859 Y86.425 E373.96786
G1 X86.425 Y0.859 E377.97791
G1 X86.800 Y0.859 E377.99036
G1 X0.859 Y86.800 E382.01803
G1 X0.859 Y87.176 E382.03048
G1 X87.176 Y0.859 E386.07575
G1 X87.552 Y0.859 E386.08820
G1 X0.859 Y87.552 E390.15108
G1 X0.859 Y87.928 E390.16354
G1 X87.928 Y0.859 E394.24403
G1 X88.303 Y0.859 E394.25648
G1 X0.859 Y88.303 E398.35458
G1 X0.859 Y88.679 E398.36703
G1 X88.679 Y0.859 E402.48274
G1 X89.055 Y0.859 E402.49519
G1 X0.859 Y89.055 E406.62851
G1 X0.859 Y89.431 E406.64096
G1 X89.431 Y0.859 E410.79189
G1 X89.806 Y0.859 E410.80434
G1 X0.859 Y89.806 E414.97288
G1 X0.859 Y90.182 E414.98533
G1 X90.182 Y0.859 E419.17148
G1 X90.558 Y0.859 E419.18393
G1 X0.859 Y90.558 E423.38769
G1 X0.859 Y90.934 E423.40014
G1 X90.934 Y0.859 E427.62150
G1 X91.309 Y0.859 E427.63396
G1 X0.859 Y91.309 E431.87293
G1 X0.859 Y91.685 E431.88538
G1 X91.685 Y0.859 E436.14197
G1 X92.061 Y0.859 E436.15442
G1 X0.859 Y92.061 E440.42861
G1 X0.859 Y92.436 E440.44106
G1 X92.437 Y0.859 E444.73287
G1 X92.812 Y0.859 E444.74532
G1 X0.859 Y92.812 E449.05473
G1 X0.859 Y93.188 E449.06718
G1 X93.188 Y0.859 E453.39420
G1 X93.564 Y0.859 E453.40665
G1 X0.859 Y93.564 E457.75128
G1 X0.859 Y93.939 E457.76374
G1 X93.939 Y0.859 E462.12598
G1 X94.315 Y0.859 E462.13843
G1 X0.859 Y94.315 E466.51828
G1 X0.859 Y94.691 E466.53073
G1 X94.691 Y0.859 E470.92819
G1 X95.067 Y0.859 E470.94064
G1 X0.859 Y95.067 E475.35571
G1 X0.859 Y95.442 E475.36816
G1 X95.442 Y0.859 E479.80084
G1 X95.818 Y0.859 E479.81329
G1 X0.859 Y95.818 E484.26357
G1 X0.859 Y96.194 E484.27603
G1 X96.194 Y0.859 E488.74392
G1 X96.570 Y0.859 E488.75637
G1 X0.859 Y96.570 E493.24188
G1 X0.859 Y96.945 E493.25433
G1 X96.945 Y0.859 E497.75744
G1 X97.321 Y0.859 E497.76990
G1 X0.859 Y97.321 E502.29062
G1 X0.859 Y97.697 E502.30307
G1 X97.697 Y0.859 E506.84140
G1 X98.073 Y0.859 E506.85386
G1 X0.859 Y98.073 E511.40980
