; generated by Slic3r 1.3.1-dev (Build adea0d9) on 2020-01-22 at 18:35:36

; external perimeters extrusion width = 0.44mm (2.86mm^3/s)
; perimeters extrusion width = 0.56mm (4.14mm^3/s)
; infill extrusion width = 0.50mm (3.66mm^3/s)
; solid infill extrusion width = 0.56mm (3.10mm^3/s)
; top infill extrusion width = 0.56mm (3.10mm^3/s)

M107
G92 E0
;D3D:START:START
T0
M104 S215 T0

G21
G90
M107
T0
G28
G29
M109 T0 S215 T0
G0 F3000
M107
T0
G92 E0
G0 X0 Y149 Z0.1 F3600
G1 Y49 E6.5 F1200
G0 Z1
G92 E0
; Filament gcode

G21 ; set units to millimeters
G90 ; use absolute coordinates
M82 ; use absolute distances for extrusion
G92 E0
G1 Z0.300 F7800.000
G1 E-2.00000 F2400.00000
G92 E0
G1 X68.636 Y68.223 F7800.000
G1 E2.00000 F2400.00000
G1 F1800.000
G1 X69.074 Y67.837 E2.01935
G1 X69.536 Y67.479 E2.03870
G1 X70.019 Y67.151 E2.05805
G1 X70.521 Y66.853 E2.07739
G1 X71.042 Y66.588 E2.09674
G1 X71.578 Y66.356 E2.11609
G1 X72.127 Y66.158 E2.13544
G1 X72.688 Y65.995 E2.15479
G1 X73.258 Y65.868 E2.17414
G1 X73.835 Y65.777 E2.19348
G1 X74.416 Y65.722 E2.21283
G1 X75.000 Y65.703 E2.23218
G1 X75.584 Y65.722 E2.25153
G1 X76.165 Y65.777 E2.27088
G1 X76.742 Y65.868 E2.29023
G1 X77.312 Y65.995 E2.30958
G1 X77.873 Y66.158 E2.32892
G1 X78.422 Y66.356 E2.34827
G1 X78.958 Y66.588 E2.36762
G1 X79.479 Y66.853 E2.38697
G1 X79.981 Y67.151 E2.40632
G1 X80.464 Y67.479 E2.42567
G1 X80.926 Y67.837 E2.44502
G1 X81.364 Y68.223 E2.46436
G1 X81.777 Y68.636 E2.48371
G1 X82.163 Y69.074 E2.50306
G1 X82.521 Y69.536 E2.52241
G1 X82.849 Y70.019 E2.54176
G1 X83.147 Y70.521 E2.56111
G1 X83.412 Y71.042 E2.58045
G1 X83.644 Y71.578 E2.59980
G1 X83.842 Y72.127 E2.61915
G1 X84.005 Y72.688 E2.63850
G1 X84.132 Y73.258 E2.65785
G1 X84.223 Y73.835 E2.67720
G1 X84.278 Y74.416 E2.69655
G1 X84.297 Y75.000 E2.71589
G1 X84.278 Y75.584 E2.73524
G1 X84.223 Y76.165 E2.75459
G1 X84.132 Y76.742 E2.77394
G1 X84.005 Y77.312 E2.79329
G1 X83.842 Y77.873 E2.81264
G1 X83.644 Y78.422 E2.83198
G1 X83.412 Y78.958 E2.85133
G1 X83.147 Y79.479 E2.87068
G1 X82.849 Y79.981 E2.89003
G1 X82.521 Y80.464 E2.90938
G1 X82.163 Y80.926 E2.92873
G1 X81.777 Y81.364 E2.94808
G1 X81.364 Y81.777 E2.96742
G1 X80.926 Y82.163 E2.98677
G1 X80.464 Y82.521 E3.00612
G1 X79.981 Y82.849 E3.02547
G1 X79.479 Y83.147 E3.04482
G1 X78.958 Y83.412 E3.06417
G1 X78.422 Y83.644 E3.08351
G1 X77.873 Y83.842 E3.10286
G1 X77.312 Y84.005 E3.12221
G1 X76.742 Y84.132 E3.14156
G1 X76.165 Y84.223 E3.16091
G1 X75.584 Y84.278 E3.18026
G1 X75.000 Y84.297 E3.19961
G1 X74.416 Y84.278 E3.21895
G1 X73.835 Y84.223 E3.23830
G1 X73.258 Y84.132 E3.25765
G1 X72.688 Y84.005 E3.27700
G1 X72.127 Y83.842 E3.29635
G1 X71.578 Y83.644 E3.31570
G1 X71.042 Y83.412 E3.33505
G1 X70.521 Y83.147 E3.35439
G1 X70.019 Y82.849 E3.37374
G1 X69.536 Y82.521 E3.39309
G1 X69.074 Y82.163 E3.41244
G1 X68.636 Y81.777 E3.43179
G1 X68.223 Y81.364 E3.45114
G1 X67.837 Y80.926 E3.47048
G1 X67.479 Y80.464 E3.48983
G1 X67.151 Y79.981 E3.50918
G1 X66.853 Y79.479 E3.52853
G1 X66.588 Y78.958 E3.54788
G1 X66.356 Y78.422 E3.56723
G1 X66.158 Y77.873 E3.58658
G1 X65.995 Y77.312 E3.60592
G1 X65.868 Y76.742 E3.62527
G1 X65.777 Y76.165 E3.64462
G1 X65.722 Y75.584 E3.66397
G1 X65.703 Y75.000 E3.68332
G1 X65.722 Y74.416 E3.70267
G1 X65.777 Y73.835 E3.72202
G1 X65.868 Y73.258 E3.74136
G1 X65.995 Y72.688 E3.76071
G1 X66.158 Y72.127 E3.78006
G1 X66.356 Y71.578 E3.79941
G1 X66.588 Y71.042 E3.81876
G1 X66.853 Y70.521 E3.83811
G1 X67.151 Y70.019 E3.85745
G1 X67.479 Y69.536 E3.87680
G1 X67.837 Y69.074 E3.89615
G1 X68.223 Y68.636 E3.91550
G1 X68.594 Y68.266 E3.93286
G1 X68.818 Y68.417 F7800.000
G1 F1800.000
G1 X69.244 Y68.042 E3.95166
G1 X69.692 Y67.694 E3.97045
G1 X70.161 Y67.375 E3.98925
G1 X70.649 Y67.086 E4.00804
G1 X71.155 Y66.829 E4.02684
G1 X71.676 Y66.603 E4.04563
G1 X72.209 Y66.411 E4.06443
G1 X72.754 Y66.253 E4.08322
G1 X73.308 Y66.129 E4.10202
G1 X73.868 Y66.040 E4.12081
G1 X74.433 Y65.987 E4.13961
G1 X75.000 Y65.969 E4.15841
G1 X75.567 Y65.987 E4.17720
G1 X76.132 Y66.040 E4.19600
G1 X76.692 Y66.129 E4.21479
G1 X77.246 Y66.253 E4.23359
G1 X77.791 Y66.411 E4.25238
G1 X78.324 Y66.603 E4.27118
G1 X78.845 Y66.829 E4.28997
G1 X79.351 Y67.086 E4.30877
G1 X79.839 Y67.375 E4.32756
G1 X80.308 Y67.694 E4.34636
G1 X80.756 Y68.042 E4.36515
G1 X81.182 Y68.417 E4.38395
G1 X81.583 Y68.818 E4.40275
G1 X81.958 Y69.244 E4.42154
G1 X82.306 Y69.692 E4.44034
G1 X82.625 Y70.161 E4.45913
G1 X82.914 Y70.649 E4.47793
G1 X83.171 Y71.155 E4.49672
G1 X83.397 Y71.676 E4.51552
G1 X83.589 Y72.209 E4.53431
G1 X83.747 Y72.754 E4.55311
G1 X83.871 Y73.308 E4.57190
G1 X83.960 Y73.868 E4.59070
G1 X84.013 Y74.433 E4.60949
G1 X84.031 Y75.000 E4.62829
G1 X84.013 Y75.567 E4.64709
G1 X83.960 Y76.132 E4.66588
G1 X83.871 Y76.692 E4.68468
G1 X83.747 Y77.246 E4.70347
G1 X83.589 Y77.791 E4.72227
G1 X83.397 Y78.324 E4.74106
G1 X83.171 Y78.845 E4.75986
G1 X82.914 Y79.351 E4.77865
G1 X82.625 Y79.839 E4.79745
G1 X82.306 Y80.308 E4.81624
G1 X81.958 Y80.756 E4.83504
G1 X81.583 Y81.182 E4.85383
G1 X81.182 Y81.583 E4.87263
G1 X80.756 Y81.958 E4.89143
G1 X80.308 Y82.306 E4.91022
G1 X79.839 Y82.625 E4.92902
G1 X79.351 Y82.914 E4.94781
G1 X78.845 Y83.171 E4.96661
G1 X78.324 Y83.397 E4.98540
G1 X77.791 Y83.589 E5.00420
G1 X77.246 Y83.747 E5.02299
G1 X76.692 Y83.871 E5.04179
G1 X76.132 Y83.960 E5.06058
G1 X75.567 Y84.013 E5.07938
G1 X75.000 Y84.031 E5.09817
G1 X74.433 Y84.013 E5.11697
G1 X73.868 Y83.960 E5.13577
G1 X73.308 Y83.871 E5.15456
G1 X72.754 Y83.747 E5.17336
G1 X72.209 Y83.589 E5.19215
G1 X71.676 Y83.397 E5.21095
G1 X71.155 Y83.171 E5.22974
G1 X70.649 Y82.914 E5.24854
G1 X70.161 Y82.625 E5.26733
G1 X69.692 Y82.306 E5.28613
G1 X69.244 Y81.958 E5.30492
G1 X68.818 Y81.583 E5.32372
G1 X68.417 Y81.182 E5.34251
G1 X68.042 Y80.756 E5.36131
G1 X67.694 Y80.308 E5.38011
G1 X67.375 Y79.839 E5.39890
G1 X67.086 Y79.351 E5.41770
G1 X66.829 Y78.845 E5.43649
G1 X66.603 Y78.324 E5.45529
G1 X66.411 Y77.791 E5.47408
G1 X66.253 Y77.246 E5.49288
G1 X66.129 Y76.692 E5.51167
G1 X66.040 Y76.132 E5.53047
G1 X65.987 Y75.567 E5.54926
G1 X65.969 Y75.000 E5.56806
G1 X65.987 Y74.433 E5.58685
G1 X66.040 Y73.868 E5.60565
G1 X66.129 Y73.308 E5.62445
G1 X66.253 Y72.754 E5.64324
G1 X66.411 Y72.209 E5.66204
G1 X66.603 Y71.676 E5.68083
G1 X66.829 Y71.155 E5.69963
G1 X67.086 Y70.649 E5.71842
G1 X67.375 Y70.161 E5.73722
G1 X67.694 Y69.692 E5.75601
G1 X68.042 Y69.244 E5.77481
G1 X68.417 Y68.818 E5.79360
G1 X68.776 Y68.459 E5.81041
G1 X69.000 Y68.611 F7800.000
G1 F1800.000
G1 X69.413 Y68.246 E5.82865
G1 X69.848 Y67.909 E5.84690
G1 X70.303 Y67.599 E5.86514
G1 X70.777 Y67.319 E5.88338
G1 X71.268 Y67.069 E5.90162
G1 X71.773 Y66.850 E5.91987
G1 X72.291 Y66.664 E5.93811
G1 X72.820 Y66.510 E5.95635
G1 X73.358 Y66.390 E5.97459
G1 X73.901 Y66.304 E5.99283
G1 X74.450 Y66.252 E6.01108
G1 X75.000 Y66.235 E6.02932
G1 X75.550 Y66.252 E6.04756
G1 X76.099 Y66.304 E6.06580
G1 X76.642 Y66.390 E6.08405
G1 X77.180 Y66.510 E6.10229
G1 X77.709 Y66.664 E6.12053
G1 X78.227 Y66.850 E6.13877
G1 X78.732 Y67.069 E6.15702
G1 X79.223 Y67.319 E6.17526
G1 X79.697 Y67.599 E6.19350
G1 X80.152 Y67.909 E6.21174
G1 X80.587 Y68.246 E6.22998
G1 X81.000 Y68.611 E6.24823
G1 X81.389 Y69.000 E6.26647
G1 X81.754 Y69.413 E6.28471
G1 X82.091 Y69.848 E6.30295
G1 X82.401 Y70.303 E6.32120
G1 X82.681 Y70.777 E6.33944
G1 X82.931 Y71.268 E6.35768
G1 X83.150 Y71.773 E6.37592
G1 X83.336 Y72.291 E6.39417
G1 X83.490 Y72.820 E6.41241
G1 X83.610 Y73.358 E6.43065
G1 X83.696 Y73.901 E6.44889
G1 X83.748 Y74.450 E6.46713
G1 X83.765 Y75.000 E6.48538
G1 X83.748 Y75.550 E6.50362
G1 X83.696 Y76.099 E6.52186
G1 X83.610 Y76.642 E6.54010
G1 X83.490 Y77.180 E6.55835
G1 X83.336 Y77.709 E6.57659
G1 X83.150 Y78.227 E6.59483
G1 X82.931 Y78.732 E6.61307
G1 X82.681 Y79.223 E6.63132
G1 X82.401 Y79.697 E6.64956
G1 X82.091 Y80.152 E6.66780
G1 X81.754 Y80.587 E6.68604
G1 X81.389 Y81.000 E6.70428
G1 X81.000 Y81.389 E6.72253
G1 X80.587 Y81.754 E6.74077
G1 X80.152 Y82.091 E6.75901
G1 X79.697 Y82.401 E6.77725
G1 X79.223 Y82.681 E6.79550
G1 X78.732 Y82.931 E6.81374
G1 X78.227 Y83.150 E6.83198
G1 X77.709 Y83.336 E6.85022
G1 X77.180 Y83.490 E6.86847
G1 X76.642 Y83.610 E6.88671
G1 X76.099 Y83.696 E6.90495
G1 X75.550 Y83.748 E6.92319
G1 X75.000 Y83.765 E6.94143
G1 X74.450 Y83.748 E6.95968
G1 X73.901 Y83.696 E6.97792
G1 X73.358 Y83.610 E6.99616
G1 X72.820 Y83.490 E7.01440
G1 X72.291 Y83.336 E7.03265
G1 X71.773 Y83.150 E7.05089
G1 X71.268 Y82.931 E7.06913
G1 X70.777 Y82.681 E7.08737
G1 X70.303 Y82.401 E7.10561
G1 X69.848 Y82.091 E7.12386
G1 X69.413 Y81.754 E7.14210
G1 X69.000 Y81.389 E7.16034
G1 X68.611 Y81.000 E7.17858
G1 X68.246 Y80.587 E7.19683
G1 X67.909 Y80.152 E7.21507
G1 X67.599 Y79.697 E7.23331
G1 X67.319 Y79.223 E7.25155
G1 X67.069 Y78.732 E7.26980
G1 X66.850 Y78.227 E7.28804
G1 X66.664 Y77.709 E7.30628
G1 X66.510 Y77.180 E7.32452
G1 X66.390 Y76.642 E7.34276
G1 X66.304 Y76.099 E7.36101
G1 X66.252 Y75.550 E7.37925
G1 X66.235 Y75.000 E7.39749
G1 X66.252 Y74.450 E7.41573
G1 X66.304 Y73.901 E7.43398
G1 X66.390 Y73.358 E7.45222
G1 X66.510 Y72.820 E7.47046
G1 X66.664 Y72.291 E7.48870
G1 X66.850 Y71.773 E7.50695
G1 X67.069 Y71.268 E7.52519
G1 X67.319 Y70.777 E7.54343
G1 X67.599 Y70.303 E7.56167
G1 X67.909 Y69.848 E7.57991
G1 X68.246 Y69.413 E7.59816
G1 X68.611 Y69.000 E7.61640
G1 X68.957 Y68.653 E7.63265
G1 E5.63265 F2400.00000
G92 E0
G1 X56.310 Y55.097 F7800.000
G1 E2.00000 F2400.00000
G1 F1800.000
G1 X57.596 Y53.962 E2.05682
G1 X58.951 Y52.911 E2.11365
G1 X60.370 Y51.947 E2.17048
G1 X61.846 Y51.074 E2.22730
G1 X63.375 Y50.295 E2.28413
G1 X64.949 Y49.614 E2.34095
G1 X66.563 Y49.033 E2.39778
G1 X68.210 Y48.554 E2.45460
G1 X69.884 Y48.180 E2.51143
G1 X71.578 Y47.912 E2.56825
G1 X73.286 Y47.751 E2.62508
G1 X75.000 Y47.697 E2.68190
G1 X76.714 Y47.751 E2.73873
G1 X78.422 Y47.912 E2.79555
G1 X80.116 Y48.180 E2.85238
G1 X81.790 Y48.554 E2.90920
G1 X83.437 Y49.033 E2.96603
G1 X85.051 Y49.614 E3.02285
G1 X86.625 Y50.295 E3.07968
G1 X88.154 Y51.074 E3.13650
G1 X89.630 Y51.947 E3.19333
G1 X91.049 Y52.911 E3.25015
G1 X92.404 Y53.962 E3.30698
G1 X93.690 Y55.097 E3.36380
G1 X94.903 Y56.310 E3.42063
G1 X96.038 Y57.596 E3.47745
G1 X97.089 Y58.951 E3.53428
G1 X98.053 Y60.370 E3.59111
G1 X98.926 Y61.846 E3.64793
G1 X99.705 Y63.375 E3.70475
G1 X100.386 Y64.949 E3.76158
G1 X100.967 Y66.563 E3.81840
G1 X101.446 Y68.210 E3.87523
G1 X101.820 Y69.884 E3.93205
G1 X102.088 Y71.578 E3.98888
G1 X102.249 Y73.286 E4.04570
G1 X102.303 Y75.000 E4.10253
G1 X102.249 Y76.714 E4.15935
G1 X102.088 Y78.422 E4.21618
G1 X101.820 Y80.116 E4.27301
G1 X101.446 Y81.790 E4.32983
G1 X100.967 Y83.437 E4.38666
G1 X100.386 Y85.051 E4.44348
G1 X99.705 Y86.625 E4.50030
G1 X98.926 Y88.154 E4.55713
G1 X98.053 Y89.630 E4.61395
G1 X97.089 Y91.049 E4.67078
G1 X96.038 Y92.404 E4.72761
G1 X94.903 Y93.690 E4.78443
G1 X93.690 Y94.903 E4.84126
G1 X92.404 Y96.038 E4.89808
G1 X91.049 Y97.089 E4.95491
G1 X89.630 Y98.053 E5.01173
G1 X88.154 Y98.926 E5.06856
G1 X86.625 Y99.705 E5.12538
G1 X85.051 Y100.386 E5.18221
G1 X83.437 Y100.967 E5.23903
G1 X81.790 Y101.446 E5.29586
G1 X80.116 Y101.820 E5.35268
G1 X78.422 Y102.088 E5.40951
G1 X76.714 Y102.249 E5.46633
G1 X75.000 Y102.303 E5.52316
G1 X73.286 Y102.249 E5.57998
G1 X71.578 Y102.088 E5.63681
G1 X69.884 Y101.820 E5.69363
G1 X68.210 Y101.446 E5.75046
G1 X66.563 Y100.967 E5.80728
G1 X64.949 Y100.386 E5.86411
G1 X63.375 Y99.705 E5.92093
G1 X61.846 Y98.926 E5.97776
G1 X60.370 Y98.053 E6.03458
G1 X58.951 Y97.089 E6.09141
G1 X57.596 Y96.038 E6.14823
G1 X56.310 Y94.903 E6.20506
G1 X55.097 Y93.690 E6.26189
G1 X53.962 Y92.404 E6.31871
G1 X52.911 Y91.049 E6.37554
G1 X51.947 Y89.630 E6.43236
G1 X51.074 Y88.154 E6.48919
G1 X50.295 Y86.625 E6.54601
G1 X49.614 Y85.051 E6.60284
G1 X49.033 Y83.437 E6.65966
G1 X48.554 Y81.790 E6.71649
G1 X48.180 Y80.116 E6.77331
G1 X47.912 Y78.422 E6.83014
G1 X47.751 Y76.714 E6.88696
G1 X47.697 Y75.000 E6.94379
G1 X47.751 Y73.286 E7.00061
G1 X47.912 Y71.578 E7.05744
G1 X48.180 Y69.884 E7.11426
G1 X48.554 Y68.210 E7.17109
G1 X49.033 Y66.563 E7.22791
G1 X49.614 Y64.949 E7.28474
G1 X50.295 Y63.375 E7.34156
G1 X51.074 Y61.846 E7.39839
G1 X51.947 Y60.370 E7.45521
G1 X52.911 Y58.951 E7.51204
G1 X53.962 Y57.596 E7.56886
G1 X55.097 Y56.310 E7.62569
G1 X56.267 Y55.139 E7.68053
G1 X56.128 Y54.903 F7800.000
G1 F1800.000
G1 X57.427 Y53.758 E7.73790
G1 X58.795 Y52.696 E7.79528
G1 X60.228 Y51.723 E7.85266
G1 X61.718 Y50.841 E7.91004
G1 X63.262 Y50.055 E7.96742
G1 X64.851 Y49.367 E8.02479
G1 X66.481 Y48.780 E8.08217
G1 X68.144 Y48.297 E8.13955
G1 X69.834 Y47.919 E8.19693
G1 X71.545 Y47.648 E8.25431
G1 X73.269 Y47.485 E8.31169
G1 X75.000 Y47.431 E8.36906
G1 X76.731 Y47.485 E8.42644
G1 X78.455 Y47.648 E8.48382
G1 X80.166 Y47.919 E8.54120
G1 X81.856 Y48.297 E8.59858
G1 X83.519 Y48.780 E8.65596
G1 X85.149 Y49.367 E8.71334
G1 X86.738 Y50.055 E8.77071
G1 X88.282 Y50.841 E8.82809
G1 X89.772 Y51.723 E8.88547
G1 X91.205 Y52.696 E8.94285
G1 X92.573 Y53.758 E9.00023
G1 X93.872 Y54.903 E9.05760
G1 X95.097 Y56.128 E9.11498
G1 X96.242 Y57.427 E9.17236
G1 X97.304 Y58.795 E9.22974
G1 X98.277 Y60.228 E9.28712
G1 X99.159 Y61.718 E9.34450
G1 X99.945 Y63.262 E9.40187
G1 X100.633 Y64.851 E9.45925
G1 X101.220 Y66.481 E9.51663
G1 X101.703 Y68.144 E9.57401
G1 X102.081 Y69.834 E9.63139
G1 X102.352 Y71.545 E9.68876
G1 X102.515 Y73.269 E9.74614
G1 X102.569 Y75.000 E9.80352
G1 X102.515 Y76.731 E9.86090
G1 X102.352 Y78.455 E9.91828
G1 X102.081 Y80.166 E9.97566
G1 X101.703 Y81.856 E10.03303
G1 X101.220 Y83.519 E10.09041
G1 X100.633 Y85.149 E10.14779
G1 X99.945 Y86.738 E10.20517
G1 X99.159 Y88.282 E10.26255
G1 X98.277 Y89.772 E10.31992
G1 X97.304 Y91.205 E10.37730
G1 X96.242 Y92.573 E10.43468
G1 X95.097 Y93.872 E10.49206
G1 X93.872 Y95.097 E10.54944
G1 X92.573 Y96.242 E10.60682
G1 X91.205 Y97.304 E10.66419
G1 X89.772 Y98.277 E10.72157
G1 X88.282 Y99.159 E10.77895
G1 X86.738 Y99.945 E10.83633
G1 X85.149 Y100.633 E10.89371
G1 X83.519 Y101.220 E10.95109
G1 X81.856 Y101.703 E11.00846
G1 X80.166 Y102.081 E11.06584
G1 X78.455 Y102.352 E11.12322
G1 X76.731 Y102.515 E11.18060
G1 X75.000 Y102.569 E11.23798
G1 X73.269 Y102.515 E11.29535
G1 X71.545 Y102.352 E11.35273
G1 X69.834 Y102.081 E11.41011
G1 X68.144 Y101.703 E11.46749
G1 X66.481 Y101.220 E11.52487
G1 X64.851 Y100.633 E11.58225
G1 X63.262 Y99.945 E11.63962
G1 X61.718 Y99.159 E11.69700
G1 X60.228 Y98.277 E11.75438
G1 X58.795 Y97.304 E11.81176
G1 X57.427 Y96.242 E11.86914
G1 X56.128 Y95.097 E11.92651
G1 X54.903 Y93.872 E11.98389
G1 X53.758 Y92.573 E12.04127
G1 X52.696 Y91.205 E12.09865
G1 X51.723 Y89.772 E12.15603
G1 X50.841 Y88.282 E12.21341
G1 X50.055 Y86.738 E12.27079
G1 X49.367 Y85.149 E12.32816
G1 X48.780 Y83.519 E12.38554
G1 X48.297 Y81.856 E12.44292
G1 X47.919 Y80.166 E12.50030
G1 X47.648 Y78.455 E12.55768
G1 X47.485 Y76.731 E12.61505
G1 X47.431 Y75.000 E12.67243
G1 X47.485 Y73.269 E12.72981
G1 X47.648 Y71.545 E12.78719
G1 X47.919 Y69.834 E12.84457
G1 X48.297 Y68.144 E12.90195
G1 X48.780 Y66.481 E12.95932
G1 X49.367 Y64.851 E13.01670
G1 X50.055 Y63.262 E13.07408
G1 X50.841 Y61.718 E13.13146
G1 X51.723 Y60.228 E13.18883
G1 X52.696 Y58.795 E13.24621
G1 X53.758 Y57.427 E13.30359
G1 X54.903 Y56.128 E13.36097
G1 X56.085 Y54.945 E13.41636
G1 X55.946 Y54.709 F7800.000
G1 F1800.000
G1 X57.257 Y53.553 E13.47429
G1 X58.639 Y52.481 E13.53222
G1 X60.085 Y51.498 E13.59016
G1 X61.590 Y50.608 E13.64809
G1 X63.148 Y49.814 E13.70602
G1 X64.753 Y49.120 E13.76395
G1 X66.399 Y48.527 E13.82188
G1 X68.078 Y48.040 E13.87981
G1 X69.784 Y47.658 E13.93774
G1 X71.511 Y47.385 E13.99568
G1 X73.252 Y47.220 E14.05361
G1 X75.000 Y47.165 E14.11154
G1 X76.748 Y47.220 E14.16947
G1 X78.489 Y47.385 E14.22740
G1 X80.216 Y47.658 E14.28533
G1 X81.922 Y48.040 E14.34326
G1 X83.601 Y48.527 E14.40119
G1 X85.247 Y49.120 E14.45913
G1 X86.852 Y49.814 E14.51706
G1 X88.410 Y50.608 E14.57499
G1 X89.915 Y51.498 E14.63292
G1 X91.361 Y52.481 E14.69085
G1 X92.743 Y53.553 E14.74878
G1 X94.054 Y54.709 E14.80671
G1 X95.291 Y55.946 E14.86465
G1 X96.447 Y57.257 E14.92258
G1 X97.519 Y58.639 E14.98051
G1 X98.502 Y60.085 E15.03844
G1 X99.392 Y61.590 E15.09637
G1 X100.186 Y63.148 E15.15430
