; generated by Slic3r 1.3.1-dev (Build adea0d9) on 2020-01-22 at 17:23:28

; external perimeters extrusion width = 0.44mm (2.86mm^3/s)
; perimeters extrusion width = 0.56mm (4.14mm^3/s)
; infill extrusion width = 0.50mm (3.66mm^3/s)
; solid infill extrusion width = 0.56mm (3.10mm^3/s)
; top infill extrusion width = 0.56mm (3.10mm^3/s)

M107
G92 E0
;D3D:START:START
T0
M104 S215 T0

G21
G90
M107
T0
G28
G29
M109 T0 S215 T0
G0 F3000
M107
T0
G92 E0
G0 X0 Y149 Z0.1 F3600
G1 Y49 E6.5 F1200
G0 Z1
G92 E0
; Filament gcode

G21 ; set units to millimeters
G90 ; use absolute coordinates
M82 ; use absolute distances for extrusion
G92 E0
G1 Z0.300 F7800.000
G1 E-2.00000 F2400.00000
G92 E0
G1 X66.804 Y59.857 F7800.000
G1 E2.00000 F2400.00000
G1 F1800.000
G1 X83.196 Y59.857 E2.54307
G1 X83.196 Y107.196 E4.11140
G1 X66.804 Y107.196 E4.65447
G1 X66.804 Y59.917 E6.22081
G1 X67.069 Y60.123 F7800.000
G1 F1800.000
G1 X82.931 Y60.123 E6.74628
G1 X82.931 Y106.931 E8.29701
G1 X67.069 Y106.931 E8.82248
G1 X67.069 Y60.183 E10.37122
G1 X67.335 Y60.388 F7800.000
G1 F1800.000
G1 X82.665 Y60.388 E10.87909
G1 X82.665 Y106.665 E12.41222
G1 X67.335 Y106.665 E12.92009
G1 X67.335 Y60.448 E14.45123
G1 E12.45123 F2400.00000
G92 E0
G1 X61.841 Y88.244 F7800.000
G1 E2.00000 F2400.00000
G1 F1800.000
G1 X62.246 Y88.362 E2.01397
G1 X62.632 Y88.559 E2.02831
G1 X62.974 Y88.824 E2.04265
G1 X63.260 Y89.149 E2.05699
G1 X63.480 Y89.521 E2.07132
G1 X63.627 Y89.928 E2.08566
G1 X63.695 Y90.356 E2.10000
G1 X63.681 Y90.788 E2.11433
G1 X63.587 Y91.211 E2.12867
G1 X63.415 Y91.608 E2.14301
G1 X63.172 Y91.966 E2.15735
G1 X62.866 Y92.272 E2.17168
G1 X62.517 Y92.509 E2.18566
G1 X62.246 Y92.636 E2.19558
G1 X61.961 Y92.729 E2.20550
G1 X61.555 Y92.793 E2.21911
G1 X61.256 Y92.793 E2.22904
G1 X60.959 Y92.756 E2.23896
G1 X60.554 Y92.638 E2.25293
G1 X60.168 Y92.441 E2.26727
G1 X59.826 Y92.176 E2.28161
G1 X59.540 Y91.851 E2.29595
G1 X59.320 Y91.479 E2.31028
G1 X59.173 Y91.072 E2.32462
G1 X59.105 Y90.644 E2.33895
G1 X59.119 Y90.212 E2.35329
G1 X59.213 Y89.789 E2.36763
G1 X59.385 Y89.392 E2.38197
G1 X59.628 Y89.034 E2.39631
G1 X59.934 Y88.728 E2.41064
G1 X60.292 Y88.485 E2.42498
G1 X60.679 Y88.318 E2.43896
G1 X60.969 Y88.243 E2.44888
G1 X61.256 Y88.207 E2.45844
G1 X61.544 Y88.207 E2.46800
G1 X61.782 Y88.237 E2.47593
G1 X61.787 Y88.505 F7800.000
G1 F1800.000
G1 X62.148 Y88.610 E2.48838
G1 X62.489 Y88.784 E2.50105
G1 X62.791 Y89.018 E2.51373
G1 X63.044 Y89.305 E2.52640
G1 X63.239 Y89.635 E2.53908
G1 X63.369 Y89.995 E2.55175
G1 X63.428 Y90.372 E2.56442
G1 X63.417 Y90.755 E2.57710
G1 X63.333 Y91.128 E2.58977
G1 X63.181 Y91.479 E2.60245
G1 X62.966 Y91.796 E2.61512
G1 X62.696 Y92.066 E2.62779
G1 X62.385 Y92.277 E2.64024
G1 X62.148 Y92.389 E2.64892
G1 X61.899 Y92.470 E2.65760
G1 X61.534 Y92.527 E2.66982
G1 X61.272 Y92.527 E2.67850
G1 X61.013 Y92.495 E2.68717
G1 X60.652 Y92.390 E2.69962
G1 X60.311 Y92.216 E2.71229
G1 X60.009 Y91.982 E2.72497
G1 X59.756 Y91.695 E2.73764
G1 X59.561 Y91.365 E2.75032
G1 X59.431 Y91.005 E2.76299
G1 X59.372 Y90.628 E2.77566
G1 X59.383 Y90.245 E2.78834
G1 X59.467 Y89.872 E2.80101
G1 X59.619 Y89.521 E2.81369
G1 X59.834 Y89.204 E2.82636
G1 X60.104 Y88.934 E2.83903
G1 X60.421 Y88.719 E2.85171
G1 X60.766 Y88.570 E2.86416
G1 X61.019 Y88.505 E2.87283
G1 X61.272 Y88.473 E2.88128
G1 X61.528 Y88.473 E2.88974
G1 X61.728 Y88.498 E2.89642
G1 X61.733 Y88.766 F7800.000
G1 F1800.000
G1 X62.050 Y88.858 E2.90735
G1 X62.346 Y89.009 E2.91836
G1 X62.609 Y89.213 E2.92937
G1 X62.828 Y89.462 E2.94038
G1 X62.998 Y89.748 E2.95139
G1 X63.110 Y90.061 E2.96240
G1 X63.162 Y90.389 E2.97341
G1 X63.152 Y90.721 E2.98442
G1 X63.079 Y91.046 E2.99543
G1 X62.947 Y91.351 E3.00644
G1 X62.761 Y91.626 E3.01745
G1 X62.526 Y91.861 E3.02846
G1 X62.253 Y92.046 E3.03939
G1 X62.050 Y92.141 E3.04682
G1 X61.837 Y92.211 E3.05425
G1 X61.513 Y92.262 E3.06508
G1 X61.289 Y92.262 E3.07252
G1 X61.067 Y92.234 E3.07995
G1 X60.750 Y92.142 E3.09087
G1 X60.454 Y91.991 E3.10188
G1 X60.191 Y91.787 E3.11289
G1 X59.972 Y91.538 E3.12390
G1 X59.802 Y91.252 E3.13491
G1 X59.690 Y90.939 E3.14592
G1 X59.638 Y90.611 E3.15693
G1 X59.648 Y90.279 E3.16794
G1 X59.721 Y89.954 E3.17895
G1 X59.853 Y89.649 E3.18996
G1 X60.039 Y89.374 E3.20097
G1 X60.274 Y89.139 E3.21198
G1 X60.549 Y88.953 E3.22299
G1 X60.852 Y88.822 E3.23392
G1 X61.069 Y88.766 E3.24135
G1 X61.289 Y88.738 E3.24869
G1 X61.674 Y88.759 E3.26145
G1 E1.26145 F2400.00000
G92 E0
G1 X86.319 Y90.212 F7800.000
G1 E2.00000 F2400.00000
G1 F1800.000
G1 X86.413 Y89.789 E2.01434
G1 X86.585 Y89.392 E2.02868
G1 X86.828 Y89.034 E2.04302
G1 X87.134 Y88.728 E2.05735
G1 X87.492 Y88.485 E2.07169
G1 X87.879 Y88.318 E2.08566
G1 X88.169 Y88.243 E2.09559
G1 X88.456 Y88.207 E2.10514
G1 X88.744 Y88.207 E2.11471
G1 X89.041 Y88.244 E2.12463
G1 X89.446 Y88.362 E2.13860
G1 X89.832 Y88.559 E2.15294
G1 X90.174 Y88.824 E2.16728
G1 X90.460 Y89.149 E2.18161
G1 X90.680 Y89.521 E2.19595
G1 X90.827 Y89.928 E2.21029
G1 X90.895 Y90.356 E2.22462
G1 X90.881 Y90.788 E2.23896
G1 X90.787 Y91.211 E2.25330
G1 X90.615 Y91.608 E2.26764
G1 X90.372 Y91.966 E2.28198
G1 X90.066 Y92.272 E2.29631
G1 X89.717 Y92.509 E2.31029
G1 X89.446 Y92.636 E2.32021
G1 X89.161 Y92.729 E2.33013
G1 X88.755 Y92.793 E2.34374
G1 X88.456 Y92.793 E2.35366
G1 X88.159 Y92.756 E2.36359
G1 X87.754 Y92.638 E2.37756
G1 X87.368 Y92.441 E2.39189
G1 X87.026 Y92.176 E2.40623
G1 X86.740 Y91.851 E2.42057
G1 X86.520 Y91.479 E2.43491
G1 X86.373 Y91.072 E2.44925
G1 X86.305 Y90.644 E2.46358
G1 X86.317 Y90.272 E2.47593
G1 X86.583 Y90.245 F7800.000
G1 F1800.000
G1 X86.667 Y89.872 E2.48861
G1 X86.819 Y89.521 E2.50128
G1 X87.034 Y89.204 E2.51396
G1 X87.304 Y88.934 E2.52663
G1 X87.621 Y88.719 E2.53930
G1 X87.966 Y88.570 E2.55175
G1 X88.219 Y88.505 E2.56043
G1 X88.472 Y88.473 E2.56888
G1 X88.728 Y88.473 E2.57733
G1 X88.987 Y88.505 E2.58601
G1 X89.348 Y88.610 E2.59846
G1 X89.689 Y88.784 E2.61113
G1 X89.991 Y89.018 E2.62381
G1 X90.244 Y89.305 E2.63648
G1 X90.439 Y89.635 E2.64915
G1 X90.569 Y89.995 E2.66183
G1 X90.628 Y90.372 E2.67450
G1 X90.617 Y90.755 E2.68717
G1 X90.533 Y91.128 E2.69985
G1 X90.381 Y91.479 E2.71252
G1 X90.166 Y91.796 E2.72520
G1 X89.896 Y92.066 E2.73787
G1 X89.585 Y92.277 E2.75032
G1 X89.348 Y92.389 E2.75900
G1 X89.099 Y92.470 E2.76767
G1 X88.734 Y92.527 E2.77989
G1 X88.472 Y92.527 E2.78857
G1 X88.213 Y92.495 E2.79725
G1 X87.852 Y92.390 E2.80970
G1 X87.511 Y92.216 E2.82237
G1 X87.209 Y91.982 E2.83505
G1 X86.956 Y91.695 E2.84772
G1 X86.761 Y91.365 E2.86039
G1 X86.631 Y91.005 E2.87307
G1 X86.572 Y90.628 E2.88574
G1 X86.582 Y90.305 E2.89642
G1 X86.848 Y90.279 F7800.000
G1 F1800.000
G1 X86.921 Y89.954 E2.90744
G1 X87.053 Y89.649 E2.91845
G1 X87.239 Y89.374 E2.92946
G1 X87.474 Y89.139 E2.94047
G1 X87.749 Y88.953 E2.95148
G1 X88.052 Y88.822 E2.96240
G1 X88.269 Y88.766 E2.96983
G1 X88.489 Y88.738 E2.97717
G1 X88.711 Y88.738 E2.98452
G1 X88.933 Y88.766 E2.99195
G1 X89.250 Y88.858 E3.00288
G1 X89.546 Y89.009 E3.01388
G1 X89.809 Y89.213 E3.02490
G1 X90.028 Y89.462 E3.03591
G1 X90.198 Y89.748 E3.04692
G1 X90.310 Y90.061 E3.05793
G1 X90.362 Y90.389 E3.06894
G1 X90.352 Y90.721 E3.07995
G1 X90.279 Y91.046 E3.09096
G1 X90.147 Y91.351 E3.10197
G1 X89.960 Y91.626 E3.11298
G1 X89.726 Y91.861 E3.12399
G1 X89.453 Y92.046 E3.13491
G1 X89.250 Y92.141 E3.14234
G1 X89.037 Y92.211 E3.14977
G1 X88.713 Y92.262 E3.16061
G1 X88.489 Y92.262 E3.16804
G1 X88.267 Y92.234 E3.17547
G1 X87.950 Y92.142 E3.18640
G1 X87.654 Y91.991 E3.19741
G1 X87.391 Y91.787 E3.20842
G1 X87.172 Y91.538 E3.21943
G1 X87.002 Y91.252 E3.23044
G1 X86.890 Y90.939 E3.24145
G1 X86.838 Y90.611 E3.25246
G1 X86.846 Y90.339 E3.26148
G1 E1.26148 F2400.00000
G92 E0
G1 X74.995 Y40.389 F7800.000
G1 E2.00000 F2400.00000
G1 F1800.000
G1 X76.403 Y42.772 E2.09170
G1 X77.616 Y44.938 E2.17396
G1 X79.420 Y48.318 E2.30086
G1 X80.613 Y50.667 E2.38817
G1 X81.441 Y52.354 E2.45040
G1 X83.147 Y55.998 E2.58373
G1 X84.441 Y58.932 E2.68995
G1 X85.297 Y60.968 E2.76311
G1 X86.139 Y63.059 E2.83780
G1 X87.361 Y66.285 E2.95209
G1 X88.510 Y69.588 E3.06796
G1 X89.220 Y71.818 E3.14548
G1 X89.555 Y72.933 E3.18406
G1 X90.184 Y75.181 E3.26138
G1 X90.472 Y76.297 E3.29959
G1 X90.998 Y78.536 E3.37578
G1 X91.446 Y80.760 E3.45093
G1 X91.636 Y81.855 E3.48776
G1 X91.952 Y84.038 E3.56082
G1 X92.171 Y86.183 E3.63227
G1 X92.241 Y87.233 E3.66711
G1 X92.286 Y88.273 E3.70161
G1 X92.303 Y89.300 E3.73562
G1 X92.293 Y90.311 E3.76913
G1 X92.255 Y91.307 E3.80214
G1 X92.188 Y92.285 E3.83462
G1 X92.092 Y93.245 E3.86660
G1 X91.968 Y94.187 E3.89806
G1 X91.814 Y95.109 E3.92902
G1 X91.631 Y96.009 E3.95948
G1 X91.419 Y96.889 E3.98944
G1 X91.179 Y97.746 E4.01894
G1 X90.909 Y98.580 E4.04797
G1 X90.611 Y99.390 E4.07657
G1 X90.285 Y100.175 E4.10474
G1 X89.931 Y100.936 E4.13252
G1 X89.550 Y101.670 E4.15993
G1 X89.143 Y102.378 E4.18698
G1 X88.710 Y103.058 E4.21371
G1 X88.252 Y103.712 E4.24014
G1 X87.769 Y104.336 E4.26631
G1 X87.262 Y104.933 E4.29222
G1 X86.733 Y105.499 E4.31792
G1 X86.181 Y106.037 E4.34343
G1 X85.608 Y106.544 E4.36878
G1 X85.015 Y107.021 E4.39399
G1 X84.403 Y107.466 E4.41908
G1 X83.771 Y107.881 E4.44410
G1 X83.122 Y108.263 E4.46907
G1 X82.456 Y108.614 E4.49401
G1 X81.774 Y108.933 E4.51896
G1 X81.076 Y109.218 E4.54395
G1 X80.363 Y109.471 E4.56901
G1 X79.635 Y109.691 E4.59418
G1 X78.894 Y109.878 E4.61951
G1 X78.139 Y110.031 E4.64503
G1 X77.371 Y110.150 E4.67078
G1 X76.589 Y110.235 E4.69683
G1 X75.792 Y110.286 E4.72331
G1 X75.005 Y110.300 E4.74939
G1 X74.208 Y110.286 E4.77577
G1 X73.411 Y110.235 E4.80225
G1 X72.629 Y110.150 E4.82830
G1 X71.861 Y110.031 E4.85404
G1 X71.106 Y109.878 E4.87957
G1 X70.365 Y109.691 E4.90490
G1 X69.637 Y109.471 E4.93007
G1 X68.924 Y109.218 E4.95513
G1 X68.226 Y108.933 E4.98012
G1 X67.544 Y108.614 E5.00507
G1 X66.878 Y108.263 E5.03001
G1 X66.229 Y107.881 E5.05498
G1 X65.597 Y107.466 E5.07999
G1 X64.985 Y107.021 E5.10509
G1 X64.392 Y106.544 E5.13030
G1 X63.819 Y106.037 E5.15565
G1 X63.267 Y105.499 E5.18116
G1 X62.738 Y104.933 E5.20685
G1 X62.231 Y104.336 E5.23277
G1 X61.748 Y103.712 E5.25893
G1 X61.290 Y103.058 E5.28537
G1 X60.857 Y102.378 E5.31210
G1 X60.450 Y101.670 E5.33915
G1 X60.069 Y100.936 E5.36656
G1 X59.715 Y100.175 E5.39434
G1 X59.389 Y99.390 E5.42251
G1 X59.091 Y98.580 E5.45111
G1 X58.821 Y97.746 E5.48014
G1 X58.581 Y96.889 E5.50963
G1 X58.369 Y96.009 E5.53960
G1 X58.186 Y95.109 E5.57006
G1 X58.032 Y94.187 E5.60102
G1 X57.908 Y93.245 E5.63248
G1 X57.812 Y92.285 E5.66445
G1 X57.745 Y91.307 E5.69694
G1 X57.707 Y90.311 E5.72995
G1 X57.697 Y89.300 E5.76346
G1 X57.714 Y88.273 E5.79747
G1 X57.759 Y87.233 E5.83197
G1 X57.829 Y86.183 E5.86681
G1 X58.048 Y84.038 E5.93826
G1 X58.364 Y81.855 E6.01132
G1 X58.554 Y80.760 E6.04815
G1 X59.002 Y78.536 E6.12330
G1 X59.528 Y76.297 E6.19949
G1 X59.816 Y75.181 E6.23770
G1 X60.445 Y72.933 E6.31502
G1 X60.780 Y71.818 E6.35360
G1 X61.490 Y69.588 E6.43112
G1 X62.639 Y66.285 E6.54699
G1 X63.861 Y63.059 E6.66128
G1 X64.703 Y60.968 E6.73596
G1 X65.559 Y58.932 E6.80913
G1 X66.853 Y55.998 E6.91535
G1 X68.559 Y52.354 E7.04868
G1 X69.387 Y50.667 E7.11091
G1 X70.581 Y48.316 E7.19827
G1 X71.695 Y46.205 E7.27736
G1 X72.708 Y44.352 E7.34732
G1 X73.863 Y42.309 E7.42507
G1 X74.965 Y40.440 E7.49693
G1 X75.000 Y39.898 F7800.000
G1 F1800.000
G1 X75.439 Y40.597 E7.52427
G1 X76.633 Y42.640 E7.60267
G1 X77.849 Y44.811 E7.68510
G1 X79.656 Y48.195 E7.81219
G1 X80.851 Y50.549 E7.89964
G1 X81.680 Y52.239 E7.96202
G1 X83.389 Y55.888 E8.09553
G1 X84.685 Y58.827 E8.20192
G1 X85.543 Y60.867 E8.27523
G1 X86.386 Y62.962 E8.35007
G1 X87.611 Y66.194 E8.46457
G1 X88.762 Y69.505 E8.58068
G1 X89.474 Y71.739 E8.65839
G1 X89.810 Y72.859 E8.69713
G1 X90.440 Y75.112 E8.77461
G1 X90.730 Y76.234 E8.81301
G1 X91.257 Y78.480 E8.88943
G1 X91.707 Y80.711 E8.96485
G1 X91.899 Y81.813 E9.00191
G1 X92.216 Y84.006 E9.07529
G1 X92.435 Y86.161 E9.14707
G1 X92.507 Y87.218 E9.18218
G1 X92.551 Y88.265 E9.21690
G1 X92.569 Y89.299 E9.25114
G1 X92.558 Y90.318 E9.28489
G1 X92.520 Y91.321 E9.31815
G1 X92.453 Y92.307 E9.35091
G1 X92.356 Y93.276 E9.38316
G1 X92.230 Y94.226 E9.41492
G1 X92.075 Y95.157 E9.44617
G1 X91.891 Y96.067 E9.47694
G1 X91.677 Y96.956 E9.50724
G1 X91.433 Y97.823 E9.53707
G1 X91.160 Y98.667 E9.56645
G1 X90.858 Y99.487 E9.59540
G1 X90.528 Y100.282 E9.62394
G1 X90.170 Y101.053 E9.65209
G1 X89.784 Y101.797 E9.67988
G1 X89.370 Y102.515 E9.70732
G1 X88.931 Y103.206 E9.73445
G1 X88.465 Y103.869 E9.76128
G1 X87.975 Y104.504 E9.78785
G1 X87.461 Y105.109 E9.81418
G1 X86.923 Y105.685 E9.84029
G1 X86.362 Y106.231 E9.86622
G1 X85.780 Y106.747 E9.89198
G1 X85.177 Y107.232 E9.91761
G1 X84.554 Y107.685 E9.94313
G1 X83.912 Y108.106 E9.96857
G1 X83.252 Y108.495 E9.99396
G1 X82.574 Y108.852 E10.01933
G1 X81.880 Y109.176 E10.04470
G1 X81.170 Y109.467 E10.07011
G1 X80.445 Y109.724 E10.09559
G1 X79.706 Y109.947 E10.12118
G1 X78.953 Y110.137 E10.14692
G1 X78.186 Y110.292 E10.17285
G1 X77.406 Y110.413 E10.19900
G1 X76.612 Y110.500 E10.22544
G1 X75.802 Y110.552 E10.25232
G1 X75.005 Y110.566 E10.27876
G1 X74.197 Y110.552 E10.30550
G1 X73.388 Y110.500 E10.33238
G1 X72.594 Y110.413 E10.35883
G1 X71.814 Y110.292 E10.38497
G1 X71.047 Y110.137 E10.41090
G1 X70.294 Y109.947 E10.43665
G1 X69.555 Y109.724 E10.46223
G1 X68.830 Y109.467 E10.48771
G1 X68.120 Y109.176 E10.51312
G1 X67.426 Y108.852 E10.53849
G1 X66.748 Y108.495 E10.56386
G1 X66.088 Y108.106 E10.58925
G1 X65.446 Y107.685 E10.61469
G1 X64.823 Y107.232 E10.64021
G1 X64.220 Y106.747 E10.66584
G1 X63.638 Y106.231 E10.69161
G1 X63.077 Y105.685 E10.71753
G1 X62.539 Y105.109 E10.74365
G1 X62.025 Y104.504 E10.76997
G1 X61.535 Y103.869 E10.79654
G1 X61.069 Y103.206 E10.82338
G1 X60.630 Y102.515 E10.85050
G1 X60.216 Y101.797 E10.87795
G1 X59.830 Y101.053 E10.90573
G1 X59.472 Y100.282 E10.93389
G1 X59.142 Y99.487 E10.96243
G1 X58.840 Y98.667 E10.99138
G1 X58.567 Y97.823 E11.02076
G1 X58.323 Y96.956 E11.05059
G1 X58.109 Y96.067 E11.08088
G1 X57.925 Y95.157 E11.11165
G1 X57.770 Y94.226 E11.14291
G1 X57.644 Y93.276 E11.17466
G1 X57.547 Y92.307 E11.20691
G1 X57.480 Y91.321 E11.23967
G1 X57.441 Y90.318 E11.27293
G1 X57.431 Y89.299 E11.30668
G1 X57.449 Y88.265 E11.34093
G1 X57.493 Y87.218 E11.37565
G1 X57.564 Y86.161 E11.41075
G1 X57.784 Y84.006 E11.48253
G1 X58.101 Y81.813 E11.55591
G1 X58.293 Y80.711 E11.59298
G1 X58.743 Y78.480 E11.66839
G1 X59.270 Y76.234 E11.74482
G1 X59.560 Y75.112 E11.78321
G1 X60.190 Y72.859 E11.86070
G1 X60.526 Y71.739 E11.89943
G1 X61.238 Y69.505 E11.97715
G1 X62.389 Y66.194 E12.09325
G1 X63.614 Y62.962 E12.20776
G1 X64.457 Y60.867 E12.28260
G1 X65.315 Y58.827 E12.35590
G1 X66.611 Y55.888 E12.46230
G1 X68.320 Y52.239 E12.59581
G1 X69.149 Y50.549 E12.65818
G1 X70.345 Y48.194 E12.74567
G1 X71.461 Y46.079 E12.82490
G1 X72.476 Y44.223 E12.89498
G1 X73.633 Y42.176 E12.97287
G1 X74.706 Y40.357 E13.04284
G1 X74.968 Y39.948 E13.05892
G1 X75.102 Y39.561 F7800.000
G1 F1800.000
G1 X75.667 Y40.459 E13.09405
G1 X76.864 Y42.508 E13.17268
G1 X78.082 Y44.683 E13.25528
G1 X79.891 Y48.072 E13.38254
G1 X81.089 Y50.430 E13.47015
G1 X81.920 Y52.124 E13.53266
G1 X83.631 Y55.778 E13.66635
G1 X84.929 Y58.722 E13.77292
G1 X85.788 Y60.765 E13.84637
G1 X86.634 Y62.865 E13.92137
G1 X87.861 Y66.104 E14.03608
G1 X89.014 Y69.421 E14.15243
G1 X89.728 Y71.661 E14.23033
G1 X90.065 Y72.785 E14.26922
G1 X90.697 Y75.043 E14.34688
G1 X90.988 Y76.170 E14.38546
G1 X91.517 Y78.423 E14.46212
G1 X91.968 Y80.662 E14.53779
G1 X92.161 Y81.772 E14.57510
G1 X92.479 Y83.973 E14.64879
G1 X92.700 Y86.139 E14.72091
G1 X92.772 Y87.204 E14.75627
G1 X92.817 Y88.257 E14.79121
G1 X92.835 Y89.298 E14.82569
G1 X92.824 Y90.324 E14.85969
G1 X92.785 Y91.335 E14.89320
G1 X92.717 Y92.329 E14.92622
G1 X92.620 Y93.307 E14.95876
G1 X92.493 Y94.265 E14.99080
G1 X92.337 Y95.205 E15.02236
G1 X92.150 Y96.125 E15.05344
G1 X91.934 Y97.023 E15.08406
G1 X91.687 Y97.900 E15.11423
G1 X91.411 Y98.753 E15.14395
G1 X91.106 Y99.584 E15.17326
G1 X90.771 Y100.389 E15.20216
G1 X90.408 Y101.170 E15.23069
G1 X90.017 Y101.925 E15.25886
G1 X89.598 Y102.653 E15.28669
G1 X89.152 Y103.354 E15.31421
G1 X88.679 Y104.027 E15.34145
G1 X88.182 Y104.671 E15.36842
