; generated by Slic3r 1.3.1-dev (Build adea0d9) on 2020-02-14 at 10:23:58

; external perimeters extrusion width = 0.44mm (3.38mm^3/s)
; perimeters extrusion width = 0.48mm (7.54mm^3/s)
; infill extrusion width = 0.48mm (10.05mm^3/s)
; solid infill extrusion width = 0.48mm (2.51mm^3/s)
; top infill extrusion width = 0.48mm (1.88mm^3/s)

M107
G92 E0
;D3D:START:START
T0
M104 S215 T0

G21
G90
M107
T0
G28
G29
M109 T0 S215 T0
G0 F3000
M107
T0
G92 E0
G0 X0 Y149 Z0.1 F3600
G1 Y49 E6.5 F1200
G0 Z1
G92 E0
; Filament gcode

G21 ; set units to millimeters
G90 ; use absolute coordinates
M82 ; use absolute distances for extrusion
G92 E0
G1 Z0.350 F7800.000
G1 E-2.00000 F2400.00000
G92 E0
G1 X67.407 Y38.853 F7800.000
G1 E2.00000 F2400.00000
G1 F1800.000
G1 X68.404 Y37.152 E2.17929
G1 X69.121 Y36.001 E2.30256
G1 X69.603 Y35.332 E2.37754
G1 X70.145 Y34.718 E2.45201
G1 X70.609 Y34.287 E2.50964
G1 X70.913 Y34.043 E2.54507
G1 X71.583 Y33.595 E2.61834
G1 X72.042 Y33.349 E2.66567
G1 X72.561 Y33.122 E2.71718
G1 X72.878 Y33.008 E2.74785
G1 X73.464 Y32.842 E2.80322
G1 X73.815 Y32.770 E2.83584
G1 X74.493 Y32.684 E2.89799
G1 X75.172 Y32.667 E2.95975
G1 X75.521 Y32.685 E2.99149
G1 X75.896 Y32.725 E3.02578
G1 X76.531 Y32.841 E3.08449
G1 X76.884 Y32.934 E3.11764
G1 X77.469 Y33.134 E3.17388
G1 X78.101 Y33.421 E3.23703
G1 X78.534 Y33.665 E3.28220
G1 X79.087 Y34.043 E3.34312
G1 X79.391 Y34.287 E3.37854
G1 X79.908 Y34.772 E3.44307
G1 X80.264 Y35.168 E3.49146
G1 X80.605 Y35.607 E3.54199
G1 X81.076 Y36.304 E3.61851
G1 X81.732 Y37.380 E3.73304
G1 X82.751 Y39.128 E3.91708
G1 X83.685 Y40.786 E4.09013
G1 X85.511 Y44.167 E4.43951
G1 X87.158 Y47.388 E4.76845
G1 X88.909 Y51.010 E5.13427
G1 X90.257 Y53.960 E5.42914
G1 X91.628 Y57.127 E5.74296
G1 X92.942 Y60.355 E6.05987
G1 X94.231 Y63.754 E6.39040
G1 X95.074 Y66.141 E6.62060
G1 X95.834 Y68.441 E6.84086
G1 X96.208 Y69.635 E6.95463
G1 X96.916 Y72.044 E7.18293
G1 X97.585 Y74.567 E7.42032
G1 X98.161 Y77.026 E7.64993
G1 X98.656 Y79.496 E7.87898
G1 X99.061 Y81.971 E8.10704
G1 X99.349 Y84.299 E8.32039
G1 X99.474 Y85.680 E8.44643
G1 X99.546 Y86.750 E8.54394
G1 X99.600 Y87.970 E8.65500
G1 X99.623 Y89.185 E8.76552
G1 X99.609 Y90.583 E8.89263
G1 X99.559 Y91.795 E9.00291
G1 X99.491 Y92.794 E9.09400
G1 X99.376 Y93.981 E9.20244
G1 X99.224 Y95.159 E9.31041
G1 X98.991 Y96.552 E9.43886
G1 X98.751 Y97.712 E9.54656
G1 X98.534 Y98.616 E9.63115
G1 X98.223 Y99.739 E9.73710
G1 X97.871 Y100.845 E9.84259
G1 X97.378 Y102.184 E9.97230
G1 X96.929 Y103.251 E10.07758
G1 X96.562 Y104.038 E10.15651
G1 X96.042 Y105.054 E10.26031
G1 X95.481 Y106.042 E10.36370
G1 X94.711 Y107.252 E10.49408
G1 X94.054 Y108.175 E10.59712
G1 X93.358 Y109.065 E10.69980
G1 X92.830 Y109.686 E10.77389
G1 X92.072 Y110.508 E10.87562
G1 X91.047 Y111.507 E11.00572
G1 X90.207 Y112.240 E11.10711
G1 X89.336 Y112.931 E11.20824
G1 X88.434 Y113.577 E11.30914
G1 X87.503 Y114.179 E11.40988
G1 X86.547 Y114.734 E11.51043
G1 X85.567 Y115.241 E11.61081
G1 X84.854 Y115.574 E11.68234
G1 X83.834 Y116.000 E11.78286
G1 X82.794 Y116.377 E11.88337
G1 X81.435 Y116.787 E12.01248
G1 X80.362 Y117.050 E12.11296
G1 X79.276 Y117.263 E12.21359
G1 X78.476 Y117.387 E12.28719
G1 X77.366 Y117.515 E12.38883
G1 X76.238 Y117.594 E12.49160
G1 X74.935 Y117.621 E12.61010
G1 X73.762 Y117.594 E12.71682
G1 X72.634 Y117.515 E12.81958
G1 X71.524 Y117.387 E12.92123
G1 X70.724 Y117.263 E12.99483
G1 X69.638 Y117.050 E13.09545
G1 X68.565 Y116.787 E13.19593
G1 X67.206 Y116.377 E13.32504
G1 X66.166 Y116.000 E13.42556
G1 X65.146 Y115.574 E13.52608
G1 X64.149 Y115.100 E13.62648
G1 X63.175 Y114.579 E13.72696
G1 X62.225 Y114.010 E13.82756
G1 X61.304 Y113.396 E13.92825
G1 X60.412 Y112.738 E14.02908
G1 X59.550 Y112.036 E14.13011
G1 X58.723 Y111.293 E14.23128
G1 X57.928 Y110.508 E14.33280
G1 X57.170 Y109.686 E14.43453
G1 X56.449 Y108.826 E14.53657
G1 X55.766 Y107.931 E14.63890
G1 X55.289 Y107.252 E14.71433
G1 X54.672 Y106.295 E14.81785
G1 X54.097 Y105.308 E14.92178
G1 X53.563 Y104.293 E15.02608
G1 X53.071 Y103.251 E15.13084
G1 X52.622 Y102.184 E15.23612
G1 X52.129 Y100.845 E15.36583
G1 X51.777 Y99.739 E15.47133
G1 X51.466 Y98.616 E15.57727
G1 X51.249 Y97.712 E15.66186
G1 X51.009 Y96.552 E15.76957
G1 X50.776 Y95.159 E15.89801
G1 X50.624 Y93.981 E16.00598
G1 X50.509 Y92.794 E16.11442
G1 X50.430 Y91.599 E16.22337
G1 X50.387 Y90.395 E16.33285
G1 X50.377 Y89.185 E16.44290
G1 X50.400 Y87.970 E16.55343
G1 X50.445 Y86.912 E16.64971
G1 X50.526 Y85.680 E16.76199
G1 X50.651 Y84.299 E16.88803
G1 X50.791 Y83.070 E17.00050
G1 X51.129 Y80.733 E17.21528
G1 X51.603 Y78.150 E17.45406
G1 X51.861 Y76.922 E17.56818
G1 X52.415 Y74.567 E17.78811
G1 X52.753 Y73.257 E17.91116
G1 X53.431 Y70.836 E18.13978
G1 X54.143 Y68.511 E18.36089
G1 X54.551 Y67.255 E18.48094
G1 X55.333 Y64.971 E18.70048
G1 X56.172 Y62.663 E18.92377
G1 X57.498 Y59.249 E19.25677
G1 X58.372 Y57.127 E19.46548
G1 X59.273 Y55.024 E19.67347
G1 X60.176 Y52.995 E19.87543
G1 X61.091 Y51.010 E20.07418
G1 X61.976 Y49.152 E20.26135
G1 X63.249 Y46.576 E20.52260
G1 X64.090 Y44.931 E20.69058
G1 X65.255 Y42.725 E20.91746
G1 X66.314 Y40.786 E21.11833
G1 X67.377 Y38.905 E21.31479
G1 E19.31479 F2400.00000
G92 E0
G1 X83.475 Y59.104 F7800.000
G1 E2.00000 F2400.00000
G1 F1800.000
G1 X83.475 Y106.975 E6.35288
G1 X66.525 Y106.975 E7.89412
G1 X66.525 Y59.104 E12.24699
G1 X83.415 Y59.104 E13.78278
G1 X82.850 Y59.729 F7800.000
G1 F1800.000
G1 X82.850 Y106.350 E18.02201
G1 X67.150 Y106.350 E19.44961
G1 X67.150 Y59.729 E23.68884
G1 X82.790 Y59.729 E25.11098
G1 X83.216 Y59.567 F7800.000
G1 E23.11098 F2400.00000
G92 E0
G1 X65.900 Y61.228 F7800.000
G1 E2.00000 F2400.00000
G1 F1800.000
G1 X65.900 Y106.569 E6.12283
G1 X65.534 Y106.303 E6.16399
G1 X64.975 Y105.853 E6.22925
G1 X64.434 Y105.375 E6.29489
G1 X63.913 Y104.867 E6.36101
G1 X63.413 Y104.331 E6.42767
G1 X62.934 Y103.767 E6.49498
G1 X62.476 Y103.175 E6.56299
G1 X62.042 Y102.556 E6.63180
G1 X61.630 Y101.910 E6.70147
G1 X61.243 Y101.236 E6.77209
G1 X60.880 Y100.537 E6.84375
G1 X60.543 Y99.811 E6.91651
G1 X60.231 Y99.061 E6.99043
G1 X59.945 Y98.285 E7.06560
G1 X59.687 Y97.485 E7.14206
G1 X59.455 Y96.661 E7.21988
G1 X59.251 Y95.814 E7.29910
G1 X59.075 Y94.944 E7.37976
G1 X58.926 Y94.053 E7.46191
G1 X58.765 Y92.732 E7.58294
G1 X59.015 Y92.623 E7.60777
G1 X59.205 Y92.838 E7.63380
G1 X59.682 Y93.208 E7.68870
G1 X60.219 Y93.482 E7.74357
G1 X60.775 Y93.643 E7.79615
G1 X61.199 Y93.697 E7.83502
G1 X61.626 Y93.697 E7.87390
G1 X62.173 Y93.610 E7.92418
G1 X62.579 Y93.478 E7.96305
G1 X62.966 Y93.296 E8.00192
G1 X63.444 Y92.971 E8.05451
G1 X63.871 Y92.544 E8.10939
G1 X64.210 Y92.045 E8.16427
G1 X64.450 Y91.491 E8.21915
G1 X64.582 Y90.902 E8.27405
G1 X64.601 Y90.299 E8.32894
G1 X64.506 Y89.703 E8.38380
G1 X64.302 Y89.135 E8.43869
G1 X63.994 Y88.615 E8.49357
G1 X63.595 Y88.162 E8.54846
G1 X63.118 Y87.792 E8.60335
G1 X62.581 Y87.518 E8.65823
G1 X62.025 Y87.357 E8.71081
G1 X61.601 Y87.303 E8.74968
G1 X61.199 Y87.303 E8.78626
G1 X60.800 Y87.354 E8.82283
G1 X60.386 Y87.460 E8.86170
G1 X59.855 Y87.690 E8.91428
G1 X59.356 Y88.029 E8.96917
G1 X58.610 Y88.775 E9.06512
G1 X58.661 Y87.282 E9.20095
G1 X58.730 Y86.260 E9.29417
G1 X58.945 Y84.149 E9.48711
G1 X59.256 Y81.997 E9.68475
G1 X59.443 Y80.927 E9.78356
G1 X59.885 Y78.729 E9.98744
G1 X60.406 Y76.514 E10.19434
G1 X60.689 Y75.415 E10.29748
G1 X61.313 Y73.185 E10.50809
G1 X61.643 Y72.085 E10.61251
G1 X62.348 Y69.874 E10.82351
G1 X63.488 Y66.593 E11.13934
G1 X64.703 Y63.388 E11.45105
G1 X65.599 Y61.168 E11.66875
G1 X65.841 Y61.216 E11.69120
G1 E9.69120 F2400.00000
G92 E0
G1 X84.100 Y61.228 F7800.000
G1 E2.00000 F2400.00000
G1 F1800.000
G1 X84.401 Y61.168 E2.02790
G1 X85.297 Y63.388 E2.24560
G1 X86.512 Y66.593 E2.55732
G1 X87.652 Y69.874 E2.87314
G1 X88.357 Y72.085 E3.08415
G1 X88.687 Y73.185 E3.18857
G1 X89.311 Y75.415 E3.39918
G1 X89.594 Y76.514 E3.50232
G1 X90.115 Y78.729 E3.70922
G1 X90.557 Y80.927 E3.91310
G1 X90.744 Y81.997 E4.01191
G1 X91.055 Y84.149 E4.20954
G1 X91.270 Y86.260 E4.40249
G1 X91.339 Y87.282 E4.49571
G1 X91.391 Y88.839 E4.63729
G1 X90.795 Y88.162 E4.71925
G1 X90.318 Y87.792 E4.77415
G1 X89.781 Y87.518 E4.82902
G1 X89.225 Y87.357 E4.88161
G1 X88.801 Y87.303 E4.92047
G1 X88.399 Y87.303 E4.95705
G1 X88.000 Y87.354 E4.99363
G1 X87.586 Y87.460 E5.03249
G1 X87.055 Y87.690 E5.08507
G1 X86.556 Y88.029 E5.13997
G1 X86.129 Y88.456 E5.19485
G1 X85.790 Y88.955 E5.24973
G1 X85.550 Y89.509 E5.30462
G1 X85.418 Y90.098 E5.35951
G1 X85.399 Y90.701 E5.41440
G1 X85.494 Y91.297 E5.46927
G1 X85.698 Y91.865 E5.52415
G1 X86.006 Y92.385 E5.57903
G1 X86.405 Y92.838 E5.63392
G1 X86.882 Y93.208 E5.68881
G1 X87.419 Y93.482 E5.74369
G1 X87.975 Y93.643 E5.79627
G1 X88.399 Y93.697 E5.83514
G1 X88.826 Y93.697 E5.87402
G1 X89.373 Y93.610 E5.92430
G1 X89.779 Y93.478 E5.96317
G1 X90.166 Y93.296 E6.00203
G1 X90.644 Y92.971 E6.05463
G1 X91.274 Y92.341 E6.13560
G1 X91.194 Y93.141 E6.20872
G1 X91.074 Y94.053 E6.29237
G1 X90.925 Y94.944 E6.37452
G1 X90.749 Y95.814 E6.45518
G1 X90.545 Y96.661 E6.53440
G1 X90.313 Y97.485 E6.61222
G1 X90.055 Y98.285 E6.68868
G1 X89.769 Y99.061 E6.76384
G1 X89.457 Y99.811 E6.83777
G1 X89.120 Y100.537 E6.91052
G1 X88.757 Y101.236 E6.98218
G1 X88.370 Y101.910 E7.05280
G1 X87.958 Y102.556 E7.12247
G1 X87.524 Y103.175 E7.19128
G1 X87.066 Y103.767 E7.25930
G1 X86.587 Y104.331 E7.32660
G1 X86.087 Y104.867 E7.39326
G1 X85.566 Y105.375 E7.45938
G1 X85.025 Y105.853 E7.52503
G1 X84.466 Y106.303 E7.59028
G1 X84.100 Y106.569 E7.63145
G1 X84.100 Y61.288 E11.74882
G1 E9.74882 F2400.00000
G92 E0
G1 X83.254 Y58.479 F7800.000
G1 E2.00000 F2400.00000
G1 F1800.000
G1 X66.746 Y58.479 E3.50100
G1 X67.676 Y56.372 E3.71038
G1 X69.375 Y52.744 E4.07466
G1 X70.196 Y51.071 E4.24414
G1 X71.384 Y48.732 E4.48271
G1 X72.492 Y46.632 E4.69859
G1 X73.498 Y44.791 E4.88939
G1 X75.000 Y42.165 E5.16442
G1 X76.502 Y44.791 E5.43944
G1 X77.508 Y46.632 E5.63024
G1 X78.616 Y48.732 E5.84613
G1 X79.804 Y51.071 E6.08469
G1 X80.625 Y52.744 E6.25417
G1 X82.324 Y56.372 E6.61845
G1 X83.229 Y58.424 E6.82237
G1 E4.82237 F2400.00000
G92 E0
G1 X88.117 Y87.969 F7800.000
G1 E2.00000 F2400.00000
G1 F1800.000
G1 X88.438 Y87.928 E2.02942
G1 X88.762 Y87.928 E2.05885
G1 X89.098 Y87.971 E2.08967
G1 X89.549 Y88.102 E2.13241
G1 X89.982 Y88.322 E2.17655
G1 X90.366 Y88.620 E2.22070
G1 X90.687 Y88.984 E2.26484
G1 X90.934 Y89.402 E2.30898
G1 X91.098 Y89.859 E2.35313
G1 X91.174 Y90.338 E2.39726
G1 X91.159 Y90.823 E2.44140
G1 X91.053 Y91.297 E2.48555
G1 X90.860 Y91.743 E2.52970
G1 X90.587 Y92.144 E2.57383
G1 X90.244 Y92.487 E2.61797
G1 X89.855 Y92.752 E2.66072
G1 X89.549 Y92.896 E2.69154
G1 X89.226 Y93.001 E2.72236
G1 X88.777 Y93.072 E2.76370
G1 X88.438 Y93.072 E2.79453
G1 X88.102 Y93.029 E2.82535
G1 X87.651 Y92.898 E2.86809
G1 X87.218 Y92.678 E2.91222
G1 X86.834 Y92.380 E2.95637
G1 X86.513 Y92.016 E3.00052
G1 X86.266 Y91.598 E3.04466
G1 X86.102 Y91.141 E3.08880
G1 X86.026 Y90.662 E3.13293
G1 X86.041 Y90.177 E3.17707
G1 X86.147 Y89.703 E3.22122
G1 X86.340 Y89.257 E3.26537
G1 X86.613 Y88.856 E3.30951
G1 X86.956 Y88.513 E3.35365
G1 X87.357 Y88.240 E3.39780
G1 X87.789 Y88.053 E3.44053
G1 X88.059 Y87.984 E3.46590
G1 X88.234 Y88.584 F7800.000
G1 F1800.000
G1 X88.477 Y88.553 E3.48817
G1 X88.723 Y88.553 E3.51045
G1 X88.971 Y88.585 E3.53323
G1 X89.318 Y88.685 E3.56612
G1 X89.646 Y88.852 E3.59952
G1 X89.936 Y89.077 E3.63292
G1 X90.179 Y89.353 E3.66632
G1 X90.366 Y89.669 E3.69972
G1 X90.490 Y90.015 E3.73312
G1 X90.548 Y90.377 E3.76652
G1 X90.536 Y90.745 E3.79992
G1 X90.456 Y91.103 E3.83332
G1 X90.310 Y91.440 E3.86672
G1 X90.104 Y91.744 E3.90012
G1 X89.844 Y92.004 E3.93352
G1 X89.545 Y92.207 E3.96642
G1 X89.318 Y92.314 E3.98919
G1 X89.080 Y92.391 E4.01197
G1 X88.728 Y92.447 E4.04436
G1 X88.477 Y92.447 E4.06715
G1 X88.229 Y92.415 E4.08992
G1 X87.882 Y92.315 E4.12282
G1 X87.554 Y92.148 E4.15621
G1 X87.264 Y91.923 E4.18962
G1 X87.021 Y91.647 E4.22301
G1 X86.834 Y91.331 E4.25641
G1 X86.710 Y90.985 E4.28981
G1 X86.652 Y90.623 E4.32321
G1 X86.664 Y90.255 E4.35661
G1 X86.744 Y89.897 E4.39001
G1 X86.890 Y89.560 E4.42341
G1 X87.096 Y89.256 E4.45681
G1 X87.356 Y88.996 E4.49021
G1 X87.660 Y88.790 E4.52361
G1 X87.992 Y88.646 E4.55651
G1 X88.176 Y88.599 E4.57383
G1 X88.234 Y88.584 F7800.000
G1 E2.57383 F2400.00000
G92 E0
G1 X81.798 Y107.600 F7800.000
G1 E2.00000 F2400.00000
G1 F1800.000
G1 X81.863 Y107.894 E2.02736
G1 X81.411 Y108.105 E2.07276
G1 X80.753 Y108.374 E2.13741
G1 X80.080 Y108.613 E2.20228
G1 X79.393 Y108.820 E2.26754
G1 X78.693 Y108.996 E2.33323
G1 X77.979 Y109.141 E2.39949
G1 X77.251 Y109.254 E2.46646
G1 X76.509 Y109.335 E2.53433
G1 X75.750 Y109.383 E2.60346
G1 X75.005 Y109.396 E2.67119
G1 X74.250 Y109.383 E2.73992
G1 X73.491 Y109.335 E2.80902
G1 X72.749 Y109.254 E2.87690
G1 X72.021 Y109.141 E2.94387
G1 X71.307 Y108.996 E3.01012
G1 X70.607 Y108.820 E3.07582
G1 X69.920 Y108.613 E3.14107
G1 X69.247 Y108.374 E3.20594
G1 X68.589 Y108.105 E3.27059
G1 X68.137 Y107.894 E3.31600
G1 X68.202 Y107.600 E3.34335
G1 X81.738 Y107.600 E4.57420
G1 E2.57420 F2400.00000
G92 E0
G1 X63.387 Y92.144 F7800.000
G1 E2.00000 F2400.00000
G1 F1800.000
G1 X63.044 Y92.487 E2.04414
G1 X62.655 Y92.752 E2.08688
G1 X62.349 Y92.896 E2.11770
G1 X62.026 Y93.001 E2.14853
G1 X61.577 Y93.072 E2.18986
G1 X61.238 Y93.072 E2.22069
G1 X60.902 Y93.029 E2.25151
G1 X60.451 Y92.898 E2.29425
G1 X60.018 Y92.678 E2.33839
G1 X59.634 Y92.380 E2.38254
G1 X59.313 Y92.016 E2.42668
G1 X59.066 Y91.598 E2.47082
G1 X58.902 Y91.141 E2.51497
G1 X58.826 Y90.662 E2.55910
G1 X58.841 Y90.177 E2.60324
G1 X58.947 Y89.703 E2.64739
G1 X59.140 Y89.257 E2.69153
G1 X59.413 Y88.856 E2.73567
G1 X59.756 Y88.513 E2.77981
G1 X60.157 Y88.240 E2.82396
G1 X60.589 Y88.053 E2.86670
G1 X60.917 Y87.969 E2.89752
G1 X61.238 Y87.928 E2.92694
G1 X61.562 Y87.928 E2.95637
G1 X61.898 Y87.971 E2.98719
G1 X62.349 Y88.102 E3.02994
G1 X62.782 Y88.322 E3.07407
G1 X63.166 Y88.620 E3.11822
G1 X63.487 Y88.984 E3.16236
G1 X63.734 Y89.402 E3.20650
G1 X63.898 Y89.859 E3.25065
G1 X63.974 Y90.338 E3.29478
G1 X63.959 Y90.823 E3.33892
G1 X63.853 Y91.297 E3.38307
G1 X63.660 Y91.743 E3.42722
G1 X63.421 Y92.094 E3.46590
G1 X62.904 Y91.744 F7800.000
G1 F1800.000
G1 X62.644 Y92.004 E3.49930
G1 X62.345 Y92.207 E3.53220
G1 X62.118 Y92.314 E3.55497
G1 X61.880 Y92.391 E3.57775
G1 X61.528 Y92.447 E3.61014
G1 X61.277 Y92.447 E3.63292
G1 X61.029 Y92.415 E3.65570
G1 X60.682 Y92.315 E3.68859
G1 X60.354 Y92.148 E3.72199
G1 X60.064 Y91.923 E3.75539
G1 X59.821 Y91.647 E3.78879
G1 X59.634 Y91.331 E3.82219
G1 X59.510 Y90.985 E3.85559
G1 X59.452 Y90.623 E3.88899
G1 X59.464 Y90.255 E3.92239
G1 X59.544 Y89.897 E3.95579
G1 X59.690 Y89.560 E3.98919
G1 X59.896 Y89.256 E4.02259
G1 X60.156 Y88.996 E4.05599
G1 X60.460 Y88.790 E4.08939
G1 X60.792 Y88.646 E4.12229
G1 X61.034 Y88.584 E4.14506
G1 X61.277 Y88.553 E4.16734
G1 X61.523 Y88.553 E4.18962
G1 X61.771 Y88.585 E4.21239
G1 X62.118 Y88.685 E4.24529
G1 X62.446 Y88.852 E4.27868
G1 X62.736 Y89.077 E4.31209
G1 X62.979 Y89.353 E4.34549
G1 X63.166 Y89.669 E4.37889
G1 X63.290 Y90.015 E4.41229
G1 X63.348 Y90.377 E4.44568
G1 X63.336 Y90.745 E4.47908
G1 X63.256 Y91.103 E4.51249
G1 X63.110 Y91.440 E4.54589
G1 X62.937 Y91.694 E4.57383
G1 X62.904 Y91.744 F7800.000
G1 E2.57383 F2400.00000
G92 E0
G1 X75.000 Y40.938 F7800.000
G1 E2.00000 F2400.00000
G1 F1800.000
G1 X75.894 Y42.449 E2.15963
G1 X77.048 Y44.487 E2.37260
G1 X78.058 Y46.337 E2.56424
G1 X79.171 Y48.444 E2.78097
G1 X80.364 Y50.792 E3.02038
G1 X81.189 Y52.474 E3.19077
G1 X82.893 Y56.114 E3.55620
G1 X84.185 Y59.042 E3.84723
G1 X85.039 Y61.074 E4.04763
G1 X85.879 Y63.160 E4.25215
G1 X87.099 Y66.380 E4.56524
G1 X88.245 Y69.677 E4.88258
G1 X88.954 Y71.900 E5.09481
G1 X89.287 Y73.011 E5.20025
G1 X89.914 Y75.253 E5.41196
G1 X90.201 Y76.364 E5.51630
G1 X90.725 Y78.596 E5.72473
G1 X91.171 Y80.812 E5.93027
G1 X91.361 Y81.899 E6.03064
G1 X91.675 Y84.072 E6.23029
G1 X91.893 Y86.207 E6.42540
G1 X91.963 Y87.248 E6.52030
G1 X92.007 Y88.282 E6.61436
G1 X92.024 Y89.301 E6.70704
G1 X92.014 Y90.304 E6.79831
G1 X91.976 Y91.292 E6.88816
G1 X91.910 Y92.262 E6.97656
G1 X91.815 Y93.213 E7.06352
G1 X91.692 Y94.146 E7.14904
