; generated by Slic3r 1.2.7-dev on 2015-02-11 at 23:17:07

; external perimeters extrusion width = 0.40mm
; perimeters extrusion width = 0.48mm
; infill extrusion width = 0.48mm
; solid infill extrusion width = 0.48mm
; top infill extrusion width = 0.48mm

M190 S80 ; set bed temperature
M104 S230 ; set temperature
G28 ; home all axes
G92 E0.0 ; reset extruder
M109 S230 ; wait for temperature to be reached
G21 ; set units to millimeters
G90 ; use absolute coordinates
M83 ; use relative distances for extrusion
G1 E-1.30000 F3600.00000
G1 Z0.300 F7800.000
G1 X34.869 Y35.994 F7800.000
G1 E1.30000 F3600.00000
M204 S500
G1 X37.250 Y34.346 E0.18381 F2160.000
G1 X39.991 Y33.408 E0.18381
G1 X42.000 Y33.214 E0.12812
G1 X138.000 Y33.214 E6.09265
G1 X140.869 Y33.612 E0.18381
G1 X143.521 Y34.777 E0.18381 F2160.000
G1 X145.756 Y36.619 E0.18381
G1 X147.404 Y39.000 E0.18381
G1 X148.342 Y41.741 E0.18381
G1 X148.536 Y43.750 E0.12812
G1 X148.536 Y136.250 E5.87053
G1 X148.138 Y139.119 E0.18381
G1 X146.973 Y141.771 E0.18381
G1 X145.131 Y144.006 E0.18381
G1 X142.750 Y145.654 E0.18381
G1 X140.009 Y146.592 E0.18381
G1 X138.000 Y146.786 E0.12812
G1 X42.000 Y146.786 E6.09265
G1 X39.131 Y146.388 E0.18381
G1 X36.479 Y145.223 E0.18381
G1 X34.244 Y143.381 E0.18381
G1 X32.596 Y141.000 E0.18381
G1 X31.658 Y138.259 E0.18381
G1 X31.464 Y136.250 E0.12812
G1 X31.464 Y43.750 E5.87053
G1 X31.862 Y40.881 E0.18381
G1 X33.027 Y38.229 E0.18381
G1 X34.831 Y36.041 E0.18001
G1 X36.063 Y37.188 F7800.000
G1 X38.339 Y34.912 E0.20430 F2160.000
G1 X141.661 Y34.912 E6.55731
G1 X146.838 Y40.089 E0.46465
G1 X146.838 Y139.911 E6.33518 F2160.000
G1 X141.661 Y145.088 E0.46465
G1 X38.339 Y145.088 E6.55731
G1 X33.162 Y139.911 E0.46465
G1 X33.162 Y40.089 E6.33518
G1 X36.021 Y37.231 E0.25655
G1 X36.442 Y37.567 F7800.000
G1 X38.561 Y35.448 E0.19022 F2160.000
G1 X141.439 Y35.448 E6.52915
G1 X146.302 Y40.311 E0.43649 F2160.000
G1 X146.302 Y139.689 E6.30702
G1 X141.439 Y144.552 E0.43649
G1 X38.561 Y144.552 E6.52915
G1 X33.698 Y139.689 E0.43649
G1 X33.698 Y40.311 E6.30702
G1 X36.399 Y37.610 E0.24247
G1 X36.821 Y37.946 F7800.000
G1 X38.783 Y35.984 E0.17613 F2160.000
G1 X141.217 Y35.984 E6.50099
G1 X145.766 Y40.533 E0.40833
G1 X145.766 Y139.467 E6.27886 F2160.000
G1 X141.217 Y144.016 E0.40833
G1 X38.783 Y144.016 E6.50099
G1 X34.234 Y139.467 E0.40833
G1 X34.234 Y40.533 E6.27886
G1 X36.778 Y37.988 E0.22839
G1 X37.199 Y38.325 F7800.000
G1 X39.005 Y36.519 E0.16205 F2160.000
G1 X140.995 Y36.519 E6.47282
G1 X145.231 Y40.755 E0.38017 F2160.000
G1 X145.231 Y139.245 E6.25070
G1 X140.995 Y143.481 E0.38017
G1 X39.005 Y143.481 E6.47282
G1 X34.769 Y139.245 E0.38017
G1 X34.769 Y40.755 E6.25070
G1 X37.157 Y38.367 E0.21431
G1 X37.578 Y38.703 F7800.000
G1 X39.227 Y37.055 E0.14797 F2160.000
G1 X140.773 Y37.055 E6.44466
G1 X144.695 Y40.977 E0.35201
G1 X144.695 Y139.023 E6.22254 F2160.000
G1 X140.773 Y142.945 E0.35201
G1 X39.227 Y142.945 E6.44466
G1 X35.305 Y139.023 E0.35201
G1 X35.305 Y40.977 E6.22254
G1 X37.536 Y38.746 E0.20023
G1 X37.957 Y39.082 F7800.000
G1 X39.449 Y37.590 E0.13389 F2160.000
G1 X140.551 Y37.590 E6.41650
G1 X144.160 Y41.199 E0.32385 F2160.000
G1 X144.160 Y138.801 E6.19437
G1 X140.551 Y142.410 E0.32385
G1 X39.449 Y142.410 E6.41650
G1 X35.840 Y138.801 E0.32385
G1 X35.840 Y41.199 E6.19437
G1 X37.914 Y39.125 E0.18615
G1 X38.336 Y39.461 F7800.000
G1 X39.670 Y38.126 E0.11981 F2160.000
G1 X140.330 Y38.126 E6.38834
G1 X143.624 Y41.420 E0.29569
G1 X143.624 Y138.580 E6.16621 F2160.000
G1 X140.330 Y141.874 E0.29569
G1 X39.670 Y141.874 E6.38834
G1 X36.376 Y138.580 E0.29569
G1 X36.376 Y41.420 E6.16621
G1 X38.293 Y39.503 E0.17207
G1 X38.714 Y39.840 F7800.000
G1 X39.892 Y38.662 E0.10573 F2160.000
G1 X140.108 Y38.662 E6.36018
G1 X143.088 Y41.642 E0.26753 F2160.000
G1 X143.088 Y138.358 E6.13805
G1 X140.108 Y141.338 E0.26753
G1 X39.892 Y141.338 E6.36018
G1 X36.912 Y138.358 E0.26753
G1 X36.912 Y41.642 E6.13805
G1 X38.672 Y39.882 E0.15799
G1 X39.093 Y40.218 F7800.000
G1 X40.114 Y39.197 E0.09165 F2160.000
G1 X139.886 Y39.197 E6.33202
G1 X142.553 Y41.864 E0.23937
G1 X142.553 Y138.136 E6.10989 F2160.000
G1 X139.886 Y140.803 E0.23937
G1 X40.114 Y140.803 E6.33202
G1 X37.447 Y138.136 E0.23937
G1 X37.447 Y41.864 E6.10989
G1 X39.051 Y40.261 E0.14391
G1 X39.472 Y40.597 F7800.000
G1 X40.336 Y39.733 E0.07757 F2160.000
G1 X139.664 Y39.733 E6.30386
G1 X142.017 Y42.086 E0.21121 F2160.000
G1 X142.017 Y137.914 E6.08173
G1 X139.664 Y140.267 E0.21121
G1 X40.336 Y140.267 E6.30386
G1 X37.983 Y137.914 E0.21121
G1 X37.983 Y42.086 E6.08173
G1 X39.429 Y40.640 E0.12983
G1 X39.851 Y40.976 F7800.000
G1 X40.558 Y40.268 E0.06349 F2160.000
G1 X139.442 Y40.268 E6.27570
G1 X141.482 Y42.308 E0.18305
G1 X141.482 Y137.692 E6.05357 F2160.000
G1 X139.442 Y139.732 E0.18305
G1 X40.558 Y139.732 E6.27570
G1 X38.518 Y137.692 E0.18305
G1 X38.518 Y42.308 E6.05357
G1 X39.808 Y41.018 E0.11575
G1 X40.229 Y41.355 F7800.000
G1 X40.780 Y40.804 E0.04941 F2160.000
G1 X139.220 Y40.804 E6.24754
G1 X140.946 Y42.530 E0.15488 F2160.000
G1 X140.946 Y137.470 E6.02541
G1 X139.220 Y139.196 E0.15488
G1 X40.780 Y139.196 E6.24754
G1 X39.054 Y137.470 E0.15488
G1 X39.054 Y42.530 E6.02541
G1 X40.187 Y41.397 E0.10167
G1 X40.608 Y41.733 F7800.000
G1 X41.002 Y41.340 E0.03533 F2160.000
G1 X138.998 Y41.340 E6.21938
G1 X140.410 Y42.752 E0.12672
G1 X140.410 Y137.248 E5.99725 F2160.000
G1 X138.998 Y138.660 E0.12672
G1 X41.002 Y138.660 E6.21938
G1 X39.590 Y137.248 E0.12672
G1 X39.590 Y42.752 E5.99725
G1 X40.566 Y41.776 E0.08759
G1 X40.987 Y42.112 F7800.000
G1 X41.223 Y41.875 E0.02125 F2160.000
G1 X138.777 Y41.875 E6.19122
G1 X139.875 Y42.973 E0.09856 F2160.000
G1 X139.875 Y137.027 E5.96909
G1 X138.777 Y138.125 E0.09856
G1 X41.223 Y138.125 E6.19122
G1 X40.125 Y137.027 E0.09856
G1 X40.125 Y42.973 E5.96909
G1 X40.944 Y42.155 E0.07350
G1 X41.365 Y42.491 F7800.000
G1 X41.445 Y42.411 E0.00717 F2160.000
G1 X138.555 Y42.411 E6.16306
G1 X139.339 Y43.195 E0.07040
G1 X139.339 Y136.805 E5.94093 F2160.000
G1 X138.555 Y137.589 E0.07040
G1 X41.445 Y137.589 E6.16306
G1 X40.661 Y136.805 E0.07040
G1 X40.661 Y43.195 E5.94093
G1 X41.323 Y42.533 E0.05942
G1 X41.667 Y42.947 F7800.000
G1 X138.333 Y42.947 E6.13489 F2160.000
G1 X138.803 Y43.417 E0.04224 F2160.000
G1 X138.803 Y136.583 E5.91277
G1 X138.333 Y137.053 E0.04224
G1 X41.667 Y137.053 E6.13489
G1 X41.197 Y136.583 E0.04224
G1 X41.197 Y43.417 E5.91277
G1 X41.625 Y42.989 E0.03843
G1 X41.889 Y43.482 F7800.000
G1 X138.111 Y43.482 E6.10673 F2160.000
G1 X138.268 Y43.639 E0.01408
G1 X138.268 Y136.361 E5.88461
G1 X138.111 Y136.518 E0.01408
G1 X41.889 Y136.518 E6.10673
G1 X41.732 Y136.361 E0.01408
G1 X41.732 Y43.639 E5.88461
G1 X41.847 Y43.525 E0.01027
G1 X42.300 Y44.050 F7800.000
G1 X137.700 Y44.050 E6.05457 F1458.000
G1 X137.700 Y135.950 E5.83245
G1 X42.300 Y135.950 E6.05457
G1 X42.300 Y44.110 E5.82864
G1 X42.646 Y44.250 F7800.000
G1 X45.383 Y127.766 F7800.000
G1 X49.117 Y127.766 E0.23697 F1080.000
G1 X50.984 Y131.000 E0.23698
G1 X49.117 Y134.234 E0.23698
G1 X45.383 Y134.234 E0.23697
G1 X43.516 Y131.000 E0.23698
G1 X45.353 Y127.818 E0.23317
G1 X45.453 Y127.372 F7800.000
G1 X43.516 Y49.000 F7800.000
G1 X45.383 Y45.766 E0.23697 F1080.000
G1 X49.117 Y45.766 E0.23697
G1 X50.984 Y49.000 E0.23697
G1 X49.117 Y52.234 E0.23697
G1 X45.383 Y52.234 E0.23697
G1 X43.546 Y49.052 E0.23317
G1 X43.210 Y48.743 F7800.000
G1 F6240
G1 X44.646 Y47.085 E-1.23500
G1 E-0.06500 F3600.00000
G1 X129.516 Y49.000 F7800.000
G1 E1.30000 F3600.00000
G1 X131.383 Y45.766 E0.23697 F1080.000
G1 X135.117 Y45.766 E0.23697
G1 X136.984 Y49.000 E0.23697
G1 X135.117 Y52.234 E0.23697
G1 X131.383 Y52.234 E0.23697
G1 X129.546 Y49.052 E0.23317
G1 X129.210 Y48.743 F7800.000
G1 X128.898 Y49.000 F7800.000
G1 X131.074 Y52.769 E0.27623 F1620.000
G1 X135.426 Y52.769 E0.27622
G1 X136.926 Y50.171 E0.19040
G1 X137.164 Y50.235 E0.01565
G1 X137.164 Y129.765 E5.04738
G1 X136.926 Y129.829 E0.01565
G1 X135.426 Y127.231 E0.19040
G1 X131.074 Y127.231 E0.27622
G1 X128.898 Y131.000 E0.27623
G1 X131.074 Y134.769 E0.27623
G1 X135.426 Y134.769 E0.27622
G1 X136.926 Y132.171 E0.19040
G1 X137.164 Y132.235 E0.01565
G1 X137.164 Y135.414 E0.20178
G1 X42.836 Y135.414 E5.98659
G1 X42.836 Y131.369 E0.25674
G1 X43.074 Y131.305 E0.01565
G1 X45.074 Y134.769 E0.25386
G1 X49.426 Y134.769 E0.27623
G1 X51.602 Y131.000 E0.27623
G1 X49.426 Y127.231 E0.27623
G1 X45.074 Y127.231 E0.27623
G1 X43.074 Y130.695 E0.25386
G1 X42.836 Y130.631 E0.01565
G1 X42.836 Y49.369 E5.15730
G1 X43.074 Y49.305 E0.01565
G1 X45.074 Y52.769 E0.25386
G1 X49.426 Y52.769 E0.27622
G1 X51.602 Y49.000 E0.27623
G1 X49.426 Y45.231 E0.27623
G1 X45.074 Y45.231 E0.27622
G1 X43.074 Y48.695 E0.25386
G1 X42.836 Y48.631 E0.01565
G1 X42.836 Y44.586 E0.25674
G1 X137.164 Y44.586 E5.98659
G1 X137.164 Y47.765 E0.20178
G1 X136.926 Y47.829 E0.01565
G1 X135.426 Y45.231 E0.19040
G1 X131.074 Y45.231 E0.27622
G1 X128.928 Y48.948 E0.27242
G1 F6240
G1 X130.031 Y50.913 E-1.23500
G1 E-0.06500 F3600.00000
G1 X128.773 Y76.606 F7800.000
G1 E1.30000 F3600.00000
G1 X132.507 Y76.606 E0.23697 F1080.000
G1 X134.374 Y79.840 E0.23698
G1 X132.507 Y83.074 E0.23698
G1 X128.773 Y83.074 E0.23697
G1 X126.906 Y79.840 E0.23697
G1 X128.743 Y76.658 E0.23317
G1 X128.842 Y76.212 F7800.000
G1 X128.464 Y76.071 F7800.000
G1 X132.816 Y76.071 E0.27623 F1080.000
G1 X134.992 Y79.840 E0.27623
G1 X132.816 Y83.609 E0.27623
G1 X128.464 Y83.609 E0.27623
G1 X126.288 Y79.840 E0.27623
G1 X128.434 Y76.123 E0.27242
G1 F6240
G1 X130.687 Y76.096 E-1.23500
G1 E-0.06500 F3600.00000
G1 X134.374 Y69.680 F7800.000
G1 E1.30000 F3600.00000
G1 X132.507 Y72.914 E0.23698 F1080.000
G1 X128.773 Y72.914 E0.23697
G1 X126.906 Y69.680 E0.23697
G1 X128.773 Y66.446 E0.23697
G1 X132.507 Y66.446 E0.23697
G1 X134.344 Y69.628 E0.23317
G1 X134.680 Y69.937 F7800.000
G1 X134.374 Y59.520 F7800.000
G1 X132.507 Y62.754 E0.23698 F1080.000
G1 X128.773 Y62.754 E0.23697
G1 X126.906 Y59.520 E0.23697
G1 X128.773 Y56.286 E0.23697
G1 X132.507 Y56.286 E0.23697
G1 X134.344 Y59.468 E0.23317
G1 X134.680 Y59.777 F7800.000
G1 F6240
G1 X133.244 Y61.435 E-1.23500
G1 E-0.06500 F3600.00000
G1 X124.214 Y49.360 F7800.000
G1 E1.30000 F3600.00000
G1 X122.347 Y52.594 E0.23698 F1080.000
G1 X118.613 Y52.594 E0.23697
G1 X116.746 Y49.360 E0.23697
G1 X118.613 Y46.126 E0.23697
G1 X122.347 Y46.126 E0.23697
G1 X124.184 Y49.308 E0.23317
G1 X124.520 Y49.617 F7800.000
G1 F6240
G1 X123.084 Y51.275 E-1.23500
G1 E-0.06500 F3600.00000
G1 X114.054 Y49.360 F7800.000
G1 E1.30000 F3600.00000
G1 X112.187 Y52.594 E0.23697 F1080.000
G1 X108.453 Y52.594 E0.23697
G1 X106.586 Y49.360 E0.23697
G1 X108.453 Y46.126 E0.23697
G1 X112.187 Y46.126 E0.23697
G1 X114.024 Y49.308 E0.23317
G1 X114.360 Y49.617 F7800.000
G1 F6240
G1 X112.924 Y51.275 E-1.23500
G1 E-0.06500 F3600.00000
G1 X103.894 Y49.360 F7800.000
G1 E1.30000 F3600.00000
G1 X102.027 Y52.594 E0.23697 F1080.000
G1 X98.293 Y52.594 E0.23697
G1 X96.426 Y49.360 E0.23697
G1 X98.293 Y46.126 E0.23697
G1 X102.027 Y46.126 E0.23697
G1 X103.864 Y49.308 E0.23317
G1 X104.200 Y49.617 F7800.000
G1 F6240
G1 X102.764 Y51.275 E-1.23500
G1 E-0.06500 F3600.00000
G1 X91.867 Y52.594 F7800.000
G1 E1.30000 F3600.00000
G1 X88.133 Y52.594 E0.23698 F1080.000
G1 X86.266 Y49.360 E0.23697
G1 X88.133 Y46.126 E0.23697
G1 X91.867 Y46.126 E0.23698
G1 X93.734 Y49.360 E0.23697
G1 X91.897 Y52.542 E0.23316
G1 X91.798 Y52.988 F7800.000
G1 X81.707 Y52.594 F7800.000
G1 X77.973 Y52.594 E0.23697 F1080.000
G1 X76.106 Y49.360 E0.23697
G1 X77.973 Y46.126 E0.23697
G1 X81.707 Y46.126 E0.23697
G1 X83.574 Y49.360 E0.23697
G1 X81.737 Y52.542 E0.23316
G1 X81.638 Y52.988 F7800.000
G1 X71.547 Y52.594 F7800.000
G1 X67.813 Y52.594 E0.23697 F1080.000
G1 X65.946 Y49.360 E0.23697
G1 X67.813 Y46.126 E0.23697
G1 X71.547 Y46.126 E0.23698
G1 X73.414 Y49.360 E0.23697
G1 X71.577 Y52.542 E0.23316
G1 X71.478 Y52.988 F7800.000
G1 X61.387 Y52.594 F7800.000
G1 X57.653 Y52.594 E0.23698 F1080.000
G1 X55.786 Y49.360 E0.23697
G1 X57.653 Y46.126 E0.23697
G1 X61.387 Y46.126 E0.23698
G1 X63.254 Y49.360 E0.23697
G1 X61.417 Y52.542 E0.23316
G1 X61.318 Y52.988 F7800.000
G1 X54.200 Y53.450 F7800.000
G1 X125.800 Y53.450 E4.54410 F1458.000
G1 X125.800 Y76.050 E1.43431
G1 X54.200 Y76.050 E4.54410
G1 X54.200 Y53.510 E1.43050
G1 X54.200 Y53.050 F7800.000
G1 X51.227 Y56.286 F7800.000
G1 X53.094 Y59.520 E0.23698 F1080.000
G1 X51.227 Y62.754 E0.23698
G1 X47.493 Y62.754 E0.23697
G1 X45.626 Y59.520 E0.23698
G1 X47.493 Y56.286 E0.23698
G1 X51.167 Y56.286 E0.23317
G1 X51.603 Y56.149 F7800.000
G1 F6240
G1 X52.320 Y58.222 E-1.23500
G1 E-0.06500 F3600.00000
G1 X51.227 Y66.446 F7800.000
G1 E1.30000 F3600.00000
G1 X53.094 Y69.680 E0.23698 F1080.000
G1 X51.227 Y72.914 E0.23698
G1 X47.493 Y72.914 E0.23697
G1 X45.626 Y69.680 E0.23698
G1 X47.493 Y66.446 E0.23698
G1 X51.167 Y66.446 E0.23317
G1 X51.603 Y66.309 F7800.000
G1 F6240
G1 X52.320 Y68.382 E-1.23500
G1 E-0.06500 F3600.00000
G1 X57.653 Y76.606 F7800.000
G1 E1.30000 F3600.00000
G1 X61.387 Y76.606 E0.23698 F1080.000
G1 X63.254 Y79.840 E0.23697
G1 X61.387 Y83.074 E0.23697
G1 X57.653 Y83.074 E0.23698
G1 X55.786 Y79.840 E0.23697
G1 X57.623 Y76.658 E0.23317
G1 X57.722 Y76.212 F7800.000
G1 X67.813 Y76.606 F7800.000
G1 X71.547 Y76.606 E0.23698 F1080.000
G1 X73.414 Y79.840 E0.23697
G1 X71.547 Y83.074 E0.23697
G1 X67.813 Y83.074 E0.23697
G1 X65.946 Y79.840 E0.23698
G1 X67.783 Y76.658 E0.23317
G1 X67.882 Y76.212 F7800.000
G1 F6240
G1 X70.036 Y76.627 E-1.23500
G1 E-0.06500 F3600.00000
G1 X76.106 Y79.840 F7800.000
G1 E1.30000 F3600.00000
G1 X77.973 Y76.606 E0.23698 F1080.000
G1 X81.707 Y76.606 E0.23697
G1 X83.574 Y79.840 E0.23697
G1 X81.707 Y83.074 E0.23697
G1 X77.973 Y83.074 E0.23697
G1 X76.136 Y79.892 E0.23317
G1 X75.800 Y79.583 F7800.000
G1 F6240
G1 X77.236 Y77.925 E-1.23500
G1 E-0.06500 F3600.00000
G1 X88.133 Y76.606 F7800.000
G1 E1.30000 F3600.00000
G1 X91.867 Y76.606 E0.23698 F1080.000
G1 X93.734 Y79.840 E0.23697
G1 X91.867 Y83.074 E0.23697
G1 X88.133 Y83.074 E0.23698
G1 X86.266 Y79.840 E0.23697
G1 X88.103 Y76.658 E0.23317
G1 X88.202 Y76.212 F7800.000
G1 X98.293 Y76.606 F7800.000
G1 X102.027 Y76.606 E0.23697 F1080.000
G1 X103.894 Y79.840 E0.23698
G1 X102.027 Y83.074 E0.23698
G1 X98.293 Y83.074 E0.23697
G1 X96.426 Y79.840 E0.23697
G1 X98.263 Y76.658 E0.23317
G1 X98.362 Y76.212 F7800.000
G1 X108.453 Y76.606 F7800.000
G1 X112.187 Y76.606 E0.23697 F1080.000
G1 X114.054 Y79.840 E0.23698
G1 X112.187 Y83.074 E0.23698
G1 X108.453 Y83.074 E0.23697
G1 X106.586 Y79.840 E0.23697
G1 X108.423 Y76.658 E0.23317
G1 X108.522 Y76.212 F7800.000
G1 X118.613 Y76.606 F7800.000
G1 X122.347 Y76.606 E0.23697 F1080.000
G1 X124.214 Y79.840 E0.23698
G1 X122.347 Y83.074 E0.23698
G1 X118.613 Y83.074 E0.23697
G1 X116.746 Y79.840 E0.23697
G1 X118.583 Y76.658 E0.23317
G1 X118.682 Y76.212 F7800.000
G1 X118.006 Y76.586 F7800.000
G1 X112.793 Y76.586 E0.33084 F1620.000
G1 X114.672 Y79.840 E0.23849
G1 X112.496 Y83.609 E0.27623
G1 X108.144 Y83.609 E0.27623
G1 X105.968 Y79.840 E0.27622
G1 X107.846 Y76.586 E0.23849
G1 X102.633 Y76.586 E0.33084
G1 X104.512 Y79.840 E0.23849
G1 X102.336 Y83.609 E0.27623
G1 X97.984 Y83.609 E0.27623
G1 X95.808 Y79.840 E0.27622
G1 X97.686 Y76.586 E0.23849
G1 X92.474 Y76.586 E0.33084
G1 X94.352 Y79.840 E0.23849
G1 X92.176 Y83.609 E0.27622
G1 X87.824 Y83.609 E0.27623
G1 X85.648 Y79.840 E0.27622
G1 X87.526 Y76.586 E0.23849
G1 X82.314 Y76.586 E0.33084
G1 X84.192 Y79.840 E0.23849
G1 X82.016 Y83.609 E0.27622
G1 X77.664 Y83.609 E0.27623
G1 X75.488 Y79.840 E0.27623
G1 X77.367 Y76.586 E0.23849
G1 X72.154 Y76.586 E0.33084
G1 X74.032 Y79.840 E0.23849
G1 X71.856 Y83.609 E0.27622
G1 X67.504 Y83.609 E0.27623
G1 X65.328 Y79.840 E0.27623
G1 X67.206 Y76.586 E0.23849
G1 X61.994 Y76.586 E0.33084
G1 X63.872 Y79.840 E0.23849
G1 X61.696 Y83.609 E0.27622
G1 X57.344 Y83.609 E0.27623
G1 X55.168 Y79.840 E0.27622
G1 X57.046 Y76.586 E0.23849
G1 X53.664 Y76.586 E0.21464
G1 X53.664 Y70.240 E0.40275
G1 X53.426 Y70.176 E0.01565
G1 X51.536 Y73.449 E0.23990
G1 X47.184 Y73.449 E0.27623
G1 X45.008 Y69.680 E0.27623
G1 X47.184 Y65.911 E0.27623
G1 X51.536 Y65.911 E0.27623
G1 X53.426 Y69.184 E0.23990
G1 X53.664 Y69.120 E0.01565
