; generated by Slic3r 1.2.8-dev on 2015-06-10 at 18:57:33

; external perimeters extrusion width = 0.40mm
; perimeters extrusion width = 0.68mm
; infill extrusion width = 0.87mm
; solid infill extrusion width = 0.68mm
; top infill extrusion width = 0.68mm

M107
M190 S60 ; set bed temperature
M104 S212 ; set temperature
G28 ; home all axes
G92 E0.0 ; reset extruder
M109 S212 ; wait for temperature to be reached
G21 ; set units to millimeters
G90 ; use absolute coordinates
M83 ; use relative distances for extrusion
G1 E-1.30000 F3600.00000
G1 Z0.300 F7800.000
G1 X51.613 Y40.860 F7800.000
G1 E1.30000 F3600.00000
M204 S500
G1 X53.461 Y38.557 E0.17519 F2160.000
G1 X55.857 Y36.831 E0.17519
G1 X58.628 Y35.809 E0.17519
G1 X61.000 Y35.549 E0.14158
G1 X119.000 Y35.549 E3.44067
G1 X121.926 Y35.947 E0.17519
G1 X124.640 Y37.113 E0.17519 F2160.000
G1 X126.943 Y38.961 E0.17519
G1 X128.669 Y41.357 E0.17519
G1 X129.691 Y44.128 E0.17519
G1 X129.951 Y46.500 E0.14158
G1 X129.951 Y133.500 E5.16100
G1 X129.553 Y136.426 E0.17519
G1 X128.387 Y139.140 E0.17519
G1 X126.539 Y141.443 E0.17519
G1 X124.143 Y143.169 E0.17519
G1 X121.372 Y144.191 E0.17519
G1 X119.000 Y144.451 E0.14158
G1 X61.000 Y144.451 E3.44067
G1 X58.074 Y144.053 E0.17519
G1 X55.360 Y142.887 E0.17519
G1 X53.057 Y141.039 E0.17519
G1 X51.331 Y138.643 E0.17519
G1 X50.309 Y135.872 E0.17519
G1 X50.049 Y133.500 E0.14158
G1 X50.049 Y46.500 E5.16100
G1 X50.447 Y43.574 E0.17519
G1 X51.589 Y40.916 E0.17163
G1 X52.060 Y41.057 F7800.000
G1 X52.086 Y40.997 E0.00394 F2160.000
G1 X53.928 Y38.772 E0.17132
G1 X56.307 Y37.134 E0.17132
G1 X59.043 Y36.209 E0.17132
G1 X61.000 Y36.024 E0.11663
G1 X119.000 Y36.024 E3.44067
G1 X121.860 Y36.422 E0.17132
G1 X124.503 Y37.586 E0.17132 F2160.000
G1 X126.728 Y39.428 E0.17132
G1 X128.366 Y41.807 E0.17132
G1 X129.291 Y44.543 E0.17132
G1 X129.476 Y46.500 E0.11663
G1 X129.476 Y133.500 E5.16100
G1 X129.078 Y136.360 E0.17132
G1 X127.914 Y139.003 E0.17132
G1 X126.072 Y141.228 E0.17132
G1 X123.693 Y142.866 E0.17132
G1 X120.957 Y143.791 E0.17132
G1 X119.000 Y143.976 E0.11663
G1 X61.000 Y143.976 E3.44067
G1 X58.140 Y143.578 E0.17132
G1 X55.497 Y142.414 E0.17132
G1 X53.272 Y140.572 E0.17132
G1 X51.634 Y138.193 E0.17132
G1 X50.709 Y135.457 E0.17132
G1 X50.524 Y133.500 E0.11663
G1 X50.524 Y46.500 E5.16100
G1 X50.922 Y43.640 E0.17132
G1 X52.036 Y41.112 E0.16382
G1 F6240
G1 X52.086 Y40.997 E-0.06932
G1 F6240
G1 X53.443 Y39.358 E-1.16568
G1 E-0.06500 F3600.00000
G1 X103.390 Y126.076 F7800.000
G1 E1.30000 F3600.00000
G1 X107.090 Y126.076 E0.21945 F1080.000
G1 X108.939 Y129.280 E0.21945
G1 X107.090 Y132.484 E0.21945
G1 X103.390 Y132.484 E0.21945
G1 X101.541 Y129.280 E0.21945
G1 X103.360 Y126.128 E0.21589
G1 X103.460 Y125.682 F7800.000
G1 X98.779 Y129.280 F7800.000
G1 X96.930 Y132.484 E0.21945 F1080.000
G1 X93.230 Y132.484 E0.21945
G1 X91.381 Y129.280 E0.21945
G1 X93.230 Y126.076 E0.21945
G1 X96.930 Y126.076 E0.21945
G1 X98.749 Y129.228 E0.21589
G1 X99.086 Y129.537 F7800.000
G1 F6240
G1 X97.650 Y131.195 E-1.23500
G1 E-0.06500 F3600.00000
G1 X88.619 Y129.280 F7800.000
G1 E1.30000 F3600.00000
G1 X86.770 Y132.484 E0.21945 F1080.000
G1 X83.070 Y132.484 E0.21945
G1 X81.221 Y129.280 E0.21945
G1 X83.070 Y126.076 E0.21945
G1 X86.770 Y126.076 E0.21945
G1 X88.589 Y129.228 E0.21589
G1 X88.926 Y129.537 F7800.000
G1 F6240
G1 X87.490 Y131.195 E-1.23500
G1 E-0.06500 F3600.00000
G1 X78.459 Y129.280 F7800.000
G1 E1.30000 F3600.00000
G1 X76.610 Y132.484 E0.21945 F1080.000
G1 X72.910 Y132.484 E0.21945
G1 X71.061 Y129.280 E0.21945
G1 X72.910 Y126.076 E0.21945
G1 X76.610 Y126.076 E0.21945
G1 X78.429 Y129.228 E0.21589
G1 X78.766 Y129.537 F7800.000
G1 F6240
G1 X77.330 Y131.195 E-1.23500
G1 E-0.06500 F3600.00000
G1 X62.357 Y132.754 F7800.000
G1 E1.30000 F3600.00000
G1 X61.746 Y132.754 E0.03630 F1080.000
G1 X61.746 Y132.118 E0.03778
G1 X61.957 Y132.061 E0.01299
G1 X62.327 Y132.702 E0.04394
G1 F6240
G1 X61.746 Y132.754 E-0.32018
G1 F6240
G1 X61.746 Y132.118 E-0.34901
G1 F6240
G1 X61.957 Y132.061 E-0.12001
G1 F6240
G1 X62.327 Y132.702 E-0.40598
G1 E-0.10481 F3600.00000
G1 X63.650 Y112.204 F7800.000
G1 E1.30000 F3600.00000
G1 X61.801 Y109.000 E0.21945 F1080.000
G1 X63.650 Y105.796 E0.21945
G1 X67.350 Y105.796 E0.21945
G1 X69.199 Y109.000 E0.21945
G1 X67.350 Y112.204 E0.21945
G1 X63.710 Y112.204 E0.21589
G1 X63.274 Y112.340 F7800.000
G1 X112.650 Y112.204 F7800.000
G1 X110.801 Y109.000 E0.21945 F1080.000
G1 X112.650 Y105.796 E0.21945
G1 X116.350 Y105.796 E0.21945
G1 X118.199 Y109.000 E0.21945
G1 X116.350 Y112.204 E0.21945
G1 X112.710 Y112.204 E0.21589
G1 X112.274 Y112.340 F7800.000
G1 F6240
G1 X111.557 Y110.268 E-1.23500
G1 E-0.06500 F3600.00000
G1 X118.254 Y132.118 F7800.000
G1 E1.30000 F3600.00000
G1 X118.254 Y132.754 E0.03777 F1080.000
G1 X117.643 Y132.754 E0.03629
G1 X118.043 Y132.061 E0.04750
G1 X118.196 Y132.102 E0.00943
G1 F6240
G1 X118.254 Y132.754 E-0.35889
G1 F6240
G1 X117.643 Y132.754 E-0.33533
G1 F6240
G1 X118.043 Y132.061 E-0.43882
G1 F6240
G1 X118.196 Y132.102 E-0.08713
G1 E-0.07982 F3600.00000
G1 X117.524 Y54.481 F7800.000
G1 E1.30000 F3600.00000
G1 X116.739 Y54.481 E0.04660 F1080.000
G1 X118.043 Y52.222 E0.15472
G1 X118.254 Y52.279 E0.01299
G1 X118.254 Y55.322 E0.18056
G1 X118.043 Y55.379 E0.01299
G1 X117.554 Y54.533 E0.05797
G1 X118.043 Y49.778 F7800.000
G1 X116.581 Y47.246 E0.17347 F1080.000
G1 X118.254 Y47.246 E0.09928
G1 X118.254 Y49.721 E0.14686
G1 X118.101 Y49.762 E0.00943
G1 X118.199 Y51.000 F7800.000
G1 X116.350 Y54.204 E0.21945 F1080.000
G1 X112.650 Y54.204 E0.21945
G1 X110.801 Y51.000 E0.21944
G1 X112.650 Y47.796 E0.21944
G1 X116.350 Y47.796 E0.21945
G1 X118.169 Y50.948 E0.21589
G1 X118.506 Y51.257 F7800.000
G1 F6240
G1 X117.070 Y52.915 E-1.23500
G1 E-0.06500 F3600.00000
G1 X109.746 Y112.754 F7800.000
G1 E1.30000 F3600.00000
G1 X109.746 Y125.246 E0.74100 F1620.000
G1 X70.254 Y125.246 E2.34269
G1 X70.254 Y112.754 E0.74100
G1 X109.686 Y112.754 E2.33913
G1 X109.270 Y113.230 F7800.000
G1 X109.270 Y124.770 E0.68457 F1458.000
G1 X70.730 Y124.770 E2.28626
G1 X70.730 Y113.230 E0.68457
G1 X109.210 Y113.230 E2.28270
G1 X109.670 Y113.230 F7800.000
G1 F6240
G1 X109.222 Y115.483 E-1.23500
G1 E-0.06500 F3600.00000
G1 X79.008 Y58.160 F7800.000
G1 E1.30000 F3600.00000
G1 X76.884 Y61.839 E0.25203 F1080.000
G1 X72.636 Y61.839 E0.25203
G1 X70.512 Y58.160 E0.25203
G1 X72.636 Y54.481 E0.25202
G1 X76.884 Y54.481 E0.25203
G1 X78.978 Y58.108 E0.24847
G1 X78.459 Y58.160 F7800.000
G1 X76.610 Y61.364 E0.21945 F1080.000
G1 X72.910 Y61.364 E0.21945
G1 X71.061 Y58.160 E0.21945
G1 X72.910 Y54.956 E0.21944
G1 X76.610 Y54.956 E0.21945
G1 X78.429 Y58.108 E0.21589
G1 X78.766 Y58.417 F7800.000
G1 X78.254 Y61.754 F7800.000
G1 X82.747 Y61.754 E0.26649 F1620.000
G1 X80.672 Y58.160 E0.24621
G1 X82.796 Y54.481 E0.25202
G1 X87.044 Y54.481 E0.25203
G1 X89.168 Y58.160 E0.25203
G1 X87.093 Y61.754 E0.24621
G1 X92.907 Y61.754 E0.34487
G1 X90.832 Y58.160 E0.24621
G1 X92.956 Y54.481 E0.25202
G1 X97.204 Y54.481 E0.25203
G1 X99.328 Y58.160 E0.25203
G1 X97.253 Y61.754 E0.24621
G1 X103.067 Y61.754 E0.34487
G1 X100.992 Y58.160 E0.24621
G1 X103.116 Y54.481 E0.25202
G1 X107.364 Y54.481 E0.25203
G1 X109.488 Y58.160 E0.25203
G1 X107.413 Y61.754 E0.24621
G1 X109.746 Y61.754 E0.13836
G1 X109.746 Y106.246 E2.63930
G1 X78.254 Y106.246 E1.86812
G1 X78.254 Y100.529 E0.33912
G1 X78.043 Y100.472 E0.01299
G1 X76.884 Y102.479 E0.13747
G1 X72.636 Y102.479 E0.25203
G1 X70.512 Y98.800 E0.25203
G1 X72.636 Y95.121 E0.25203
G1 X76.884 Y95.121 E0.25203
G1 X78.043 Y97.128 E0.13747
G1 X78.254 Y97.071 E0.01299
G1 X78.254 Y90.369 E0.39757
G1 X78.043 Y90.312 E0.01299
G1 X76.884 Y92.319 E0.13747
G1 X72.636 Y92.319 E0.25203
G1 X70.512 Y88.640 E0.25203
G1 X72.636 Y84.961 E0.25203
G1 X76.884 Y84.961 E0.25203
G1 X78.043 Y86.968 E0.13747
G1 X78.254 Y86.911 E0.01299
G1 X78.254 Y80.209 E0.39757
G1 X78.043 Y80.152 E0.01299
G1 X76.884 Y82.159 E0.13747
G1 X72.636 Y82.159 E0.25203
G1 X70.512 Y78.480 E0.25203
G1 X72.636 Y74.801 E0.25203
G1 X76.884 Y74.801 E0.25203
G1 X78.043 Y76.808 E0.13747
G1 X78.254 Y76.751 E0.01299
G1 X78.254 Y70.049 E0.39757
G1 X78.043 Y69.992 E0.01299
G1 X76.884 Y71.999 E0.13747
G1 X72.636 Y71.999 E0.25203
G1 X70.512 Y68.320 E0.25203
G1 X72.636 Y64.641 E0.25203
G1 X76.884 Y64.641 E0.25203
G1 X78.043 Y66.648 E0.13747
G1 X78.254 Y66.591 E0.01299
G1 X78.254 Y61.814 E0.28335
G1 X78.730 Y62.230 F7800.000
G1 X109.270 Y62.230 E1.81169 F1458.000
G1 X109.270 Y105.770 E2.58287
G1 X78.730 Y105.770 E1.81169
G1 X78.730 Y62.290 E2.57931
G1 X78.730 Y61.830 F7800.000
G1 F6240
G1 X80.983 Y62.286 E-1.23500
G1 E-0.06500 F3600.00000
G1 X72.910 Y95.596 F7800.000
G1 E1.30000 F3600.00000
G1 X76.610 Y95.596 E0.21945 F1080.000
G1 X78.459 Y98.800 E0.21945
G1 X76.610 Y102.004 E0.21945
G1 X72.910 Y102.004 E0.21945
G1 X71.061 Y98.800 E0.21945
G1 X72.880 Y95.648 E0.21589
G1 X72.980 Y95.202 F7800.000
G1 X72.910 Y91.844 F7800.000
G1 X71.061 Y88.640 E0.21945 F1080.000
G1 X72.910 Y85.436 E0.21945
G1 X76.610 Y85.436 E0.21945
G1 X78.459 Y88.640 E0.21945
G1 X76.610 Y91.844 E0.21945
G1 X72.970 Y91.844 E0.21589
G1 X72.534 Y91.980 F7800.000
G1 F6240
G1 X71.817 Y89.908 E-1.23500
G1 E-0.06500 F3600.00000
G1 X72.910 Y81.684 F7800.000
G1 E1.30000 F3600.00000
G1 X71.061 Y78.480 E0.21945 F1080.000
G1 X72.910 Y75.276 E0.21945
G1 X76.610 Y75.276 E0.21945
G1 X78.459 Y78.480 E0.21945
G1 X76.610 Y81.684 E0.21945
G1 X72.970 Y81.684 E0.21589
G1 X72.534 Y81.820 F7800.000
G1 F6240
G1 X71.817 Y79.748 E-1.23500
G1 E-0.06500 F3600.00000
G1 X72.910 Y71.524 F7800.000
G1 E1.30000 F3600.00000
G1 X71.061 Y68.320 E0.21945 F1080.000
G1 X72.910 Y65.116 E0.21945
G1 X76.610 Y65.116 E0.21945
G1 X78.459 Y68.320 E0.21945
G1 X76.610 Y71.524 E0.21945
G1 X72.970 Y71.524 E0.21589
G1 X72.534 Y71.660 F7800.000
G1 F6240
G1 X71.817 Y69.588 E-1.23500
G1 E-0.06500 F3600.00000
G1 X83.070 Y61.364 F7800.000
G1 E1.30000 F3600.00000
G1 X81.221 Y58.160 E0.21945 F1080.000
G1 X83.070 Y54.956 E0.21944
G1 X86.770 Y54.956 E0.21945
G1 X88.619 Y58.160 E0.21945
G1 X86.770 Y61.364 E0.21945
G1 X83.130 Y61.364 E0.21589
G1 X82.694 Y61.500 F7800.000
G1 X93.230 Y61.364 F7800.000
G1 X91.381 Y58.160 E0.21945 F1080.000
G1 X93.230 Y54.956 E0.21944
G1 X96.930 Y54.956 E0.21945
G1 X98.779 Y58.160 E0.21945
G1 X96.930 Y61.364 E0.21945
G1 X93.290 Y61.364 E0.21589
G1 X92.854 Y61.500 F7800.000
G1 X103.390 Y61.364 F7800.000
G1 X101.541 Y58.160 E0.21945 F1080.000
G1 X103.390 Y54.956 E0.21944
G1 X107.090 Y54.956 E0.21945
G1 X108.939 Y58.160 E0.21945
G1 X107.090 Y61.364 E0.21945
G1 X103.450 Y61.364 E0.21589
G1 X103.014 Y61.500 F7800.000
G1 X113.276 Y61.839 F7800.000
G1 X117.524 Y61.839 E0.25203 F1620.000
G1 X118.043 Y60.941 E0.06153
G1 X118.254 Y60.998 E0.01299
G1 X118.254 Y65.482 E0.26604
G1 X118.043 Y65.539 E0.01299
G1 X117.524 Y64.641 E0.06153
G1 X113.276 Y64.641 E0.25203
G1 X111.152 Y68.320 E0.25203
G1 X113.276 Y71.999 E0.25203
G1 X117.524 Y71.999 E0.25203
G1 X118.043 Y71.101 E0.06153
G1 X118.254 Y71.158 E0.01299
G1 X118.254 Y75.642 E0.26604
G1 X118.043 Y75.699 E0.01299
G1 X117.524 Y74.801 E0.06153
G1 X113.276 Y74.801 E0.25203
G1 X111.152 Y78.480 E0.25203
G1 X113.276 Y82.159 E0.25203
G1 X117.524 Y82.159 E0.25203
G1 X118.043 Y81.261 E0.06153
G1 X118.254 Y81.318 E0.01299
G1 X118.254 Y85.802 E0.26604
G1 X118.043 Y85.859 E0.01299
G1 X117.524 Y84.961 E0.06153
G1 X113.276 Y84.961 E0.25203
G1 X111.152 Y88.640 E0.25203
G1 X113.276 Y92.319 E0.25203
G1 X117.524 Y92.319 E0.25203
G1 X118.043 Y91.421 E0.06153
G1 X118.254 Y91.478 E0.01299
G1 X118.254 Y95.962 E0.26604
G1 X118.043 Y96.019 E0.01299
G1 X117.524 Y95.121 E0.06153
G1 X113.276 Y95.121 E0.25203
G1 X111.152 Y98.800 E0.25203
G1 X113.276 Y102.479 E0.25203
G1 X117.524 Y102.479 E0.25203
G1 X118.043 Y101.581 E0.06153
G1 X118.254 Y101.638 E0.01299
G1 X118.254 Y107.721 E0.36089
G1 X118.043 Y107.778 E0.01299
G1 X116.624 Y105.321 E0.16832
G1 X112.376 Y105.321 E0.25203
G1 X110.252 Y109.000 E0.25203
G1 X112.376 Y112.679 E0.25203
G1 X116.624 Y112.679 E0.25203
G1 X118.043 Y110.222 E0.16832
G1 X118.254 Y110.279 E0.01299
G1 X118.254 Y116.282 E0.35615
G1 X118.043 Y116.339 E0.01299
G1 X117.524 Y115.441 E0.06153
G1 X113.276 Y115.441 E0.25203
G1 X111.152 Y119.120 E0.25203
G1 X113.276 Y122.799 E0.25203
G1 X117.524 Y122.799 E0.25203
G1 X118.043 Y121.901 E0.06153
G1 X118.254 Y121.958 E0.01299
G1 X118.254 Y126.442 E0.26604
G1 X118.043 Y126.499 E0.01299
G1 X117.524 Y125.601 E0.06153
G1 X113.276 Y125.601 E0.25203
G1 X111.152 Y129.280 E0.25203
G1 X113.157 Y132.754 E0.23799
G1 X107.482 Y132.754 E0.33665
G1 X109.488 Y129.280 E0.23799
G1 X107.364 Y125.601 E0.25203
G1 X103.116 Y125.601 E0.25203
G1 X100.992 Y129.280 E0.25203
G1 X102.997 Y132.754 E0.23799
G1 X97.322 Y132.754 E0.33665
G1 X99.328 Y129.280 E0.23799
G1 X97.204 Y125.601 E0.25203
G1 X92.956 Y125.601 E0.25203
G1 X90.832 Y129.280 E0.25203
G1 X92.837 Y132.754 E0.23799
G1 X87.162 Y132.754 E0.33665
G1 X89.168 Y129.280 E0.23799
G1 X87.044 Y125.601 E0.25203
G1 X82.796 Y125.601 E0.25203
G1 X80.672 Y129.280 E0.25203
G1 X82.677 Y132.754 E0.23799
G1 X77.002 Y132.754 E0.33665
G1 X79.008 Y129.280 E0.23799
G1 X76.884 Y125.601 E0.25203
G1 X72.636 Y125.601 E0.25203
G1 X70.512 Y129.280 E0.25203
G1 X72.517 Y132.754 E0.23799
G1 X66.843 Y132.754 E0.33665
G1 X68.848 Y129.280 E0.23799
G1 X66.724 Y125.601 E0.25203
G1 X62.476 Y125.601 E0.25203
G1 X61.957 Y126.499 E0.06154
G1 X61.746 Y126.442 E0.01299
G1 X61.746 Y121.958 E0.26605
G1 X61.957 Y121.901 E0.01299
G1 X62.476 Y122.799 E0.06154
G1 X66.724 Y122.799 E0.25203
G1 X68.848 Y119.120 E0.25203
G1 X66.724 Y115.441 E0.25203
G1 X62.476 Y115.441 E0.25203
G1 X61.957 Y116.339 E0.06154
G1 X61.746 Y116.282 E0.01299
G1 X61.746 Y110.279 E0.35615
G1 X61.957 Y110.222 E0.01299
G1 X63.376 Y112.679 E0.16832
G1 X67.624 Y112.679 E0.25203
G1 X69.748 Y109.000 E0.25203
G1 X67.624 Y105.321 E0.25203
G1 X63.376 Y105.321 E0.25203
G1 X61.957 Y107.778 E0.16832
G1 X61.746 Y107.721 E0.01299
G1 X61.746 Y101.638 E0.36089
G1 X61.957 Y101.581 E0.01299
G1 X62.476 Y102.479 E0.06154
G1 X66.724 Y102.479 E0.25203
G1 X68.848 Y98.800 E0.25203
G1 X66.724 Y95.121 E0.25203
G1 X62.476 Y95.121 E0.25203
G1 X61.957 Y96.019 E0.06154
G1 X61.746 Y95.962 E0.01299
G1 X61.746 Y91.478 E0.26605
G1 X61.957 Y91.421 E0.01299
G1 X62.476 Y92.319 E0.06154
G1 X66.724 Y92.319 E0.25203
G1 X68.848 Y88.640 E0.25203
G1 X66.724 Y84.961 E0.25203
G1 X62.476 Y84.961 E0.25203
G1 X61.957 Y85.859 E0.06154
G1 X61.746 Y85.802 E0.01299
G1 X61.746 Y81.318 E0.26605
G1 X61.957 Y81.261 E0.01299
G1 X62.476 Y82.159 E0.06154
G1 X66.724 Y82.159 E0.25203
G1 X68.848 Y78.480 E0.25203
G1 X66.724 Y74.801 E0.25203
G1 X62.476 Y74.801 E0.25203
G1 X61.957 Y75.699 E0.06154
G1 X61.746 Y75.642 E0.01299
G1 X61.746 Y71.158 E0.26605
G1 X61.957 Y71.101 E0.01299
G1 X62.476 Y71.999 E0.06154
G1 X66.724 Y71.999 E0.25203
G1 X68.848 Y68.320 E0.25203
G1 X66.724 Y64.641 E0.25203
G1 X62.476 Y64.641 E0.25203
G1 X61.957 Y65.539 E0.06154
G1 X61.746 Y65.482 E0.01299
G1 X61.746 Y60.998 E0.26605
G1 X61.957 Y60.941 E0.01299
G1 X62.476 Y61.839 E0.06154
G1 X66.724 Y61.839 E0.25203
G1 X68.848 Y58.160 E0.25203
G1 X66.839 Y54.679 E0.23843
G1 X67.624 Y54.679 E0.04659
G1 X69.748 Y51.000 E0.25203
G1 X67.581 Y47.246 E0.25717
G1 X112.419 Y47.246 E2.65989
G1 X110.252 Y51.000 E0.25717
G1 X112.376 Y54.679 E0.25202
G1 X113.161 Y54.679 E0.04659
G1 X111.152 Y58.160 E0.23843
G1 X113.246 Y61.787 E0.24847
G1 F6240
G1 X115.499 Y61.815 E-1.23500
G1 E-0.06500 F3600.00000
G1 X69.199 Y51.000 F7800.000
G1 E1.30000 F3600.00000
G1 X67.350 Y54.204 E0.21945 F1080.000
G1 X63.650 Y54.204 E0.21945
G1 X61.801 Y51.000 E0.21945
G1 X63.650 Y47.796 E0.21945
G1 X67.350 Y47.796 E0.21945
G1 X69.169 Y50.948 E0.21589
G1 X69.506 Y51.257 F7800.000
G1 F6240
G1 X68.070 Y52.915 E-1.23500
G1 E-0.06500 F3600.00000
G1 X63.419 Y47.246 F7800.000
G1 E1.30000 F3600.00000
G1 X61.957 Y49.778 E0.17346 F1080.000
G1 X61.746 Y49.721 E0.01299
G1 X61.746 Y47.246 E0.14686
G1 X63.359 Y47.246 E0.09572
G1 F6240
G1 X62.268 Y49.217 E-1.23500
G1 E-0.06500 F3600.00000
G1 X61.957 Y52.222 F7800.000
G1 E1.30000 F3600.00000
G1 X63.261 Y54.481 E0.15472 F1080.000
G1 X62.476 Y54.481 E0.04659
G1 X61.957 Y55.379 E0.06154
