; generated by Slic3r 1.1.7 on 2015-01-20 at 14:37:57

; perimeters extrusion width = 0.40mm
; infill extrusion width = 0.42mm
; solid infill extrusion width = 0.42mm
; top infill extrusion width = 0.42mm

G21 ; set units to millimeters
M107
M190 S60 ; wait for bed temperature to be reached
M104 S200 ; set temperature
G28 ; home all axes
G92 E0.0 ; reset extruder
M109 S200 ; wait for temperature to be reached
G90 ; use absolute coordinates
M83 ; use relative distances for extrusion
M204 S500
G1 F1800.000 E-1.10000
G1 Z0.300 F7800.000
G1 X34.769 Y51.822 F7800.000
G1 E1.10000 F1800.000
G1 X125.231 Y51.822 E5.65689 F2160.000
G1 X127.678 Y54.269 E0.21644
G1 X127.678 Y115.731 E3.84341 F2160.000
G1 X125.231 Y118.178 E0.21644
G1 X34.769 Y118.178 E5.65689
G1 X32.322 Y115.731 E0.21644
G1 X32.322 Y54.269 E3.84341
G1 X34.727 Y51.864 E0.21269
G1 X35.000 Y52.379 F7800.000
G1 X125.000 Y52.379 E5.62803 F2160.000
G1 X127.121 Y54.500 E0.18759 F2160.000
G1 X127.121 Y115.500 E3.81455
G1 X125.000 Y117.621 E0.18759
G1 X35.000 Y117.621 E5.62803
G1 X32.879 Y115.500 E0.18759
G1 X32.879 Y54.500 E3.81455
G1 X34.958 Y52.421 E0.18383
G1 X35.231 Y52.936 F7800.000
G1 X124.769 Y52.936 E5.59917 F2160.000
G1 X126.564 Y54.731 E0.15873
G1 X126.564 Y115.269 E3.78569 F2160.000
G1 X124.769 Y117.064 E0.15873
G1 X35.231 Y117.064 E5.59917
G1 X33.436 Y115.269 E0.15873
G1 X33.436 Y54.731 E3.78569
G1 X35.188 Y52.978 E0.15497
G1 X35.462 Y53.493 F7800.000
G1 X124.538 Y53.493 E5.57031 F2160.000
G1 X126.007 Y54.962 E0.12987 F2160.000
G1 X126.007 Y115.038 E3.75683
G1 X124.538 Y116.507 E0.12987
G1 X35.462 Y116.507 E5.57031
G1 X33.993 Y115.038 E0.12987
G1 X33.993 Y54.962 E3.75683
G1 X35.419 Y53.536 E0.12611
G1 X35.692 Y54.050 F7800.000
G1 X124.308 Y54.050 E5.54145 F2160.000
G1 X125.450 Y55.192 E0.10101
G1 X125.450 Y114.808 E3.72797 F2160.000
G1 X124.308 Y115.950 E0.10101
G1 X35.692 Y115.950 E5.54145
G1 X34.550 Y114.808 E0.10101
G1 X34.550 Y55.192 E3.72797
G1 X35.650 Y54.093 E0.09726
G1 X35.923 Y54.607 F7800.000
G1 X124.077 Y54.607 E5.51259 F2160.000
G1 X124.893 Y55.423 E0.07215 F2160.000
G1 X124.893 Y114.577 E3.69911
G1 X124.077 Y115.393 E0.07215
G1 X35.923 Y115.393 E5.51259
G1 X35.107 Y114.577 E0.07215
G1 X35.107 Y55.423 E3.69911
G1 X35.881 Y54.650 E0.06840
G1 X36.154 Y55.164 F7800.000
G1 X123.846 Y55.164 E5.48373 F2160.000
G1 X124.336 Y55.654 E0.04329
G1 X124.336 Y114.346 E3.67025 F2160.000
G1 X123.846 Y114.836 E0.04329
G1 X36.154 Y114.836 E5.48373
G1 X35.664 Y114.346 E0.04329
G1 X35.664 Y55.654 E3.67025
G1 X36.111 Y55.207 E0.03954
G1 X36.385 Y55.721 F7800.000
G1 X123.615 Y55.721 E5.45487 F2160.000
G1 X123.779 Y55.885 E0.01443
G1 X123.779 Y114.115 E3.64139
G1 X123.615 Y114.279 E0.01443
G1 X36.385 Y114.279 E5.45487
G1 X36.221 Y114.115 E0.01443
G1 X36.221 Y55.885 E3.64139
G1 X36.342 Y55.764 E0.01068
G1 F1800.000 E-1.10000
G1 X108.215 Y56.388 F7800.000
G1 E1.10000 F1800.000
G1 X109.036 Y56.167 E0.05316 F1296.000
G1 X109.204 Y56.167 E0.01047
G1 X110.025 Y56.388 E0.05316
G1 F1800.000 E-1.10000
G1 X87.895 Y56.388 F7800.000
G1 E1.10000 F1800.000
G1 X88.716 Y56.167 E0.05316 F1296.000
G1 X88.884 Y56.167 E0.01047
G1 X89.705 Y56.388 E0.05316
G1 F1800.000 E-1.10000
G1 X77.735 Y56.388 F7800.000
G1 E1.10000 F1800.000
G1 X78.556 Y56.167 E0.05316 F1296.000
G1 X78.724 Y56.167 E0.01047
G1 X79.545 Y56.388 E0.05316
G1 F1800.000 E-1.10000
G1 X67.575 Y56.388 F7800.000
G1 E1.10000 F1800.000
G1 X68.396 Y56.167 E0.05316 F1296.000
G1 X68.564 Y56.167 E0.01047
G1 X69.385 Y56.388 E0.05316
G1 F1800.000 E-1.10000
G1 X57.415 Y56.388 F7800.000
G1 E1.10000 F1800.000
G1 X58.236 Y56.167 E0.05316 F1296.000
G1 X58.404 Y56.167 E0.01047
G1 X59.225 Y56.388 E0.05316
G1 F1800.000 E-1.10000
G1 X47.255 Y56.388 F7800.000
G1 E1.10000 F1800.000
G1 X48.076 Y56.167 E0.05316 F1296.000
G1 X48.244 Y56.167 E0.01047
G1 X49.065 Y56.388 E0.05316
G1 F1800.000 E-1.10000
G1 X118.375 Y56.388 F7800.000
G1 E1.10000 F1800.000
G1 X119.196 Y56.167 E0.05316 F1296.000
G1 X119.364 Y56.167 E0.01047
G1 X120.185 Y56.388 E0.05316
G1 F1800.000 E-1.10000
G1 X49.411 Y113.612 F7800.000
G1 E1.10000 F1800.000
G1 X48.245 Y113.925 E0.07551 F1296.000
G1 X48.163 Y113.892 E0.00553
G1 X48.075 Y113.925 E0.00586
G1 X46.909 Y113.612 E0.07551
G1 F1800.000 E-1.10000
G1 X69.731 Y113.612 F7800.000
G1 E1.10000 F1800.000
G1 X68.565 Y113.925 E0.07551 F1296.000
G1 X68.483 Y113.892 E0.00553
G1 X68.395 Y113.925 E0.00586
G1 X67.229 Y113.612 E0.07551
G1 F1800.000 E-1.10000
G1 X79.891 Y113.612 F7800.000
G1 E1.10000 F1800.000
G1 X78.725 Y113.925 E0.07551 F1296.000
G1 X78.643 Y113.892 E0.00553
G1 X78.555 Y113.925 E0.00586
G1 X77.389 Y113.612 E0.07551
G1 F1800.000 E-1.10000
G1 X90.051 Y113.612 F7800.000
G1 E1.10000 F1800.000
G1 X88.885 Y113.925 E0.07551 F1296.000
G1 X88.803 Y113.892 E0.00553
G1 X88.715 Y113.925 E0.00586
G1 X87.549 Y113.612 E0.07551
G1 F1800.000 E-1.10000
G1 X110.371 Y113.612 F7800.000
G1 E1.10000 F1800.000
G1 X109.205 Y113.925 E0.07551 F1296.000
G1 X109.123 Y113.892 E0.00553
G1 X109.035 Y113.925 E0.00586
G1 X107.869 Y113.612 E0.07551
G1 F1800.000 E-1.10000
G1 X122.514 Y112.367 F7800.000
G1 E1.10000 F1800.000
G1 X122.514 Y108.633 E0.23350 F1296.000
G1 X119.280 Y106.766 E0.23350
G1 X116.046 Y108.633 E0.23350
G1 X116.046 Y112.367 E0.23350
G1 X117.783 Y113.370 E0.12541
G1 X117.695 Y113.700 E0.02138
G1 X110.705 Y113.700 E0.43706
G1 X110.617 Y113.370 E0.02138
G1 X112.354 Y112.367 E0.12541
G1 X112.354 Y108.633 E0.23350
G1 X109.120 Y106.766 E0.23350
G1 X105.886 Y108.633 E0.23350
G1 X105.886 Y112.367 E0.23350
G1 X107.623 Y113.370 E0.12541
G1 X107.535 Y113.700 E0.02138
G1 X90.385 Y113.700 E1.07240
G1 X90.297 Y113.370 E0.02138
G1 X92.034 Y112.367 E0.12541
G1 X92.034 Y108.633 E0.23350
G1 X88.800 Y106.766 E0.23350
G1 X85.566 Y108.633 E0.23350
G1 X85.566 Y112.367 E0.23350
G1 X87.303 Y113.370 E0.12541
G1 X87.215 Y113.700 E0.02138
G1 X80.225 Y113.700 E0.43706
G1 X80.137 Y113.370 E0.02138
G1 X81.874 Y112.367 E0.12541
G1 X81.874 Y108.633 E0.23350
G1 X78.640 Y106.766 E0.23350
G1 X75.406 Y108.633 E0.23350
G1 X75.406 Y112.367 E0.23350
G1 X77.143 Y113.370 E0.12541
G1 X77.055 Y113.700 E0.02138
G1 X70.065 Y113.700 E0.43706
G1 X69.977 Y113.370 E0.02138
G1 X71.714 Y112.367 E0.12541
G1 X71.714 Y108.633 E0.23350
G1 X68.480 Y106.766 E0.23350
G1 X65.246 Y108.633 E0.23350
G1 X65.246 Y112.367 E0.23350
G1 X66.983 Y113.370 E0.12541
G1 X66.895 Y113.700 E0.02138
G1 X59.905 Y113.700 E0.43706
G1 X59.817 Y113.370 E0.02138
G1 X61.554 Y112.367 E0.12541
G1 X61.554 Y108.633 E0.23350
G1 X58.320 Y106.766 E0.23350
G1 X55.086 Y108.633 E0.23350
G1 X55.086 Y112.367 E0.23350
G1 X56.823 Y113.370 E0.12541
G1 X56.735 Y113.700 E0.02138
G1 X49.745 Y113.700 E0.43706
G1 X49.657 Y113.370 E0.02138
G1 X51.394 Y112.367 E0.12541
G1 X51.394 Y108.633 E0.23350
G1 X48.160 Y106.766 E0.23350
G1 X44.926 Y108.633 E0.23350
G1 X44.926 Y112.367 E0.23350
G1 X46.663 Y113.370 E0.12541
G1 X46.575 Y113.700 E0.02138
G1 X36.800 Y113.700 E0.61124
G1 X36.800 Y56.300 E3.58944
G1 X46.921 Y56.300 E0.63291
G1 X47.010 Y56.630 E0.02138
G1 X44.926 Y57.833 E0.15043
G1 X44.926 Y61.567 E0.23350
G1 X48.160 Y63.434 E0.23349
G1 X51.394 Y61.567 E0.23350
G1 X51.394 Y57.833 E0.23350
G1 X49.310 Y56.630 E0.15043
G1 X49.399 Y56.300 E0.02138
G1 X57.081 Y56.300 E0.48039
G1 X57.170 Y56.630 E0.02138
G1 X55.086 Y57.833 E0.15043
G1 X55.086 Y61.567 E0.23350
G1 X58.320 Y63.434 E0.23350
G1 X61.554 Y61.567 E0.23350
G1 X61.554 Y57.833 E0.23350
G1 X59.470 Y56.630 E0.15043
G1 X59.559 Y56.300 E0.02138
G1 X67.241 Y56.300 E0.48039
G1 X67.330 Y56.630 E0.02138
G1 X65.246 Y57.833 E0.15043
G1 X65.246 Y61.567 E0.23350
G1 X68.480 Y63.434 E0.23350
G1 X71.714 Y61.567 E0.23350
G1 X71.714 Y57.833 E0.23350
G1 X69.630 Y56.630 E0.15043
G1 X69.719 Y56.300 E0.02138
G1 X77.401 Y56.300 E0.48039
G1 X77.490 Y56.630 E0.02138
G1 X75.406 Y57.833 E0.15043
G1 X75.406 Y61.567 E0.23350
G1 X78.640 Y63.434 E0.23350
G1 X81.874 Y61.567 E0.23350
G1 X81.874 Y57.833 E0.23350
G1 X79.790 Y56.630 E0.15043
G1 X79.879 Y56.300 E0.02138
G1 X87.561 Y56.300 E0.48039
G1 X87.650 Y56.630 E0.02138
G1 X85.566 Y57.833 E0.15043
G1 X85.566 Y61.567 E0.23350
G1 X88.800 Y63.434 E0.23350
G1 X92.034 Y61.567 E0.23350
G1 X92.034 Y57.833 E0.23350
G1 X89.950 Y56.630 E0.15043
G1 X90.039 Y56.300 E0.02138
G1 X107.881 Y56.300 E1.11573
G1 X107.970 Y56.630 E0.02138
G1 X105.886 Y57.833 E0.15043
G1 X105.886 Y61.567 E0.23350
G1 X109.120 Y63.434 E0.23350
G1 X112.354 Y61.567 E0.23350
G1 X112.354 Y57.833 E0.23350
G1 X110.270 Y56.630 E0.15043
G1 X110.359 Y56.300 E0.02138
G1 X118.041 Y56.300 E0.48039
G1 X118.130 Y56.630 E0.02138
G1 X116.046 Y57.833 E0.15043
G1 X116.046 Y61.567 E0.23350
G1 X119.280 Y63.434 E0.23350
G1 X122.514 Y61.567 E0.23350
G1 X122.514 Y57.833 E0.23350
G1 X120.430 Y56.630 E0.15043
G1 X120.519 Y56.300 E0.02138
G1 X123.200 Y56.300 E0.16766
G1 X123.200 Y113.700 E3.58944
G1 X120.865 Y113.700 E0.14599
G1 X120.777 Y113.370 E0.02138
G1 X122.462 Y112.397 E0.12166
G1 X122.908 Y112.297 F7800.000
G1 X122.643 Y77.584 F7800.000
G1 X119.280 Y75.643 E0.24283 F1440.000
G1 X115.357 Y77.908 E0.28326
G1 X115.357 Y71.972 E0.37116
G1 X119.280 Y74.237 E0.28326
G1 X122.643 Y72.296 E0.24283
G1 X122.643 Y77.524 E0.32697
G1 F1800.000 E-1.10000
G1 X119.280 Y84.397 F7800.000
G1 E1.10000 F1800.000
G1 X122.643 Y82.456 E0.24283 F1440.000
G1 X122.643 Y87.744 E0.33073
G1 X119.280 Y85.803 E0.24283
G1 X115.357 Y88.068 E0.28326
G1 X115.357 Y82.132 E0.37116
G1 X119.228 Y84.367 E0.27951
G1 F1800.000 E-1.10000
G1 X119.280 Y95.963 F7800.000
G1 E1.10000 F1800.000
G1 X115.357 Y98.228 E0.28327 F1440.000
G1 X115.357 Y92.292 E0.37116
G1 X119.280 Y94.557 E0.28326
G1 X122.643 Y92.616 E0.24283
G1 X122.643 Y97.904 E0.33073
G1 X119.332 Y95.993 E0.23908
G1 F1800.000 E-1.10000
G1 X39.156 Y112.813 F7800.000
G1 E1.10000 F1800.000
G1 X39.068 Y113.143 E0.02138 F1440.000
G1 X37.357 Y113.143 E0.10697
G1 X37.357 Y111.774 E0.08561
G1 X39.104 Y112.783 E0.12615
G1 F1800.000 E-1.10000
G1 X42.844 Y112.813 F7800.000
G1 E1.10000 F1800.000
G1 X44.369 Y111.932 E0.11014 F1440.000
G1 X44.369 Y112.689 E0.04732
G1 X44.584 Y112.813 E0.01551
G1 X44.496 Y113.143 E0.02138
G1 X42.932 Y113.143 E0.09775
G1 X42.859 Y112.871 E0.01763
G1 F1800.000 E-1.10000
G1 X37.357 Y58.226 F7800.000
G1 E1.10000 F1800.000
G1 X37.357 Y56.857 E0.08561 F1440.000
G1 X39.068 Y56.857 E0.10696
G1 X39.156 Y57.187 E0.02138
G1 X37.409 Y58.196 E0.12615
G1 F1800.000 E-1.10000
G1 X42.844 Y57.187 F7800.000
G1 E1.10000 F1800.000
G1 X42.932 Y56.857 E0.02138 F1440.000
G1 X44.842 Y56.857 E0.11942
G1 X44.931 Y57.187 E0.02138
G1 X44.369 Y57.511 E0.04053
G1 X44.369 Y58.068 E0.03480
G1 X42.896 Y57.217 E0.10639
G1 F1800.000 E-1.10000
G1 X44.791 Y62.689 F7800.000
G1 E1.10000 F1800.000
G1 X44.791 Y62.132 E0.03481 F1440.000
G1 X48.160 Y64.077 E0.24329
G1 X51.951 Y61.889 E0.27372
G1 X51.951 Y57.511 E0.27372
G1 X51.389 Y57.187 E0.04053
G1 X51.478 Y56.857 E0.02138
G1 X55.002 Y56.857 E0.22037
G1 X55.091 Y57.187 E0.02138
G1 X54.529 Y57.511 E0.04053
G1 X54.529 Y61.889 E0.27372
G1 X58.320 Y64.077 E0.27372
G1 X62.111 Y61.889 E0.27372
G1 X62.111 Y57.511 E0.27372
G1 X61.549 Y57.187 E0.04053
G1 X61.638 Y56.857 E0.02138
G1 X65.162 Y56.857 E0.22037
G1 X65.251 Y57.187 E0.02138
G1 X64.689 Y57.511 E0.04053
G1 X64.689 Y61.889 E0.27372
G1 X68.480 Y64.077 E0.27372
G1 X72.271 Y61.889 E0.27372
G1 X72.271 Y57.511 E0.27372
G1 X71.709 Y57.187 E0.04053
G1 X71.798 Y56.857 E0.02138
G1 X75.322 Y56.857 E0.22037
G1 X75.411 Y57.187 E0.02138
G1 X74.849 Y57.511 E0.04053
G1 X74.849 Y61.889 E0.27372
G1 X78.640 Y64.077 E0.27372
G1 X82.431 Y61.889 E0.27372
G1 X82.431 Y57.511 E0.27372
G1 X81.869 Y57.187 E0.04053
G1 X81.958 Y56.857 E0.02138
G1 X85.482 Y56.857 E0.22037
G1 X85.571 Y57.187 E0.02138
G1 X85.009 Y57.511 E0.04053
G1 X85.009 Y61.889 E0.27372
G1 X88.800 Y64.077 E0.27372
G1 X92.591 Y61.889 E0.27372
G1 X92.591 Y57.511 E0.27372
G1 X92.029 Y57.187 E0.04053
G1 X92.118 Y56.857 E0.02138
G1 X97.068 Y56.857 E0.30952
G1 X97.156 Y57.187 E0.02138
G1 X95.209 Y58.311 E0.14058
G1 X95.209 Y62.689 E0.27373
G1 X99.000 Y64.877 E0.27372
G1 X102.791 Y62.689 E0.27372
G1 X102.791 Y58.311 E0.27373
G1 X100.844 Y57.187 E0.14058
G1 X100.932 Y56.857 E0.02138
G1 X105.802 Y56.857 E0.30451
G1 X105.891 Y57.187 E0.02138
G1 X105.329 Y57.511 E0.04053
G1 X105.329 Y61.889 E0.27372
G1 X109.120 Y64.077 E0.27372
G1 X112.911 Y61.889 E0.27372
G1 X112.911 Y57.511 E0.27372
G1 X112.349 Y57.187 E0.04053
G1 X112.438 Y56.857 E0.02138
G1 X115.962 Y56.857 E0.22037
G1 X116.051 Y57.187 E0.02138
G1 X115.489 Y57.511 E0.04053
G1 X115.489 Y61.889 E0.27372
G1 X119.280 Y64.077 E0.27372
G1 X122.643 Y62.136 E0.24283
G1 X122.643 Y67.424 E0.33072
G1 X119.280 Y65.483 E0.24283
G1 X115.357 Y67.748 E0.28326
G1 X115.357 Y65.143 E0.16288
G1 X102.643 Y65.143 E0.79507
G1 X102.643 Y104.857 E2.48348
G1 X115.357 Y104.857 E0.79507
G1 X115.357 Y102.452 E0.15038
G1 X119.280 Y104.717 E0.28326
G1 X122.643 Y102.776 E0.24283
G1 X122.643 Y108.064 E0.33073
G1 X119.280 Y106.123 E0.24283
G1 X115.489 Y108.311 E0.27372
G1 X115.489 Y112.689 E0.27372
G1 X115.704 Y112.813 E0.01551
G1 X115.616 Y113.143 E0.02138
G1 X112.784 Y113.143 E0.17704
G1 X112.696 Y112.813 E0.02138
G1 X112.911 Y112.689 E0.01551
G1 X112.911 Y108.311 E0.27372
G1 X109.120 Y106.123 E0.27372
G1 X105.329 Y108.311 E0.27372
G1 X105.329 Y112.689 E0.27372
G1 X105.544 Y112.813 E0.01551
G1 X105.456 Y113.143 E0.02138
G1 X100.932 Y113.143 E0.28285
G1 X100.844 Y112.813 E0.02138
G1 X102.791 Y111.689 E0.14058
G1 X102.791 Y107.311 E0.27372
G1 X99.000 Y105.123 E0.27372
G1 X95.209 Y107.311 E0.27372
G1 X95.209 Y111.689 E0.27372
G1 X97.156 Y112.813 E0.14058
G1 X97.068 Y113.143 E0.02138
G1 X92.464 Y113.143 E0.28785
G1 X92.376 Y112.813 E0.02138
G1 X92.591 Y112.689 E0.01551
G1 X92.591 Y108.311 E0.27372
G1 X88.800 Y106.123 E0.27372
G1 X85.009 Y108.311 E0.27372
G1 X85.009 Y112.689 E0.27372
G1 X85.224 Y112.813 E0.01551
G1 X85.136 Y113.143 E0.02138
G1 X82.304 Y113.143 E0.17704
G1 X82.216 Y112.813 E0.02138
G1 X82.431 Y112.689 E0.01551
G1 X82.431 Y108.311 E0.27372
G1 X78.640 Y106.123 E0.27372
G1 X74.849 Y108.311 E0.27372
G1 X74.849 Y112.689 E0.27372
G1 X75.064 Y112.813 E0.01551
G1 X74.976 Y113.143 E0.02138
G1 X72.144 Y113.143 E0.17704
G1 X72.056 Y112.813 E0.02138
G1 X72.271 Y112.689 E0.01551
G1 X72.271 Y108.311 E0.27372
G1 X68.480 Y106.123 E0.27372
G1 X64.689 Y108.311 E0.27372
G1 X64.689 Y112.689 E0.27372
G1 X64.904 Y112.813 E0.01551
G1 X64.816 Y113.143 E0.02138
G1 X61.984 Y113.143 E0.17704
G1 X61.896 Y112.813 E0.02138
G1 X62.111 Y112.689 E0.01551
G1 X62.111 Y108.311 E0.27372
G1 X58.320 Y106.123 E0.27372
G1 X54.529 Y108.311 E0.27372
G1 X54.529 Y112.689 E0.27372
G1 X54.744 Y112.813 E0.01551
G1 X54.656 Y113.143 E0.02138
G1 X51.824 Y113.143 E0.17704
G1 X51.736 Y112.813 E0.02138
G1 X51.951 Y112.689 E0.01551
G1 X51.951 Y108.311 E0.27372
G1 X48.160 Y106.123 E0.27372
G1 X44.791 Y108.068 E0.24329
G1 X44.791 Y107.311 E0.04732
G1 X41.000 Y105.123 E0.27372
G1 X37.357 Y107.226 E0.26305
G1 X37.357 Y62.774 E2.77976
G1 X41.000 Y64.877 E0.26305
G1 X44.739 Y62.719 E0.26997
G1 X41.000 Y105.766 F7800.000
G1 X44.234 Y107.633 E0.23350 F1296.000
G1 X44.234 Y111.367 E0.23350
G1 X43.937 Y111.538 E0.02142
G1 X41.000 Y113.234 E0.21207
G1 X37.766 Y111.367 E0.23350
G1 X37.766 Y107.633 E0.23350
G1 X40.948 Y105.796 E0.22974
G1 X41.257 Y105.460 F7800.000
G1 X44.926 Y102.207 F7800.000
G1 X44.926 Y98.473 E0.23350 F1296.000
G1 X48.160 Y96.606 E0.23350
G1 X51.394 Y98.473 E0.23350
G1 X51.394 Y102.207 E0.23349
G1 X48.160 Y104.074 E0.23350
G1 X44.978 Y102.237 E0.22974
G1 X44.532 Y102.138 F7800.000
G1 X44.369 Y102.529 F7800.000
G1 X44.369 Y98.151 E0.27372 F1440.000
G1 X48.160 Y95.963 E0.27372
G1 X51.951 Y98.151 E0.27373
G1 X51.951 Y102.529 E0.27371
G1 X48.160 Y104.717 E0.27372
G1 X44.421 Y102.559 E0.26997
G1 X44.234 Y62.367 F7800.000
G1 X41.000 Y64.234 E0.23349 F1296.000
G1 X37.766 Y62.367 E0.23349
G1 X37.766 Y58.633 E0.23350
G1 X41.000 Y56.766 E0.23349
G1 X44.234 Y58.633 E0.23349
G1 X44.234 Y62.307 E0.22975
G1 X44.370 Y62.743 F7800.000
G1 F1800.000 E-1.10000
G1 X95.766 Y58.633 F7800.000
G1 E1.10000 F1800.000
G1 X99.000 Y56.766 E0.23350 F1296.000
G1 X102.234 Y58.633 E0.23350
G1 X102.234 Y62.367 E0.23350
