; generated by Slic3r 1.1.7 on 2015-01-21 at 23:49:25

; perimeters extrusion width = 0.40mm
; infill extrusion width = 0.42mm
; solid infill extrusion width = 0.42mm
; top infill extrusion width = 0.42mm

G21 ; set units to millimeters
M107
M190 S60 ; wait for bed temperature to be reached
M104 S200 ; set temperature
G28 ; home all axes
G92 E0.0 ; reset extruder
M109 S200 ; wait for temperature to be reached
G90 ; use absolute coordinates
M83 ; use relative distances for extrusion
M204 S500
G1 F1800.000 E-1.10000
G1 Z0.300 F7800.000
G1 X34.769 Y51.822 F7800.000
G1 E1.10000 F1800.000
G1 X125.231 Y51.822 E5.34262 F2160.000
G1 X127.678 Y54.269 E0.20442
G1 X127.678 Y115.731 E3.62988 F2160.000
G1 X125.231 Y118.178 E0.20442
G1 X34.769 Y118.178 E5.34262
G1 X32.322 Y115.731 E0.20442
G1 X32.322 Y54.269 E3.62988
G1 X34.727 Y51.864 E0.20088
G1 X35.000 Y52.379 F7800.000
G1 X125.000 Y52.379 E5.31536 F2160.000
G1 X127.121 Y54.500 E0.17716 F2160.000
G1 X127.121 Y115.500 E3.60263
G1 X125.000 Y117.621 E0.17716
G1 X35.000 Y117.621 E5.31536
G1 X32.879 Y115.500 E0.17716
G1 X32.879 Y54.500 E3.60263
G1 X34.958 Y52.421 E0.17362
G1 X35.231 Y52.936 F7800.000
G1 X124.769 Y52.936 E5.28811 F2160.000
G1 X126.564 Y54.731 E0.14991
G1 X126.564 Y115.269 E3.57537 F2160.000
G1 X124.769 Y117.064 E0.14991
G1 X35.231 Y117.064 E5.28811
G1 X33.436 Y115.269 E0.14991
G1 X33.436 Y54.731 E3.57537
G1 X35.188 Y52.978 E0.14636
G1 X35.462 Y53.493 F7800.000
G1 X124.538 Y53.493 E5.26085 F2160.000
G1 X126.007 Y54.962 E0.12265 F2160.000
G1 X126.007 Y115.038 E3.54812
G1 X124.538 Y116.507 E0.12265
G1 X35.462 Y116.507 E5.26085
G1 X33.993 Y115.038 E0.12265
G1 X33.993 Y54.962 E3.54812
G1 X35.419 Y53.536 E0.11911
G1 X35.692 Y54.050 F7800.000
G1 X124.308 Y54.050 E5.23359 F2160.000
G1 X125.450 Y55.192 E0.09540
G1 X125.450 Y114.808 E3.52086 F2160.000
G1 X124.308 Y115.950 E0.09540
G1 X35.692 Y115.950 E5.23359
G1 X34.550 Y114.808 E0.09540
G1 X34.550 Y55.192 E3.52086
G1 X35.650 Y54.093 E0.09185
G1 X35.923 Y54.607 F7800.000
G1 X124.077 Y54.607 E5.20634 F2160.000
G1 X124.893 Y55.423 E0.06814 F2160.000
G1 X124.893 Y114.577 E3.49360
G1 X124.077 Y115.393 E0.06814
G1 X35.923 Y115.393 E5.20634
G1 X35.107 Y114.577 E0.06814
G1 X35.107 Y55.423 E3.49360
G1 X35.881 Y54.650 E0.06460
G1 X36.154 Y55.164 F7800.000
G1 X123.846 Y55.164 E5.17908 F2160.000
G1 X124.336 Y55.654 E0.04088
G1 X124.336 Y114.346 E3.46635 F2160.000
G1 X123.846 Y114.836 E0.04088
G1 X36.154 Y114.836 E5.17908
G1 X35.664 Y114.346 E0.04088
G1 X35.664 Y55.654 E3.46635
G1 X36.111 Y55.207 E0.03734
G1 X36.385 Y55.721 F7800.000
G1 X123.615 Y55.721 E5.15182 F2160.000
G1 X123.779 Y55.885 E0.01363
G1 X123.779 Y114.115 E3.43909
G1 X123.615 Y114.279 E0.01363
G1 X36.385 Y114.279 E5.15182
G1 X36.221 Y114.115 E0.01363
G1 X36.221 Y55.885 E3.43909
G1 X36.342 Y55.764 E0.01008
G1 F1800.000 E-1.10000
G1 X122.514 Y112.467 F7800.000
G1 E1.10000 F1800.000
G1 X122.514 Y108.733 E0.22052 F1296.000
G1 X119.280 Y106.866 E0.22053
G1 X116.046 Y108.733 E0.22053
G1 X116.046 Y112.467 E0.22052
G1 X117.610 Y113.370 E0.10663
G1 X117.521 Y113.700 E0.02020
G1 X110.879 Y113.700 E0.39232
G1 X110.790 Y113.370 E0.02020
G1 X112.354 Y112.467 E0.10663
G1 X112.354 Y108.733 E0.22052
G1 X109.120 Y106.866 E0.22053
G1 X105.886 Y108.733 E0.22053
G1 X105.886 Y112.467 E0.22052
G1 X107.450 Y113.370 E0.10663
G1 X107.361 Y113.700 E0.02020
G1 X90.559 Y113.700 E0.99237
G1 X90.470 Y113.370 E0.02020
G1 X92.034 Y112.467 E0.10663
G1 X92.034 Y108.733 E0.22052
G1 X88.800 Y106.866 E0.22053
G1 X85.566 Y108.733 E0.22053
G1 X85.566 Y112.467 E0.22052
G1 X87.130 Y113.370 E0.10663
G1 X87.041 Y113.700 E0.02020
G1 X80.399 Y113.700 E0.39232
G1 X80.310 Y113.370 E0.02020
G1 X81.874 Y112.467 E0.10663
G1 X81.874 Y108.733 E0.22052
G1 X78.640 Y106.866 E0.22053
G1 X75.406 Y108.733 E0.22053
G1 X75.406 Y112.467 E0.22052
G1 X76.970 Y113.370 E0.10663
G1 X76.881 Y113.700 E0.02020
G1 X70.239 Y113.700 E0.39232
G1 X70.150 Y113.370 E0.02020
G1 X71.714 Y112.467 E0.10663
G1 X71.714 Y108.733 E0.22052
G1 X68.480 Y106.866 E0.22053
G1 X65.246 Y108.733 E0.22053
G1 X65.246 Y112.467 E0.22052
G1 X66.810 Y113.370 E0.10663
G1 X66.721 Y113.700 E0.02020
G1 X60.079 Y113.700 E0.39232
G1 X59.990 Y113.370 E0.02020
G1 X61.554 Y112.467 E0.10663
G1 X61.554 Y108.733 E0.22052
G1 X58.320 Y106.866 E0.22053
G1 X55.086 Y108.733 E0.22053
G1 X55.086 Y112.467 E0.22052
G1 X56.650 Y113.370 E0.10663
G1 X56.561 Y113.700 E0.02020
G1 X49.919 Y113.700 E0.39232
G1 X49.830 Y113.370 E0.02020
G1 X51.394 Y112.467 E0.10663
G1 X51.394 Y108.733 E0.22052
G1 X48.160 Y106.866 E0.22053
G1 X44.926 Y108.733 E0.22052
G1 X44.926 Y112.467 E0.22052
G1 X46.490 Y113.370 E0.10663
G1 X46.401 Y113.700 E0.02020
G1 X36.800 Y113.700 E0.56706
G1 X36.800 Y56.300 E3.39003
G1 X47.094 Y56.300 E0.60798
G1 X47.183 Y56.630 E0.02020
G1 X44.926 Y57.933 E0.15388
G1 X44.926 Y61.667 E0.22052
G1 X48.160 Y63.534 E0.22052
G1 X51.394 Y61.667 E0.22052
G1 X51.394 Y57.933 E0.22052
G1 X49.137 Y56.630 E0.15388
G1 X49.226 Y56.300 E0.02020
G1 X57.254 Y56.300 E0.47416
G1 X57.343 Y56.630 E0.02020
G1 X55.086 Y57.933 E0.15388
G1 X55.086 Y61.667 E0.22052
G1 X58.320 Y63.534 E0.22052
G1 X61.554 Y61.667 E0.22052
G1 X61.554 Y57.933 E0.22052
G1 X59.297 Y56.630 E0.15388
G1 X59.386 Y56.300 E0.02020
G1 X67.414 Y56.300 E0.47416
G1 X67.503 Y56.630 E0.02020
G1 X65.246 Y57.933 E0.15388
G1 X65.246 Y61.667 E0.22052
G1 X68.480 Y63.534 E0.22052
G1 X71.714 Y61.667 E0.22052
G1 X71.714 Y57.933 E0.22052
G1 X69.457 Y56.630 E0.15388
G1 X69.546 Y56.300 E0.02020
G1 X77.574 Y56.300 E0.47416
G1 X77.663 Y56.630 E0.02020
G1 X75.406 Y57.933 E0.15388
G1 X75.406 Y61.667 E0.22052
G1 X78.640 Y63.534 E0.22052
G1 X81.874 Y61.667 E0.22052
G1 X81.874 Y57.933 E0.22052
G1 X79.617 Y56.630 E0.15388
G1 X79.706 Y56.300 E0.02020
G1 X87.734 Y56.300 E0.47416
G1 X87.823 Y56.630 E0.02020
G1 X85.566 Y57.933 E0.15388
G1 X85.566 Y61.667 E0.22052
G1 X88.800 Y63.534 E0.22052
G1 X92.034 Y61.667 E0.22052
G1 X92.034 Y57.933 E0.22052
G1 X89.777 Y56.630 E0.15388
G1 X89.866 Y56.300 E0.02020
G1 X108.054 Y56.300 E1.07421
G1 X108.143 Y56.630 E0.02020
G1 X105.886 Y57.933 E0.15388
G1 X105.886 Y61.667 E0.22052
G1 X109.120 Y63.534 E0.22052
G1 X112.354 Y61.667 E0.22052
G1 X112.354 Y57.933 E0.22052
G1 X110.097 Y56.630 E0.15388
G1 X110.186 Y56.300 E0.02020
G1 X118.214 Y56.300 E0.47416
G1 X118.303 Y56.630 E0.02020
G1 X116.046 Y57.933 E0.15388
G1 X116.046 Y61.667 E0.22052
G1 X119.280 Y63.534 E0.22052
G1 X122.514 Y61.667 E0.22052
G1 X122.514 Y57.933 E0.22052
G1 X120.257 Y56.630 E0.15388
G1 X120.346 Y56.300 E0.02020
G1 X123.200 Y56.300 E0.16857
G1 X123.200 Y113.700 E3.39003
G1 X121.039 Y113.700 E0.12765
G1 X120.950 Y113.370 E0.02020
G1 X122.462 Y112.497 E0.10309
G1 X122.908 Y112.397 F7800.000
G1 X122.643 Y77.684 F7800.000
G1 X119.280 Y75.743 E0.22934 F1440.000
G1 X115.357 Y78.008 E0.26753
G1 X115.357 Y72.072 E0.35054
G1 X119.280 Y74.337 E0.26753
G1 X122.643 Y72.396 E0.22934
G1 X122.643 Y77.624 E0.30880
G1 F1800.000 E-1.10000
G1 X119.280 Y84.497 F7800.000
G1 E1.10000 F1800.000
G1 X122.643 Y82.556 E0.22934 F1440.000
G1 X122.643 Y87.844 E0.31235
G1 X119.280 Y85.903 E0.22934
G1 X115.357 Y88.168 E0.26753
G1 X115.357 Y82.232 E0.35054
G1 X119.228 Y84.467 E0.26399
G1 F1800.000 E-1.10000
G1 X115.357 Y92.392 F7800.000
G1 E1.10000 F1800.000
G1 X119.280 Y94.657 E0.26753 F1440.000
G1 X122.643 Y92.716 E0.22934
G1 X122.643 Y98.004 E0.31235
G1 X119.280 Y96.063 E0.22934
G1 X115.357 Y98.328 E0.26753
G1 X115.357 Y92.452 E0.34699
G1 F1800.000 E-1.10000
G1 X39.156 Y112.813 F7800.000
G1 E1.10000 F1800.000
G1 X39.068 Y113.143 E0.02020 F1440.000
G1 X37.357 Y113.143 E0.10102
G1 X37.357 Y111.774 E0.08085
G1 X39.104 Y112.783 E0.11914
G1 F1800.000 E-1.10000
G1 X42.844 Y112.813 F7800.000
G1 E1.10000 F1800.000
G1 X44.369 Y111.932 E0.10403 F1440.000
G1 X44.369 Y112.789 E0.05059
G1 X44.411 Y112.813 E0.00284
G1 X44.322 Y113.143 E0.02020
G1 X42.932 Y113.143 E0.08209
G1 X42.859 Y112.871 E0.01665
G1 F1800.000 E-1.10000
G1 X37.357 Y58.226 F7800.000
G1 E1.10000 F1800.000
G1 X37.357 Y56.857 E0.08085 F1440.000
G1 X39.068 Y56.857 E0.10102
G1 X39.156 Y57.187 E0.02020
G1 X37.409 Y58.196 E0.11914
G1 F1800.000 E-1.10000
G1 X42.844 Y57.187 F7800.000
G1 E1.10000 F1800.000
G1 X42.932 Y56.857 E0.02020 F1440.000
G1 X45.015 Y56.857 E0.12301
G1 X45.104 Y57.187 E0.02020
G1 X44.369 Y57.611 E0.05009
G1 X44.369 Y58.068 E0.02696
G1 X42.896 Y57.217 E0.10048
G1 F1800.000 E-1.10000
G1 X44.791 Y62.689 F7800.000
G1 E1.10000 F1800.000
G1 X44.791 Y62.232 E0.02697 F1440.000
G1 X48.160 Y64.177 E0.22977
G1 X51.951 Y61.989 E0.25852
G1 X51.951 Y57.611 E0.25851
G1 X51.216 Y57.187 E0.05009
G1 X51.305 Y56.857 E0.02020
G1 X55.175 Y56.857 E0.22859
G1 X55.264 Y57.187 E0.02020
G1 X54.529 Y57.611 E0.05009
G1 X54.529 Y61.989 E0.25851
G1 X58.320 Y64.177 E0.25851
G1 X62.111 Y61.989 E0.25851
G1 X62.111 Y57.611 E0.25851
G1 X61.376 Y57.187 E0.05009
G1 X61.465 Y56.857 E0.02020
G1 X65.335 Y56.857 E0.22859
G1 X65.424 Y57.187 E0.02020
G1 X64.689 Y57.611 E0.05009
G1 X64.689 Y61.989 E0.25851
G1 X68.480 Y64.177 E0.25851
G1 X72.271 Y61.989 E0.25851
G1 X72.271 Y57.611 E0.25851
G1 X71.536 Y57.187 E0.05009
G1 X71.625 Y56.857 E0.02020
G1 X75.495 Y56.857 E0.22859
G1 X75.584 Y57.187 E0.02020
G1 X74.849 Y57.611 E0.05009
G1 X74.849 Y61.989 E0.25851
G1 X78.640 Y64.177 E0.25851
G1 X82.431 Y61.989 E0.25851
G1 X82.431 Y57.611 E0.25851
G1 X81.696 Y57.187 E0.05009
G1 X81.785 Y56.857 E0.02020
G1 X85.655 Y56.857 E0.22859
G1 X85.744 Y57.187 E0.02020
G1 X85.009 Y57.611 E0.05009
G1 X85.009 Y61.989 E0.25851
G1 X88.800 Y64.177 E0.25851
G1 X92.591 Y61.989 E0.25851
G1 X92.591 Y57.611 E0.25851
G1 X91.856 Y57.187 E0.05009
G1 X91.945 Y56.857 E0.02020
G1 X97.068 Y56.857 E0.30255
G1 X97.156 Y57.187 E0.02020
G1 X95.209 Y58.311 E0.13277
G1 X95.209 Y62.689 E0.25852
G1 X99.000 Y64.877 E0.25851
G1 X102.791 Y62.689 E0.25851
G1 X102.791 Y58.311 E0.25852
G1 X100.844 Y57.187 E0.13277
G1 X100.932 Y56.857 E0.02020
G1 X105.975 Y56.857 E0.29783
G1 X106.064 Y57.187 E0.02020
G1 X105.329 Y57.611 E0.05009
G1 X105.329 Y61.989 E0.25851
G1 X109.120 Y64.177 E0.25851
G1 X112.911 Y61.989 E0.25851
G1 X112.911 Y57.611 E0.25851
G1 X112.176 Y57.187 E0.05009
G1 X112.265 Y56.857 E0.02020
G1 X116.135 Y56.857 E0.22859
G1 X116.224 Y57.187 E0.02020
G1 X115.489 Y57.611 E0.05009
G1 X115.489 Y61.989 E0.25851
G1 X119.280 Y64.177 E0.25851
G1 X122.643 Y62.236 E0.22934
G1 X122.643 Y67.524 E0.31235
G1 X119.280 Y65.583 E0.22934
G1 X115.357 Y67.848 E0.26753
G1 X115.357 Y65.143 E0.15974
G1 X102.643 Y65.143 E0.75089
G1 X102.643 Y104.857 E2.34551
G1 X115.357 Y104.857 E0.75089
G1 X115.357 Y102.552 E0.13612
G1 X119.280 Y104.817 E0.26753
G1 X122.643 Y102.876 E0.22934
G1 X122.643 Y108.164 E0.31236
G1 X119.280 Y106.223 E0.22934
G1 X115.489 Y108.411 E0.25852
G1 X115.489 Y112.789 E0.25851
G1 X115.531 Y112.813 E0.00284
G1 X115.442 Y113.143 E0.02020
G1 X112.958 Y113.143 E0.14674
G1 X112.869 Y112.813 E0.02020
G1 X112.911 Y112.789 E0.00284
G1 X112.911 Y108.411 E0.25851
G1 X109.120 Y106.223 E0.25852
G1 X105.329 Y108.411 E0.25852
G1 X105.329 Y112.789 E0.25851
G1 X105.371 Y112.813 E0.00284
G1 X105.282 Y113.143 E0.02020
G1 X100.932 Y113.143 E0.25690
G1 X100.844 Y112.813 E0.02020
G1 X102.791 Y111.689 E0.13277
G1 X102.791 Y107.311 E0.25851
G1 X99.000 Y105.123 E0.25852
G1 X95.209 Y107.311 E0.25852
G1 X95.209 Y111.689 E0.25851
G1 X97.156 Y112.813 E0.13277
G1 X97.068 Y113.143 E0.02020
G1 X92.638 Y113.143 E0.26163
G1 X92.549 Y112.813 E0.02020
G1 X92.591 Y112.789 E0.00284
G1 X92.591 Y108.411 E0.25851
G1 X88.800 Y106.223 E0.25852
G1 X85.009 Y108.411 E0.25852
G1 X85.009 Y112.789 E0.25851
G1 X85.051 Y112.813 E0.00284
G1 X84.962 Y113.143 E0.02020
G1 X82.478 Y113.143 E0.14674
G1 X82.389 Y112.813 E0.02020
G1 X82.431 Y112.789 E0.00284
G1 X82.431 Y108.411 E0.25851
G1 X78.640 Y106.223 E0.25852
G1 X74.849 Y108.411 E0.25852
G1 X74.849 Y112.789 E0.25851
G1 X74.891 Y112.813 E0.00284
G1 X74.802 Y113.143 E0.02020
G1 X72.318 Y113.143 E0.14674
G1 X72.229 Y112.813 E0.02020
G1 X72.271 Y112.789 E0.00284
G1 X72.271 Y108.411 E0.25851
G1 X68.480 Y106.223 E0.25852
G1 X64.689 Y108.411 E0.25852
G1 X64.689 Y112.789 E0.25851
G1 X64.731 Y112.813 E0.00284
G1 X64.642 Y113.143 E0.02020
G1 X62.158 Y113.143 E0.14674
G1 X62.069 Y112.813 E0.02020
G1 X62.111 Y112.789 E0.00284
G1 X62.111 Y108.411 E0.25851
G1 X58.320 Y106.223 E0.25852
G1 X54.529 Y108.411 E0.25852
G1 X54.529 Y112.789 E0.25851
G1 X54.571 Y112.813 E0.00284
G1 X54.482 Y113.143 E0.02020
G1 X51.998 Y113.143 E0.14674
G1 X51.909 Y112.813 E0.02020
G1 X51.951 Y112.789 E0.00284
G1 X51.951 Y108.411 E0.25851
G1 X48.160 Y106.223 E0.25852
G1 X44.791 Y108.168 E0.22977
G1 X44.791 Y107.311 E0.05059
G1 X41.000 Y105.123 E0.25851
G1 X37.357 Y107.226 E0.24843
G1 X37.357 Y62.774 E2.62533
G1 X41.000 Y64.877 E0.24843
G1 X44.739 Y62.719 E0.25497
G1 X44.234 Y111.367 F7800.000
G1 X41.000 Y113.234 E0.22052 F1296.000
G1 X37.766 Y111.367 E0.22052
G1 X37.766 Y107.633 E0.22052
G1 X41.000 Y105.766 E0.22052
G1 X44.234 Y107.633 E0.22052
G1 X44.234 Y111.307 E0.21698
G1 X44.370 Y111.743 F7800.000
G1 X44.926 Y102.307 F7800.000
G1 X44.926 Y98.573 E0.22053 F1296.000
G1 X48.160 Y96.706 E0.22052
G1 X51.394 Y98.573 E0.22052
G1 X51.394 Y102.307 E0.22052
G1 X48.160 Y104.174 E0.22053
G1 X44.978 Y102.337 E0.21698
G1 X44.532 Y102.238 F7800.000
G1 X44.369 Y102.629 F7800.000
G1 X44.369 Y98.251 E0.25852 F1440.000
G1 X48.160 Y96.063 E0.25851
G1 X51.951 Y98.251 E0.25852
G1 X51.951 Y102.629 E0.25851
G1 X48.160 Y104.817 E0.25852
G1 X44.421 Y102.659 E0.25497
G1 X44.234 Y62.367 F7800.000
G1 X41.000 Y64.234 E0.22052 F1296.000
G1 X37.766 Y62.367 E0.22052
G1 X37.766 Y58.633 E0.22053
G1 X41.000 Y56.766 E0.22052
G1 X44.234 Y58.633 E0.22052
G1 X44.234 Y62.307 E0.21699
G1 X44.370 Y62.743 F7800.000
G1 F1800.000 E-1.10000
G1 X95.766 Y62.367 F7800.000
G1 E1.10000 F1800.000
G1 X95.766 Y58.633 E0.22053 F1296.000
G1 X99.000 Y56.766 E0.22052
G1 X102.234 Y58.633 E0.22052
G1 X102.234 Y62.367 E0.22053
G1 X99.000 Y64.234 E0.22052
G1 X95.818 Y62.397 E0.21698
G1 X95.372 Y62.298 F7800.000
G1 F1800.000 E-1.10000
G1 X116.046 Y68.093 F7800.000
G1 E1.10000 F1800.000
G1 X119.280 Y66.226 E0.22052 F1296.000
G1 X122.514 Y68.093 E0.22052
G1 X122.514 Y71.827 E0.22053
G1 X119.280 Y73.694 E0.22052
G1 X116.046 Y71.827 E0.22052
G1 X116.046 Y68.153 E0.21699
G1 X115.909 Y67.717 F7800.000
G1 X116.046 Y78.253 F7800.000
G1 X119.280 Y76.386 E0.22052 F1296.000
G1 X122.514 Y78.253 E0.22052
G1 X122.514 Y81.987 E0.22052
G1 X119.280 Y83.854 E0.22053
G1 X116.046 Y81.987 E0.22053
G1 X116.046 Y78.313 E0.21698
G1 X115.909 Y77.877 F7800.000
G1 X116.046 Y88.413 F7800.000
G1 X119.280 Y86.546 E0.22052 F1296.000
G1 X122.514 Y88.413 E0.22052
G1 X122.514 Y92.147 E0.22052
G1 X119.280 Y94.014 E0.22053
G1 X116.046 Y92.147 E0.22052
G1 X116.046 Y88.473 E0.21699
G1 X115.909 Y88.037 F7800.000
G1 X116.046 Y98.573 F7800.000
G1 X119.280 Y96.706 E0.22052 F1296.000
G1 X122.514 Y98.573 E0.22052
G1 X122.514 Y102.307 E0.22052
G1 X119.280 Y104.174 E0.22053
G1 X116.046 Y102.307 E0.22052
G1 X116.046 Y98.633 E0.21699
G1 X115.909 Y98.197 F7800.000
G1 X114.800 Y104.300 F7800.000
G1 X103.200 Y104.300 E0.68509 F1296.000
G1 X103.200 Y65.700 E2.27971
G1 X114.800 Y65.700 E0.68509
G1 X114.800 Y104.240 E2.27616
G1 X114.800 Y104.700 F7800.000
G1 X102.234 Y107.633 F7800.000
G1 X102.234 Y111.367 E0.22052 F1296.000
G1 X99.000 Y113.234 E0.22053
G1 X95.766 Y111.367 E0.22053
G1 X95.766 Y107.633 E0.22052
G1 X99.000 Y105.766 E0.22053
G1 X102.182 Y107.603 E0.21698
G1 X102.628 Y107.703 F7800.000
G1 X92.034 Y98.573 F7800.000
G1 X92.034 Y102.307 E0.22052 F1296.000
G1 X91.737 Y102.478 E0.02023
G1 X88.800 Y104.174 E0.20029
G1 X85.566 Y102.307 E0.22052
G1 X85.566 Y98.573 E0.22053
G1 X88.800 Y96.706 E0.22052
G1 X91.982 Y98.543 E0.21698
G1 X92.428 Y98.642 F7800.000
G1 F1800.000 E-1.10000
G1 X81.874 Y98.573 F7800.000
G1 E1.10000 F1800.000
G1 X81.874 Y102.307 E0.22052 F1296.000
G1 X81.577 Y102.478 E0.02023
G1 X78.640 Y104.174 E0.20029
G1 X75.406 Y102.307 E0.22052
G1 X75.406 Y98.573 E0.22053
G1 X78.640 Y96.706 E0.22052
G1 X81.822 Y98.543 E0.21698
G1 X81.617 Y98.879 F7800.000
G1 F1800.000 E-1.10000
G1 X71.714 Y98.573 F7800.000
G1 E1.10000 F1800.000
