; generated by Slic3r 1.1.7 on 2015-01-22 at 12:41:05

; perimeters extrusion width = 0.40mm
; infill extrusion width = 0.42mm
; solid infill extrusion width = 0.42mm
; top infill extrusion width = 0.42mm

G21 ; set units to millimeters
M107
M190 S60 ; wait for bed temperature to be reached
M104 S200 ; set temperature
G28 ; home all axes
G92 E0.0 ; reset extruder
M109 S200 ; wait for temperature to be reached
G90 ; use absolute coordinates
M83 ; use relative distances for extrusion
M204 S500
G1 F1800.000 E-1.10000
G1 Z0.300 F7800.000
G1 X46.822 Y39.769 F7800.000
G1 E1.10000 F1800.000
G1 X49.269 Y37.322 E0.20442 F2160.000
G1 X110.731 Y37.322 E3.62988
G1 X113.178 Y39.769 E0.20442
G1 X113.178 Y130.231 E5.34262 F2160.000
G1 X110.731 Y132.678 E0.20442
G1 X49.269 Y132.678 E3.62988
G1 X46.822 Y130.231 E0.20442
G1 X46.822 Y39.829 E5.33907
G1 X47.379 Y40.000 F7800.000
G1 X49.500 Y37.879 E0.17716 F2160.000
G1 X110.500 Y37.879 E3.60263
G1 X112.621 Y40.000 E0.17716 F2160.000
G1 X112.621 Y130.000 E5.31536
G1 X110.500 Y132.121 E0.17716
G1 X49.500 Y132.121 E3.60263
G1 X47.379 Y130.000 E0.17716
G1 X47.379 Y40.060 E5.31182
G1 X47.936 Y40.231 F7800.000
G1 X49.731 Y38.436 E0.14991 F2160.000
G1 X110.269 Y38.436 E3.57537
G1 X112.064 Y40.231 E0.14991
G1 X112.064 Y129.769 E5.28811 F2160.000
G1 X110.269 Y131.564 E0.14991
G1 X49.731 Y131.564 E3.57537
G1 X47.936 Y129.769 E0.14991
G1 X47.936 Y40.291 E5.28456
G1 X48.493 Y40.462 F7800.000
G1 X49.962 Y38.993 E0.12265 F2160.000
G1 X110.038 Y38.993 E3.54812
G1 X111.507 Y40.462 E0.12265 F2160.000
G1 X111.507 Y129.538 E5.26085
G1 X110.038 Y131.007 E0.12265
G1 X49.962 Y131.007 E3.54812
G1 X48.493 Y129.538 E0.12265
G1 X48.493 Y40.522 E5.25731
G1 X49.050 Y40.692 F7800.000
G1 X50.192 Y39.550 E0.09540 F2160.000
G1 X109.808 Y39.550 E3.52086
G1 X110.950 Y40.692 E0.09540
G1 X110.950 Y129.308 E5.23359 F2160.000
G1 X109.808 Y130.450 E0.09540
G1 X50.192 Y130.450 E3.52086
G1 X49.050 Y129.308 E0.09540
G1 X49.050 Y40.752 E5.23005
G1 X49.607 Y40.923 F7800.000
G1 X50.423 Y40.107 E0.06814 F2160.000
G1 X109.577 Y40.107 E3.49360
G1 X110.393 Y40.923 E0.06814 F2160.000
G1 X110.393 Y129.077 E5.20634
G1 X109.577 Y129.893 E0.06814
G1 X50.423 Y129.893 E3.49360
G1 X49.607 Y129.077 E0.06814
G1 X49.607 Y40.983 E5.20279
G1 X50.164 Y41.154 F7800.000
G1 X50.654 Y40.664 E0.04088 F2160.000
G1 X109.346 Y40.664 E3.46635
G1 X109.836 Y41.154 E0.04088
G1 X109.836 Y128.846 E5.17908 F2160.000
G1 X109.346 Y129.336 E0.04088
G1 X50.654 Y129.336 E3.46635
G1 X50.164 Y128.846 E0.04088
G1 X50.164 Y41.214 E5.17554
G1 X50.885 Y41.221 F7800.000
G1 X109.115 Y41.221 E3.43909 F2160.000
G1 X109.279 Y41.385 E0.01363
G1 X109.279 Y128.615 E5.15182
G1 X109.115 Y128.779 E0.01363
G1 X50.885 Y128.779 E3.43909
G1 X50.721 Y128.615 E0.01363
G1 X50.721 Y41.385 E5.15182
G1 X50.842 Y41.264 E0.01008
G1 F1800.000 E-1.10000
G1 X51.388 Y54.238 F7800.000
G1 E1.10000 F1800.000
G1 X51.114 Y53.217 E0.06244 F1296.000
G1 X51.114 Y53.103 E0.00673
G1 X51.388 Y52.082 E0.06244
G1 F1800.000 E-1.10000
G1 X108.612 Y52.082 F7800.000
G1 E1.10000 F1800.000
G1 X108.886 Y53.103 E0.06244 F1296.000
G1 X108.886 Y53.217 E0.00673
G1 X108.612 Y54.238 E0.06244
G1 F1800.000 E-1.10000
G1 X51.388 Y64.398 F7800.000
G1 E1.10000 F1800.000
G1 X51.114 Y63.377 E0.06244 F1296.000
G1 X51.114 Y63.263 E0.00673
G1 X51.388 Y62.242 E0.06244
G1 F1800.000 E-1.10000
G1 X108.612 Y62.242 F7800.000
G1 E1.10000 F1800.000
G1 X108.886 Y63.263 E0.06244 F1296.000
G1 X108.886 Y63.377 E0.00673
G1 X108.612 Y64.398 E0.06244
G1 F1800.000 E-1.10000
G1 X51.388 Y74.558 F7800.000
G1 E1.10000 F1800.000
G1 X51.114 Y73.537 E0.06244 F1296.000
G1 X51.114 Y73.423 E0.00673
G1 X51.388 Y72.402 E0.06244
G1 F1800.000 E-1.10000
G1 X108.612 Y72.402 F7800.000
G1 E1.10000 F1800.000
G1 X108.886 Y73.423 E0.06244 F1296.000
G1 X108.886 Y73.537 E0.00673
G1 X108.612 Y74.558 E0.06244
G1 F1800.000 E-1.10000
G1 X51.388 Y84.718 F7800.000
G1 E1.10000 F1800.000
G1 X51.114 Y83.697 E0.06244 F1296.000
G1 X51.114 Y83.583 E0.00673
G1 X51.388 Y82.562 E0.06244
G1 F1800.000 E-1.10000
G1 X108.612 Y82.562 F7800.000
G1 E1.10000 F1800.000
G1 X108.886 Y83.583 E0.06244 F1296.000
G1 X108.886 Y83.697 E0.00673
G1 X108.612 Y84.718 E0.06244
G1 F1800.000 E-1.10000
G1 X51.388 Y94.878 F7800.000
G1 E1.10000 F1800.000
G1 X51.114 Y93.857 E0.06244 F1296.000
G1 X51.114 Y93.743 E0.00673
G1 X51.388 Y92.722 E0.06244
G1 F1800.000 E-1.10000
G1 X108.612 Y92.722 F7800.000
G1 E1.10000 F1800.000
G1 X108.886 Y93.743 E0.06244 F1296.000
G1 X108.886 Y93.857 E0.00673
G1 X108.612 Y94.878 E0.06244
G1 F1800.000 E-1.10000
G1 X51.388 Y115.198 F7800.000
G1 E1.10000 F1800.000
G1 X51.114 Y114.177 E0.06244 F1296.000
G1 X51.114 Y114.063 E0.00673
G1 X51.388 Y113.042 E0.06244
G1 F1800.000 E-1.10000
G1 X108.612 Y113.042 F7800.000
G1 E1.10000 F1800.000
G1 X108.886 Y114.063 E0.06244 F1296.000
G1 X108.886 Y114.177 E0.00673
G1 X108.612 Y115.198 E0.06244
G1 F1800.000 E-1.10000
G1 X51.388 Y125.358 F7800.000
G1 E1.10000 F1800.000
G1 X51.114 Y124.337 E0.06244 F1296.000
G1 X51.114 Y124.223 E0.00673
G1 X51.388 Y123.202 E0.06244
G1 F1800.000 E-1.10000
G1 X108.612 Y123.202 F7800.000
G1 E1.10000 F1800.000
G1 X108.886 Y124.223 E0.06244 F1296.000
G1 X108.886 Y124.337 E0.00673
G1 X108.612 Y125.358 E0.06244
G1 X107.267 Y127.514 F7800.000
G1 X108.370 Y125.604 E0.13025 F1296.000
G1 X108.700 Y125.692 E0.02020
G1 X108.700 Y128.200 E0.14811
G1 X51.300 Y128.200 E3.39003
G1 X51.300 Y125.692 E0.14811
G1 X51.630 Y125.604 E0.02020
G1 X52.733 Y127.514 E0.13025
G1 X56.467 Y127.514 E0.22052
G1 X58.334 Y124.280 E0.22053
G1 X56.467 Y121.046 E0.22053
G1 X52.733 Y121.046 E0.22052
G1 X51.630 Y122.956 E0.13025
G1 X51.300 Y122.868 E0.02020
G1 X51.300 Y115.532 E0.43324
G1 X51.630 Y115.444 E0.02020
G1 X52.733 Y117.354 E0.13025
G1 X56.467 Y117.354 E0.22052
G1 X58.334 Y114.120 E0.22053
G1 X56.467 Y110.886 E0.22053
G1 X52.733 Y110.886 E0.22052
G1 X51.630 Y112.796 E0.13025
G1 X51.300 Y112.708 E0.02020
G1 X51.300 Y95.212 E1.03329
G1 X51.630 Y95.124 E0.02020
G1 X52.733 Y97.034 E0.13025
G1 X56.467 Y97.034 E0.22052
G1 X58.334 Y93.800 E0.22053
G1 X56.467 Y90.566 E0.22053
G1 X52.733 Y90.566 E0.22052
G1 X51.630 Y92.476 E0.13025
G1 X51.300 Y92.388 E0.02020
G1 X51.300 Y85.052 E0.43324
G1 X51.630 Y84.964 E0.02020
G1 X52.733 Y86.874 E0.13025
G1 X56.467 Y86.874 E0.22052
G1 X58.334 Y83.640 E0.22053
G1 X56.467 Y80.406 E0.22053
G1 X52.733 Y80.406 E0.22052
G1 X51.630 Y82.316 E0.13025
G1 X51.300 Y82.228 E0.02020
G1 X51.300 Y74.892 E0.43324
G1 X51.630 Y74.804 E0.02020
G1 X52.733 Y76.714 E0.13025
G1 X56.467 Y76.714 E0.22052
G1 X58.334 Y73.480 E0.22053
G1 X56.467 Y70.246 E0.22053
G1 X52.733 Y70.246 E0.22052
G1 X51.630 Y72.156 E0.13025
G1 X51.300 Y72.068 E0.02020
G1 X51.300 Y64.732 E0.43324
G1 X51.630 Y64.644 E0.02020
G1 X52.733 Y66.554 E0.13025
G1 X56.467 Y66.554 E0.22052
G1 X58.334 Y63.320 E0.22053
G1 X56.467 Y60.086 E0.22053
G1 X52.733 Y60.086 E0.22052
G1 X51.630 Y61.996 E0.13025
G1 X51.300 Y61.908 E0.02020
G1 X51.300 Y54.572 E0.43324
G1 X51.630 Y54.484 E0.02020
G1 X52.733 Y56.394 E0.13025
G1 X56.467 Y56.394 E0.22052
G1 X58.334 Y53.160 E0.22053
G1 X56.467 Y49.926 E0.22052
G1 X52.733 Y49.926 E0.22052
G1 X51.630 Y51.836 E0.13025
G1 X51.300 Y51.748 E0.02020
G1 X51.300 Y41.800 E0.58752
G1 X108.700 Y41.800 E3.39003
G1 X108.700 Y51.748 E0.58751
G1 X108.370 Y51.836 E0.02020
G1 X107.267 Y49.926 E0.13025
G1 X103.533 Y49.926 E0.22053
G1 X101.666 Y53.160 E0.22052
G1 X103.533 Y56.394 E0.22052
G1 X107.267 Y56.394 E0.22053
G1 X108.370 Y54.484 E0.13025
G1 X108.700 Y54.572 E0.02020
G1 X108.700 Y61.908 E0.43323
G1 X108.370 Y61.996 E0.02020
G1 X107.267 Y60.086 E0.13025
G1 X103.533 Y60.086 E0.22053
G1 X101.666 Y63.320 E0.22052
G1 X103.533 Y66.554 E0.22052
G1 X107.267 Y66.554 E0.22053
G1 X108.370 Y64.644 E0.13025
G1 X108.700 Y64.732 E0.02020
G1 X108.700 Y72.068 E0.43323
G1 X108.370 Y72.156 E0.02020
G1 X107.267 Y70.246 E0.13025
G1 X103.533 Y70.246 E0.22053
G1 X101.666 Y73.480 E0.22052
G1 X103.533 Y76.714 E0.22052
G1 X107.267 Y76.714 E0.22053
G1 X108.370 Y74.804 E0.13025
G1 X108.700 Y74.892 E0.02020
G1 X108.700 Y82.228 E0.43323
G1 X108.370 Y82.316 E0.02020
G1 X107.267 Y80.406 E0.13025
G1 X103.533 Y80.406 E0.22053
G1 X101.666 Y83.640 E0.22052
G1 X103.533 Y86.874 E0.22052
G1 X107.267 Y86.874 E0.22053
G1 X108.370 Y84.964 E0.13025
G1 X108.700 Y85.052 E0.02020
G1 X108.700 Y92.388 E0.43323
G1 X108.370 Y92.476 E0.02020
G1 X107.267 Y90.566 E0.13025
G1 X103.533 Y90.566 E0.22053
G1 X101.666 Y93.800 E0.22052
G1 X103.533 Y97.034 E0.22052
G1 X107.267 Y97.034 E0.22053
G1 X108.370 Y95.124 E0.13025
G1 X108.700 Y95.212 E0.02020
G1 X108.700 Y112.708 E1.03328
G1 X108.370 Y112.796 E0.02020
G1 X107.267 Y110.886 E0.13025
G1 X103.533 Y110.886 E0.22053
G1 X101.666 Y114.120 E0.22052
G1 X103.533 Y117.354 E0.22052
G1 X107.267 Y117.354 E0.22053
G1 X108.370 Y115.444 E0.13025
G1 X108.700 Y115.532 E0.02020
G1 X108.700 Y122.868 E0.43323
G1 X108.370 Y122.956 E0.02020
G1 X107.267 Y121.046 E0.13025
G1 X103.533 Y121.046 E0.22053
G1 X101.666 Y124.280 E0.22052
G1 X103.533 Y127.514 E0.22052
G1 X107.207 Y127.514 E0.21699
G1 X107.643 Y127.651 F7800.000
G1 F1800.000 E-1.10000
G1 X70.543 Y124.280 F7800.000
G1 E1.10000 F1800.000
G1 X72.484 Y127.643 E0.22934 F1440.000
G1 X67.196 Y127.643 E0.31236
G1 X69.137 Y124.280 E0.22934
G1 X66.872 Y120.357 E0.26753
G1 X72.808 Y120.357 E0.35055
G1 X70.573 Y124.228 E0.26399
G1 F1800.000 E-1.10000
G1 X77.032 Y120.357 F7800.000
G1 E1.10000 F1800.000
G1 X82.968 Y120.357 E0.35054 F1440.000
G1 X80.703 Y124.280 E0.26753
G1 X82.644 Y127.643 E0.22934
G1 X77.356 Y127.643 E0.31235
G1 X79.297 Y124.280 E0.22934
G1 X77.062 Y120.409 E0.26398
G1 F1800.000 E-1.10000
G1 X89.457 Y124.280 F7800.000
G1 E1.10000 F1800.000
G1 X87.192 Y120.357 E0.26753 F1440.000
G1 X93.128 Y120.357 E0.35055
G1 X90.863 Y124.280 E0.26753
G1 X92.804 Y127.643 E0.22934
G1 X87.516 Y127.643 E0.31236
G1 X89.427 Y124.332 E0.22580
G1 F1800.000 E-1.10000
G1 X107.813 Y44.156 F7800.000
G1 E1.10000 F1800.000
G1 X106.774 Y42.357 E0.12268 F1440.000
G1 X108.143 Y42.357 E0.08085
G1 X108.143 Y44.068 E0.10102
G1 X107.871 Y44.141 E0.01665
G1 F1800.000 E-1.10000
G1 X107.589 Y49.369 F7800.000
G1 E1.10000 F1800.000
G1 X106.932 Y49.369 E0.03878 F1440.000
G1 X107.813 Y47.844 E0.10402
G1 X108.143 Y47.932 E0.02020
G1 X108.143 Y49.669 E0.10254
G1 X107.813 Y49.757 E0.02020
G1 X107.619 Y49.421 E0.02291
G1 X53.068 Y49.369 F7800.000
G1 X52.411 Y49.369 E0.03878 F1440.000
G1 X52.187 Y49.757 E0.02646
G1 X51.857 Y49.669 E0.02020
G1 X51.857 Y47.932 E0.10255
G1 X52.187 Y47.844 E0.02020
G1 X53.038 Y49.317 E0.10048
G1 F1800.000 E-1.10000
G1 X52.187 Y44.156 F7800.000
G1 E1.10000 F1800.000
G1 X51.857 Y44.068 E0.02020 F1440.000
G1 X51.857 Y42.357 E0.10102
G1 X53.226 Y42.357 E0.08085
G1 X52.217 Y44.104 E0.11914
G1 F1800.000 E-1.10000
G1 X57.689 Y49.791 F7800.000
G1 E1.10000 F1800.000
G1 X59.877 Y46.000 E0.25851 F1440.000
G1 X57.774 Y42.357 E0.24843
G1 X102.226 Y42.357 E2.62533
G1 X100.123 Y46.000 E0.24843
G1 X102.311 Y49.791 E0.25851
G1 X102.968 Y49.791 E0.03878
G1 X101.023 Y53.160 E0.22977
G1 X103.211 Y56.951 E0.25851
G1 X107.589 Y56.951 E0.25852
G1 X107.813 Y56.563 E0.02645
G1 X108.143 Y56.651 E0.02020
G1 X108.143 Y59.829 E0.18765
G1 X107.813 Y59.917 E0.02020
G1 X107.589 Y59.529 E0.02645
G1 X103.211 Y59.529 E0.25852
G1 X101.023 Y63.320 E0.25851
G1 X103.211 Y67.111 E0.25851
G1 X107.589 Y67.111 E0.25852
G1 X107.813 Y66.723 E0.02645
G1 X108.143 Y66.811 E0.02020
G1 X108.143 Y69.989 E0.18765
G1 X107.813 Y70.077 E0.02020
G1 X107.589 Y69.689 E0.02645
G1 X103.211 Y69.689 E0.25852
G1 X101.023 Y73.480 E0.25851
G1 X103.211 Y77.271 E0.25851
G1 X107.589 Y77.271 E0.25852
G1 X107.813 Y76.883 E0.02645
G1 X108.143 Y76.971 E0.02020
G1 X108.143 Y80.149 E0.18765
G1 X107.813 Y80.237 E0.02020
G1 X107.589 Y79.849 E0.02645
G1 X103.211 Y79.849 E0.25852
G1 X101.023 Y83.640 E0.25851
G1 X103.211 Y87.431 E0.25851
G1 X107.589 Y87.431 E0.25852
G1 X107.813 Y87.043 E0.02645
G1 X108.143 Y87.131 E0.02020
G1 X108.143 Y90.309 E0.18765
G1 X107.813 Y90.397 E0.02020
G1 X107.589 Y90.009 E0.02645
G1 X103.211 Y90.009 E0.25852
G1 X101.023 Y93.800 E0.25851
G1 X103.211 Y97.591 E0.25851
G1 X107.589 Y97.591 E0.25852
G1 X107.813 Y97.203 E0.02645
G1 X108.143 Y97.291 E0.02020
G1 X108.143 Y102.068 E0.28208
G1 X107.813 Y102.156 E0.02020
G1 X106.689 Y100.209 E0.13277
G1 X102.311 Y100.209 E0.25852
G1 X100.123 Y104.000 E0.25851
G1 X102.311 Y107.791 E0.25851
G1 X106.689 Y107.791 E0.25852
G1 X107.813 Y105.844 E0.13277
G1 X108.143 Y105.932 E0.02020
G1 X108.143 Y110.629 E0.27736
G1 X107.813 Y110.717 E0.02020
G1 X107.589 Y110.329 E0.02645
G1 X103.211 Y110.329 E0.25852
G1 X101.023 Y114.120 E0.25851
G1 X103.211 Y117.911 E0.25851
G1 X107.589 Y117.911 E0.25852
G1 X107.813 Y117.523 E0.02645
G1 X108.143 Y117.611 E0.02020
G1 X108.143 Y120.789 E0.18765
G1 X107.813 Y120.877 E0.02020
G1 X107.589 Y120.489 E0.02645
G1 X103.211 Y120.489 E0.25852
G1 X101.023 Y124.280 E0.25851
G1 X102.964 Y127.643 E0.22934
G1 X97.676 Y127.643 E0.31235
G1 X99.617 Y124.280 E0.22934
G1 X97.352 Y120.357 E0.26753
G1 X99.857 Y120.357 E0.14793
G1 X99.857 Y107.643 E0.75089
G1 X60.143 Y107.643 E2.34551
G1 X60.143 Y120.357 E0.75089
G1 X62.648 Y120.357 E0.14793
G1 X60.383 Y124.280 E0.26753
G1 X62.324 Y127.643 E0.22934
G1 X57.036 Y127.643 E0.31236
G1 X58.977 Y124.280 E0.22934
G1 X56.789 Y120.489 E0.25852
G1 X52.411 Y120.489 E0.25851
G1 X52.187 Y120.877 E0.02646
G1 X51.857 Y120.789 E0.02020
G1 X51.857 Y117.611 E0.18766
G1 X52.187 Y117.523 E0.02020
G1 X52.411 Y117.911 E0.02646
G1 X56.789 Y117.911 E0.25851
G1 X58.977 Y114.120 E0.25852
G1 X56.789 Y110.329 E0.25852
G1 X52.411 Y110.329 E0.25851
G1 X52.187 Y110.717 E0.02646
G1 X51.857 Y110.629 E0.02020
G1 X51.857 Y105.932 E0.27736
G1 X52.187 Y105.844 E0.02020
G1 X53.311 Y107.791 E0.13277
G1 X57.689 Y107.791 E0.25851
G1 X59.877 Y104.000 E0.25852
G1 X57.689 Y100.209 E0.25852
G1 X53.311 Y100.209 E0.25852
G1 X52.187 Y102.156 E0.13277
G1 X51.857 Y102.068 E0.02020
G1 X51.857 Y97.291 E0.28209
G1 X52.187 Y97.203 E0.02020
G1 X52.411 Y97.591 E0.02646
G1 X56.789 Y97.591 E0.25851
G1 X58.977 Y93.800 E0.25852
G1 X56.789 Y90.009 E0.25852
G1 X52.411 Y90.009 E0.25851
G1 X52.187 Y90.397 E0.02646
G1 X51.857 Y90.309 E0.02020
G1 X51.857 Y87.131 E0.18766
G1 X52.187 Y87.043 E0.02020
G1 X52.411 Y87.431 E0.02646
G1 X56.789 Y87.431 E0.25851
G1 X58.977 Y83.640 E0.25852
G1 X56.789 Y79.849 E0.25852
G1 X52.411 Y79.849 E0.25851
G1 X52.187 Y80.237 E0.02646
G1 X51.857 Y80.149 E0.02020
G1 X51.857 Y76.971 E0.18766
G1 X52.187 Y76.883 E0.02020
G1 X52.411 Y77.271 E0.02646
G1 X56.789 Y77.271 E0.25851
G1 X58.977 Y73.480 E0.25852
G1 X56.789 Y69.689 E0.25852
G1 X52.411 Y69.689 E0.25851
G1 X52.187 Y70.077 E0.02646
G1 X51.857 Y69.989 E0.02020
G1 X51.857 Y66.811 E0.18766
G1 X52.187 Y66.723 E0.02020
G1 X52.411 Y67.111 E0.02646
G1 X56.789 Y67.111 E0.25851
G1 X58.977 Y63.320 E0.25852
G1 X56.789 Y59.529 E0.25852
G1 X52.411 Y59.529 E0.25851
G1 X52.187 Y59.917 E0.02646
G1 X51.857 Y59.829 E0.02020
G1 X51.857 Y56.651 E0.18766
G1 X52.187 Y56.563 E0.02020
G1 X52.411 Y56.951 E0.02646
G1 X56.789 Y56.951 E0.25851
G1 X58.977 Y53.160 E0.25852
G1 X57.032 Y49.791 E0.22977
G1 X57.629 Y49.791 E0.03524
G1 F1800.000 E-1.10000
G1 X62.893 Y121.046 F7800.000
G1 E1.10000 F1800.000
G1 X66.627 Y121.046 E0.22052 F1296.000
G1 X68.494 Y124.280 E0.22053
G1 X66.627 Y127.514 E0.22053
G1 X62.893 Y127.514 E0.22052
G1 X61.026 Y124.280 E0.22053
G1 X62.863 Y121.098 E0.21698
G1 X62.962 Y120.652 F7800.000
G1 F1800.000 E-1.10000
G1 X71.186 Y124.280 F7800.000
G1 E1.10000 F1800.000
G1 X73.053 Y121.046 E0.22053 F1296.000
G1 X76.787 Y121.046 E0.22052
G1 X78.654 Y124.280 E0.22052
G1 X76.787 Y127.514 E0.22052
G1 X73.053 Y127.514 E0.22052
G1 X71.216 Y124.332 E0.21698
G1 X70.880 Y124.023 F7800.000
G1 F1800.000 E-1.10000
G1 X83.213 Y127.514 F7800.000
G1 E1.10000 F1800.000
G1 X81.346 Y124.280 E0.22052 F1296.000
G1 X83.213 Y121.046 E0.22052
G1 X86.947 Y121.046 E0.22052
G1 X88.814 Y124.280 E0.22053
G1 X86.947 Y127.514 E0.22053
G1 X83.273 Y127.514 E0.21698
G1 X82.837 Y127.651 F7800.000
G1 F1800.000 E-1.10000
G1 X91.506 Y124.280 F7800.000
G1 E1.10000 F1800.000
G1 X93.373 Y121.046 E0.22053 F1296.000
