; generated by Slic3r 1.2.7-dev on 2015-03-24 at 19:09:42

; external perimeters extrusion width = 0.40mm
; perimeters extrusion width = 0.48mm
; infill extrusion width = 0.48mm
; solid infill extrusion width = 0.48mm
; top infill extrusion width = 0.48mm

M190 S80 ; set bed temperature
M104 S230 ; set temperature
G28 ; home all axes
G92 E0.0 ; reset extruder
M109 S230 ; wait for temperature to be reached
G21 ; set units to millimeters
G90 ; use absolute coordinates
M83 ; use relative distances for extrusion
G1 E-1.30000 F3600.00000
G1 Z0.300 F7800.000
G1 X56.387 Y56.387 F7800.000
G1 E1.30000 F3600.00000
M204 S500
G1 X100.581 Y12.193 E3.96657 F2160.000
G1 X102.891 Y10.446 E0.18381
G1 X105.590 Y9.394 E0.18381
G1 X108.473 Y9.117 E0.18381
G1 X111.322 Y9.635 E0.18381
G1 X113.923 Y10.909 E0.18381 F2160.000
G1 X115.481 Y12.193 E0.12812
G1 X167.807 Y64.519 E4.69642
G1 X169.554 Y66.829 E0.18381
G1 X170.606 Y69.527 E0.18381
G1 X170.883 Y72.410 E0.18381
G1 X170.365 Y75.260 E0.18381
G1 X169.091 Y77.861 E0.18381
G1 X167.807 Y79.419 E0.12812
G1 X79.419 Y167.807 E7.93314
G1 X77.109 Y169.554 E0.18381
G1 X74.410 Y170.606 E0.18381
G1 X71.527 Y170.883 E0.18381
G1 X68.678 Y170.365 E0.18381
G1 X66.077 Y169.091 E0.18381
G1 X64.519 Y167.807 E0.12812
G1 X12.193 Y115.481 E4.69642
G1 X10.446 Y113.171 E0.18381
G1 X9.394 Y110.473 E0.18381
G1 X9.117 Y107.590 E0.18381
G1 X9.635 Y104.740 E0.18381
G1 X10.909 Y102.139 E0.18381
G1 X12.193 Y100.581 E0.12812
G1 X56.345 Y56.430 E3.96276
G1 X57.588 Y57.588 F7800.000
G1 X104.371 Y10.805 E4.19890 F2160.000
G1 X111.692 Y10.805 E0.46465
G1 X166.003 Y65.116 E4.87456
G1 X169.195 Y68.308 E0.28652 F2160.000
G1 X169.195 Y75.630 E0.46466
G1 X75.629 Y169.195 E8.39780
G1 X68.308 Y169.195 E0.46465
G1 X10.805 Y111.692 E5.16107
G1 X10.805 Y104.371 E0.46465
G1 X57.545 Y57.630 E4.19509
G1 X57.967 Y57.967 F7800.000
G1 X104.592 Y11.341 E4.18482 F2160.000
G1 X111.470 Y11.341 E0.43649
G1 X168.659 Y68.530 E5.13291 F2160.000
G1 X168.659 Y75.408 E0.43649
G1 X75.408 Y168.659 E8.36963
G1 X68.530 Y168.659 E0.43649
G1 X11.341 Y111.470 E5.13291
G1 X11.341 Y104.592 E0.43649
G1 X57.924 Y58.009 E4.18101
G1 X58.345 Y58.345 F7800.000
G1 X104.814 Y11.876 E4.17074 F2160.000
G1 X111.248 Y11.876 E0.40833
G1 X165.245 Y65.873 E4.84640
G1 X168.124 Y68.752 E0.25836 F2160.000
G1 X168.124 Y75.186 E0.40833
G1 X75.186 Y168.124 E8.34147
G1 X68.752 Y168.124 E0.40833
G1 X11.876 Y111.248 E5.10475
G1 X11.876 Y104.814 E0.40833
G1 X58.303 Y58.388 E4.16693
G1 X58.724 Y58.724 F7800.000
G1 X105.036 Y12.412 E4.15666 F2160.000
G1 X111.026 Y12.412 E0.38017
G1 X167.588 Y68.974 E5.07659 F2160.000
G1 X167.588 Y74.964 E0.38017
G1 X74.964 Y167.588 E8.31331
G1 X68.974 Y167.588 E0.38017
G1 X12.412 Y111.026 E5.07659
G1 X12.412 Y105.036 E0.38017
G1 X58.682 Y58.766 E4.15285
G1 X59.103 Y59.103 F7800.000
G1 X105.258 Y12.948 E4.14258 F2160.000
G1 X110.804 Y12.948 E0.35201
G1 X164.488 Y66.631 E4.81824
G1 X167.052 Y69.196 E0.23020 F2160.000
G1 X167.052 Y74.742 E0.35201
G1 X74.742 Y167.052 E8.28515
G1 X69.196 Y167.052 E0.35201
G1 X12.948 Y110.804 E5.04843
G1 X12.948 Y105.258 E0.35201
G1 X59.060 Y59.145 E4.13877
G1 X59.482 Y59.482 F7800.000
G1 X105.480 Y13.483 E4.12850 F2160.000
G1 X110.583 Y13.483 E0.32385
G1 X166.517 Y69.417 E5.02027 F2160.000
G1 X166.517 Y74.520 E0.32385
G1 X74.520 Y166.517 E8.25699
G1 X69.417 Y166.517 E0.32385
G1 X13.483 Y110.583 E5.02027
G1 X13.483 Y105.480 E0.32385
G1 X59.439 Y59.524 E4.12469
G1 X59.860 Y59.860 F7800.000
G1 X105.702 Y14.019 E4.11442 F2160.000
G1 X110.361 Y14.019 E0.29569
G1 X163.730 Y67.388 E4.79008
G1 X165.981 Y69.639 E0.20203 F2160.000
G1 X165.981 Y74.298 E0.29569
G1 X74.298 Y165.981 E8.22883
G1 X69.639 Y165.981 E0.29569
G1 X14.019 Y110.361 E4.99211
G1 X14.019 Y105.702 E0.29569
G1 X59.818 Y59.903 E4.11061
G1 X60.239 Y60.239 F7800.000
G1 X105.924 Y14.554 E4.10034 F2160.000
G1 X110.139 Y14.554 E0.26753
G1 X165.446 Y69.861 E4.96395 F2160.000
G1 X165.446 Y74.076 E0.26753
G1 X74.076 Y165.446 E8.20067
G1 X69.861 Y165.446 E0.26753
G1 X14.554 Y110.139 E4.96395
G1 X14.554 Y105.924 E0.26753
G1 X60.197 Y60.281 E4.09653
G1 X60.618 Y60.618 F7800.000
G1 X106.145 Y15.090 E4.08625 F2160.000
G1 X109.917 Y15.090 E0.23937
G1 X162.973 Y68.146 E4.76192
G1 X164.910 Y70.083 E0.17387 F2160.000
G1 X164.910 Y73.855 E0.23937
G1 X73.855 Y164.910 E8.17251
G1 X70.083 Y164.910 E0.23937
G1 X15.090 Y109.917 E4.93579
G1 X15.090 Y106.145 E0.23937
G1 X60.575 Y60.660 E4.08245
G1 X60.997 Y60.997 F7800.000
G1 X106.367 Y15.626 E4.07217 F2160.000
G1 X109.695 Y15.626 E0.21121
G1 X164.374 Y70.305 E4.90763 F2160.000
G1 X164.374 Y73.633 E0.21121
G1 X73.633 Y164.374 E8.14435
G1 X70.305 Y164.374 E0.21121
G1 X15.626 Y109.695 E4.90763
G1 X15.626 Y106.367 E0.21121
G1 X60.954 Y61.039 E4.06837
G1 X61.375 Y61.375 F7800.000
G1 X106.589 Y16.161 E4.05809 F2160.000
G1 X109.473 Y16.161 E0.18305
G1 X162.215 Y68.903 E4.73375
G1 X163.839 Y70.527 E0.14571 F2160.000
G1 X163.839 Y73.411 E0.18305
G1 X73.411 Y163.839 E8.11619
G1 X70.527 Y163.839 E0.18305
G1 X16.161 Y109.473 E4.87947
G1 X16.161 Y106.589 E0.18305
G1 X61.333 Y61.418 E4.05429
G1 X61.754 Y61.754 F7800.000
G1 X106.811 Y16.697 E4.04401 F2160.000
G1 X109.251 Y16.697 E0.15488
G1 X163.303 Y70.749 E4.85131 F2160.000
G1 X163.303 Y73.189 E0.15489
G1 X73.189 Y163.303 E8.08803
G1 X70.749 Y163.303 E0.15488
G1 X16.697 Y109.251 E4.85130
G1 X16.697 Y106.811 E0.15488
G1 X61.712 Y61.796 E4.04021
G1 X62.133 Y62.133 F7800.000
G1 X107.033 Y17.233 E4.02993 F2160.000
G1 X109.030 Y17.233 E0.12672
G1 X161.458 Y69.661 E4.70559
G1 X162.767 Y70.970 E0.11755 F2160.000
G1 X162.767 Y72.967 E0.12672
G1 X72.967 Y162.767 E8.05987
G1 X70.970 Y162.767 E0.12672
G1 X17.233 Y109.030 E4.82314
G1 X17.233 Y107.033 E0.12672
G1 X62.090 Y62.175 E4.02613
G1 X62.511 Y62.511 F7800.000
G1 X107.255 Y17.768 E4.01585 F2160.000
G1 X108.808 Y17.768 E0.09856
G1 X162.232 Y71.192 E4.79498 F2160.000
G1 X162.232 Y72.745 E0.09856
G1 X72.745 Y162.232 E8.03171
G1 X71.192 Y162.232 E0.09856
G1 X17.768 Y108.808 E4.79498
G1 X17.768 Y107.255 E0.09856
G1 X62.469 Y62.554 E4.01204
G1 X62.890 Y62.890 F7800.000
G1 X107.477 Y18.304 E4.00177 F2160.000
G1 X108.586 Y18.304 E0.07040
G1 X160.700 Y70.418 E4.67743
G1 X161.696 Y71.414 E0.08939 F2160.000
G1 X161.696 Y72.523 E0.07040
G1 X72.523 Y161.696 E8.00354
G1 X71.414 Y161.696 E0.07040
G1 X18.304 Y108.586 E4.76682
G1 X18.304 Y107.477 E0.07040
G1 X62.848 Y62.933 E3.99796
G1 X63.269 Y63.269 F7800.000
G1 X107.698 Y18.839 E3.98769 F2160.000
G1 X108.364 Y18.839 E0.04224
G1 X161.161 Y71.636 E4.73866 F2160.000
G1 X161.161 Y72.302 E0.04224
G1 X72.302 Y161.161 E7.97538
G1 X71.636 Y161.161 E0.04224
G1 X18.839 Y108.364 E4.73866
G1 X18.839 Y107.698 E0.04224
G1 X63.227 Y63.311 E3.98388
G1 F6240
G1 X64.820 Y61.718 E-1.23500
G1 E-0.06500 F3600.00000
G1 X107.920 Y19.375 F7800.000
G1 E1.30000 F3600.00000
G1 X108.142 Y19.375 E0.01408 F2160.000
G1 X159.943 Y71.176 E4.64927
G1 X160.625 Y71.858 E0.06123
G1 X160.625 Y72.080 E0.01408
G1 X72.080 Y160.625 E7.94722
G1 X71.858 Y160.625 E0.01408
G1 X19.375 Y108.142 E4.71050
G1 X19.375 Y107.920 E0.01408
G1 X107.878 Y19.417 E7.94342
G1 X108.031 Y20.067 F7800.000
G1 X159.933 Y71.969 E4.65834 F1458.000
G1 X71.969 Y159.933 E7.89506
G1 X20.067 Y108.031 E4.65834
G1 X107.989 Y20.110 E7.89126
G1 X108.135 Y20.454 F7800.000
G1 F6240
G1 X109.583 Y21.702 E-1.23500
G1 E-0.06500 F3600.00000
G1 X30.180 Y104.918 F7800.000
G1 E1.30000 F3600.00000
G1 X25.928 Y103.779 E0.27940 F1620.000
G1 X22.815 Y106.892 E0.27940
G1 X23.837 Y110.707 E0.25069
G1 X23.624 Y110.830 E0.01565
G1 X20.825 Y108.031 E0.25124
G1 X108.031 Y20.825 E7.82708
G1 X159.175 Y71.969 E4.59035
G1 X71.969 Y159.175 E7.82708
G1 X69.205 Y156.411 E0.24807
G1 X69.328 Y156.198 E0.01565
G1 X73.144 Y157.220 E0.25069
G1 X76.257 Y154.107 E0.27940
G1 X75.117 Y149.855 E0.27940
G1 X70.865 Y148.715 E0.27940
G1 X67.752 Y151.828 E0.27940
G1 X68.774 Y155.644 E0.25069
G1 X68.561 Y155.767 E0.01565
G1 X24.268 Y111.475 E3.97538
G1 X24.392 Y111.261 E0.01565
G1 X28.207 Y112.284 E0.25069
G1 X31.320 Y109.171 E0.27940
G1 X30.196 Y104.976 E0.27559
G1 F6240
G1 X28.026 Y104.368 E-1.23500
G1 E-0.06500 F3600.00000
G1 X150.009 Y74.963 F7800.000
G1 E1.30000 F3600.00000
G1 X149.030 Y71.308 E0.24016 F1080.000
G1 X151.706 Y68.632 E0.24018
G1 X155.360 Y69.612 E0.24012
G1 X156.340 Y73.266 E0.24012
G1 X153.664 Y75.942 E0.24018
G1 X150.067 Y74.978 E0.23635
G1 X149.611 Y74.998 F7800.000
G1 X149.572 Y75.400 F7800.000
G1 X148.432 Y71.148 E0.27941 F1080.000
G1 X151.546 Y68.034 E0.27944
G1 X155.798 Y69.174 E0.27937
G1 X156.938 Y73.426 E0.27937
G1 X153.824 Y76.540 E0.27944
G1 X149.630 Y75.416 E0.27560
G1 F6240
G1 X149.021 Y73.246 E-1.23500
G1 E-0.06500 F3600.00000
G1 X111.404 Y28.329 F7800.000
G1 E1.30000 F3600.00000
G1 X108.728 Y31.005 E0.24018 F1080.000
G1 X105.072 Y30.026 E0.24015
G1 X104.093 Y26.371 E0.24015
G1 X106.769 Y23.695 E0.24018
G1 X110.424 Y24.675 E0.24012
G1 X111.388 Y28.272 E0.23631
G1 X111.633 Y28.657 F7800.000
G1 X112.001 Y28.490 F7800.000
G1 X108.888 Y31.603 E0.27944 F1080.000
G1 X104.635 Y30.464 E0.27941
G1 X103.496 Y26.211 E0.27941
G1 X106.609 Y23.098 E0.27943
G1 X110.861 Y24.238 E0.27937
G1 X111.985 Y28.432 E0.27556
G1 F6240
G1 X110.411 Y30.043 E-1.23500
G1 E-0.06500 F3600.00000
G1 X125.858 Y92.613 F7800.000
G1 E1.30000 F3600.00000
G1 X128.534 Y89.937 E0.24015 F1080.000
G1 X132.189 Y90.916 E0.24015
G1 X133.168 Y94.572 E0.24015
G1 X130.492 Y97.247 E0.24015
G1 X126.838 Y96.268 E0.24015
G1 X125.874 Y92.671 E0.23634
G1 X125.629 Y92.285 F7800.000
G1 X133.042 Y85.429 F7800.000
G1 X135.718 Y82.753 E0.24015 F1080.000
G1 X139.373 Y83.733 E0.24013
G1 X140.352 Y87.387 E0.24013
G1 X137.677 Y90.063 E0.24015
G1 X134.022 Y89.084 E0.24015
G1 X133.058 Y85.487 E0.23634
G1 X132.813 Y85.101 F7800.000
G1 F6240
G1 X134.629 Y83.872 E-1.23500
G1 E-0.06500 F3600.00000
G1 X141.206 Y81.900 F7800.000
G1 E1.30000 F3600.00000
G1 X140.226 Y78.244 E0.24016 F1080.000
G1 X142.658 Y75.813 E0.21828
G1 X142.902 Y75.568 E0.02190
G1 X146.557 Y76.548 E0.24012
G1 X147.537 Y80.203 E0.24012
G1 X144.861 Y82.879 E0.24018
G1 X141.264 Y81.915 E0.23635
G1 X140.807 Y81.935 F7800.000
G1 F6240
G1 X140.651 Y79.747 E-1.23500
G1 E-0.06500 F3600.00000
G1 X141.206 Y67.531 F7800.000
G1 E1.30000 F3600.00000
G1 X140.226 Y63.876 E0.24016 F1080.000
G1 X142.902 Y61.200 E0.24018
G1 X146.557 Y62.180 E0.24012
G1 X147.537 Y65.834 E0.24012
G1 X144.861 Y68.510 E0.24018
G1 X141.264 Y67.547 E0.23635
G1 X140.807 Y67.566 F7800.000
G1 F6240
G1 X140.651 Y65.378 E-1.23500
G1 E-0.06500 F3600.00000
G1 X140.353 Y58.650 F7800.000
G1 E1.30000 F3600.00000
G1 X137.677 Y61.326 E0.24018 F1080.000
G1 X134.021 Y60.347 E0.24016
G1 X133.042 Y56.692 E0.24016
G1 X135.718 Y54.016 E0.24018
G1 X139.373 Y54.996 E0.24012
G1 X140.337 Y58.592 E0.23631
G1 X140.582 Y58.978 F7800.000
G1 F6240
G1 X138.766 Y60.207 E-1.23500
G1 E-0.06500 F3600.00000
G1 X133.168 Y51.466 F7800.000
G1 E1.30000 F3600.00000
G1 X130.492 Y54.142 E0.24018 F1080.000
G1 X126.837 Y53.163 E0.24016
G1 X125.858 Y49.508 E0.24016
G1 X128.534 Y46.832 E0.24018
G1 X132.188 Y47.812 E0.24012
G1 X133.153 Y51.408 E0.23631
G1 X133.398 Y51.794 F7800.000
G1 F6240
G1 X131.581 Y53.023 E-1.23500
G1 E-0.06500 F3600.00000
G1 X125.984 Y44.282 F7800.000
G1 E1.30000 F3600.00000
G1 X123.308 Y46.958 E0.24018 F1080.000
G1 X119.653 Y45.979 E0.24016
G1 X118.674 Y42.323 E0.24016
G1 X121.350 Y39.647 E0.24018
G1 X125.004 Y40.627 E0.24012
G1 X125.969 Y44.224 E0.23631
G1 X126.214 Y44.609 F7800.000
G1 F6240
G1 X124.397 Y45.839 E-1.23500
G1 E-0.06500 F3600.00000
G1 X118.800 Y37.098 F7800.000
G1 E1.30000 F3600.00000
G1 X116.124 Y39.774 E0.24018 F1080.000
G1 X112.469 Y38.794 E0.24016
G1 X111.490 Y35.139 E0.24016
G1 X114.166 Y32.463 E0.24018
G1 X117.820 Y33.443 E0.24012
G1 X118.784 Y37.040 E0.23631
G1 X119.029 Y37.425 F7800.000
G1 F6240
G1 X117.213 Y38.655 E-1.23500
G1 E-0.06500 F3600.00000
G1 X85.404 Y57.402 F7800.000
G1 E1.30000 F3600.00000
G1 X107.324 Y35.482 E1.96742 F1458.000
G1 X144.518 Y72.676 E3.33827
G1 X122.598 Y94.596 E1.96742
G1 X128.254 Y100.253 E0.50772
G1 X93.182 Y135.326 E3.14787
G1 X87.525 Y129.669 E0.50772
G1 X72.676 Y144.518 E1.33277
G1 X35.482 Y107.324 E3.33827
G1 X50.331 Y92.475 E1.33277
G1 X44.674 Y86.818 E0.50772
G1 X79.747 Y51.746 E3.14787
G1 X85.361 Y57.360 E0.50391
G1 X85.507 Y57.016 F7800.000
G1 F6240
G1 X86.958 Y55.770 E-1.23500
G1 E-0.06500 F3600.00000
G1 X98.100 Y38.794 F7800.000
G1 E1.30000 F3600.00000
G1 X97.121 Y35.139 E0.24016 F1080.000
G1 X99.553 Y32.707 E0.21828
G1 X99.797 Y32.463 E0.02190
G1 X103.452 Y33.443 E0.24012
G1 X104.431 Y37.098 E0.24012
G1 X101.755 Y39.774 E0.24018
G1 X98.158 Y38.810 E0.23635
G1 X97.702 Y38.829 F7800.000
G1 X92.613 Y39.648 F7800.000
G1 X96.267 Y40.627 E0.24013 F1080.000
G1 X97.247 Y44.282 E0.24013
G1 X94.571 Y46.958 E0.24015
G1 X90.916 Y45.978 E0.24014
G1 X89.937 Y42.323 E0.24014
G1 X92.570 Y39.690 E0.23634
G1 X92.782 Y39.285 F7800.000
G1 F6240
G1 X94.755 Y40.244 E-1.23500
G1 E-0.06500 F3600.00000
G1 X89.084 Y47.811 F7800.000
G1 E1.30000 F3600.00000
G1 X90.063 Y51.466 E0.24015 F1080.000
G1 X87.387 Y54.142 E0.24015
G1 X83.732 Y53.163 E0.24014
G1 X82.753 Y49.508 E0.24014
G1 X85.429 Y46.832 E0.24015
G1 X89.026 Y47.796 E0.23634
G1 X89.482 Y47.776 F7800.000
G1 F6240
G1 X89.638 Y49.964 E-1.23500
G1 E-0.06500 F3600.00000
G1 X45.978 Y90.916 F7800.000
G1 E1.30000 F3600.00000
G1 X46.958 Y94.571 E0.24015 F1080.000
G1 X44.282 Y97.247 E0.24015
G1 X40.627 Y96.268 E0.24014
G1 X39.648 Y92.613 E0.24014
G1 X42.323 Y89.937 E0.24015
G1 X45.920 Y90.901 E0.23634
G1 X46.377 Y90.882 F7800.000
G1 F6240
G1 X46.533 Y93.069 E-1.23500
G1 E-0.06500 F3600.00000
G1 X38.794 Y98.101 F7800.000
G1 E1.30000 F3600.00000
G1 X39.773 Y101.756 E0.24015 F1080.000
G1 X37.098 Y104.431 E0.24015
G1 X33.443 Y103.452 E0.24014
G1 X32.463 Y99.797 E0.24014
G1 X35.139 Y97.121 E0.24015
G1 X38.736 Y98.085 E0.23634
G1 X39.193 Y98.066 F7800.000
G1 F6240
G1 X39.349 Y100.254 E-1.23500
G1 E-0.06500 F3600.00000
G1 X35.139 Y111.490 F7800.000
G1 E1.30000 F3600.00000
G1 X38.794 Y112.469 E0.24015 F1080.000
G1 X39.773 Y116.124 E0.24015
G1 X37.098 Y118.800 E0.24015
G1 X33.443 Y117.820 E0.24015
G1 X32.463 Y114.165 E0.24015
G1 X35.097 Y111.532 E0.23634
G1 X35.308 Y111.127 F7800.000
G1 F6240
G1 X37.281 Y112.086 E-1.23500
G1 E-0.06500 F3600.00000
G1 X42.323 Y118.674 F7800.000
G1 E1.30000 F3600.00000
G1 X45.978 Y119.653 E0.24015 F1080.000
G1 X46.958 Y123.308 E0.24015
G1 X44.282 Y125.984 E0.24015
G1 X40.627 Y125.005 E0.24015
G1 X39.648 Y121.350 E0.24015
G1 X42.281 Y118.716 E0.23634
G1 X42.492 Y118.311 F7800.000
G1 F6240
G1 X44.465 Y119.270 E-1.23500
G1 E-0.06500 F3600.00000
G1 X49.507 Y125.858 F7800.000
G1 E1.30000 F3600.00000
G1 X53.163 Y126.838 E0.24015 F1080.000
G1 X54.142 Y130.493 E0.24015
G1 X51.466 Y133.168 E0.24015
G1 X47.811 Y132.189 E0.24015
G1 X46.832 Y128.534 E0.24015
G1 X49.465 Y125.901 E0.23634
G1 X49.677 Y125.496 F7800.000
G1 F6240
G1 X51.649 Y126.454 E-1.23500
G1 E-0.06500 F3600.00000
G1 X56.692 Y133.042 F7800.000
G1 E1.30000 F3600.00000
G1 X60.347 Y134.022 E0.24015 F1080.000
G1 X61.326 Y137.677 E0.24015
G1 X58.650 Y140.352 E0.24015
G1 X54.995 Y139.373 E0.24015
G1 X54.016 Y135.718 E0.24015
G1 X56.649 Y133.085 E0.23634
G1 X56.861 Y132.680 F7800.000
G1 F6240
G1 X58.834 Y133.638 E-1.23500
G1 E-0.06500 F3600.00000
G1 X63.876 Y140.227 F7800.000
G1 E1.30000 F3600.00000
G1 X67.531 Y141.206 E0.24015 F1080.000
G1 X68.510 Y144.861 E0.24015
G1 X65.835 Y147.537 E0.24015
G1 X62.180 Y146.557 E0.24015
G1 X61.200 Y142.902 E0.24015
G1 X63.833 Y140.269 E0.23634
G1 X64.045 Y139.864 F7800.000
G1 F6240
G1 X66.018 Y140.822 E-1.23500
G1 E-0.06500 F3600.00000
G1 X82.753 Y135.718 F7800.000
G1 E1.30000 F3600.00000
G1 X85.428 Y133.042 E0.24015 F1080.000
G1 X89.084 Y134.022 E0.24015
G1 X90.063 Y137.677 E0.24015
G1 X87.387 Y140.352 E0.24015
G1 X83.732 Y139.373 E0.24015
G1 X82.768 Y135.776 E0.23634
G1 X82.523 Y135.390 F7800.000
G1 X81.899 Y141.206 F7800.000
G1 X82.879 Y144.861 E0.24015 F1080.000
G1 X80.203 Y147.537 E0.24015
G1 X76.548 Y146.557 E0.24015
G1 X75.569 Y142.902 E0.24015
G1 X78.244 Y140.227 E0.24015
G1 X81.841 Y141.190 E0.23634
G1 X82.298 Y141.171 F7800.000
