; generated by Slic3r 1.2.8-dev on 2015-06-05 at 14:59:27

; external perimeters extrusion width = 0.40mm
; perimeters extrusion width = 0.48mm
; infill extrusion width = 0.48mm
; solid infill extrusion width = 0.48mm
; top infill extrusion width = 0.48mm

M107
M190 S60 ; set bed temperature
M104 S212 ; set temperature
G28 ; home all axes
G92 E0.0 ; reset extruder
M109 S212 ; wait for temperature to be reached
G21 ; set units to millimeters
G90 ; use absolute coordinates
M83 ; use relative distances for extrusion
G1 E-1.30000 F3600.00000
G1 Z0.300 F7800.000
G1 X64.725 Y64.351 F7800.000
G1 E1.30000 F3600.00000
M204 S500
G1 X65.368 Y63.767 E0.05151 F2160.000
G1 X67.429 Y62.308 E0.14982
G1 X68.362 Y61.804 E0.06289
G1 X69.864 Y61.138 E0.09748
G1 X70.047 Y61.074 E0.01147
G1 X71.885 Y60.609 E0.11251
G1 X73.123 Y60.413 E0.07433
G1 X74.760 Y60.284 E0.09743
G1 X105.240 Y60.284 E1.80813
G1 X105.873 Y60.304 E0.03755
G1 X106.355 Y60.333 E0.02865 F2160.000
G1 X107.982 Y60.560 E0.09748
G1 X108.736 Y60.727 E0.04581
G1 X111.119 Y61.565 E0.14983
G1 X112.155 Y62.077 E0.06857
G1 X113.650 Y62.978 E0.10353
G1 X114.998 Y64.116 E0.10467
G1 X115.883 Y65.001 E0.07424
G1 X117.375 Y66.882 E0.14244
G1 X117.681 Y67.375 E0.03437
G1 X118.436 Y68.834 E0.09745
G1 X118.698 Y69.457 E0.04009
G1 X119.391 Y71.885 E0.14980
G1 X119.587 Y73.121 E0.07424
G1 X119.716 Y74.760 E0.09753
G1 X119.716 Y105.240 E1.80813
G1 X119.587 Y106.879 E0.09752
G1 X119.391 Y108.115 E0.07424
G1 X118.698 Y110.544 E0.14982
G1 X118.436 Y111.166 E0.04009
G1 X117.681 Y112.626 E0.09746
G1 X117.375 Y113.118 E0.03437
G1 X115.883 Y114.998 E0.14239
G1 X114.998 Y115.883 E0.07425
G1 X113.644 Y117.026 E0.10510
G1 X112.155 Y117.922 E0.10312
G1 X111.119 Y118.435 E0.06857
G1 X108.736 Y119.273 E0.14984
G1 X107.982 Y119.440 E0.04581
G1 X106.356 Y119.667 E0.09743
G1 X105.240 Y119.716 E0.06624
G1 X74.760 Y119.716 E1.80813
G1 X73.121 Y119.587 E0.09753
G1 X71.885 Y119.391 E0.07424
G1 X70.050 Y118.927 E0.11229
G1 X69.867 Y118.863 E0.01147
G1 X68.362 Y118.196 E0.09768
G1 X67.429 Y117.692 E0.06289
G1 X65.368 Y116.233 E0.14983
G1 X64.725 Y115.649 E0.05151
G1 X63.598 Y114.452 E0.09754
G1 X63.356 Y114.150 E0.02293
G1 X62.191 Y112.348 E0.12731
G1 X61.622 Y111.232 E0.07429
G1 X60.882 Y109.350 E0.11997
G1 X60.803 Y109.071 E0.01720
G1 X60.477 Y107.460 E0.09752
G1 X60.361 Y106.503 E0.05721
G1 X60.284 Y105.240 E0.07504
G1 X60.284 Y74.760 E1.80813
G1 X60.361 Y73.497 E0.07504
G1 X60.477 Y72.540 E0.05720
G1 X60.803 Y70.929 E0.09751
G1 X60.882 Y70.650 E0.01720
G1 X61.622 Y68.768 E0.11996
G1 X62.190 Y67.653 E0.07424
G1 X63.356 Y65.849 E0.12743
G1 X63.598 Y65.548 E0.02293
G1 X64.684 Y64.395 E0.09395
G1 F6240
G1 X65.368 Y63.767 E-0.50867
G1 F6240
G1 X66.449 Y63.001 E-0.72633
G1 E-0.06500 F3600.00000
G1 X102.590 Y102.590 F7800.000
G1 E1.30000 F3600.00000
G1 X77.410 Y102.590 E1.49373 F1458.000
G1 X77.410 Y77.410 E1.49373
G1 X102.590 Y77.410 E1.49373
G1 X102.590 Y102.530 E1.49017
G1 X103.365 Y101.993 F7800.000
G1 X101.491 Y105.240 E0.22241 F1458.000
G1 X103.365 Y108.487 E0.22241
G1 X106.497 Y108.487 E0.18575
G1 X106.548 Y108.707 E0.01343
G1 X106.393 Y108.784 E0.01024
G1 X105.866 Y108.867 E0.03166
G1 X105.673 Y108.941 E0.01227
G1 X105.403 Y108.941 E0.01601
G1 X105.240 Y108.967 E0.00978
G1 X105.077 Y108.941 E0.00978
G1 X75.258 Y108.941 E1.76891
G1 X75.068 Y108.918 E0.01135
G1 X74.760 Y108.967 E0.01853
G1 X73.608 Y108.784 E0.06917
G1 X73.454 Y108.706 E0.01025
G1 X73.507 Y108.487 E0.01335
G1 X76.635 Y108.487 E0.18555
G1 X78.509 Y105.240 E0.22242
G1 X76.635 Y101.993 E0.22242
G1 X72.885 Y101.993 E0.22241
G1 X71.358 Y104.639 E0.18124
G1 X71.146 Y104.582 E0.01299
G1 X71.146 Y75.418 E1.73010
G1 X71.358 Y75.361 E0.01299
G1 X72.885 Y78.007 E0.18124
G1 X76.635 Y78.007 E0.22241
G1 X78.509 Y74.760 E0.22241
G1 X76.635 Y71.513 E0.22241
G1 X73.507 Y71.513 E0.18555
G1 X73.454 Y71.294 E0.01335
G1 X73.608 Y71.216 E0.01026
G1 X74.760 Y71.033 E0.06917
G1 X75.069 Y71.082 E0.01853
G1 X75.258 Y71.059 E0.01135
G1 X105.077 Y71.059 E1.76890
G1 X105.240 Y71.033 E0.00978
G1 X105.403 Y71.059 E0.00978
G1 X105.673 Y71.059 E0.01600
G1 X105.866 Y71.133 E0.01227
G1 X106.393 Y71.216 E0.03166
G1 X106.548 Y71.293 E0.01025
G1 X106.497 Y71.513 E0.01343
G1 X103.365 Y71.513 E0.18576
G1 X101.491 Y74.760 E0.22241
G1 X103.365 Y78.007 E0.22241
G1 X107.115 Y78.007 E0.22241
G1 X108.758 Y75.160 E0.19504
G1 X108.970 Y75.216 E0.01299
G1 X108.970 Y104.784 E1.75398
G1 X108.758 Y104.840 E0.01299
G1 X107.115 Y101.993 E0.19504
G1 X103.425 Y101.993 E0.21885
G1 F6240
G1 X102.272 Y103.929 E-1.23500
G1 E-0.06500 F3600.00000
G1 X71.358 Y74.159 F7800.000
G1 E1.30000 F3600.00000
G1 X71.146 Y74.102 E0.01299 F360.000
G1 X71.146 Y73.869 E0.01382
G1 X71.187 Y73.792 E0.00516
G1 X71.216 Y73.608 E0.01105
G1 X71.745 Y72.570 E0.06917
G1 X71.920 Y72.394 E0.01471
G1 X71.974 Y72.292 E0.00685
G1 X72.131 Y72.184 E0.01131
G1 X72.322 Y71.993 E0.01601
G1 X72.520 Y72.145 E0.01485
G1 X71.388 Y74.107 E0.13439
G1 F6240
G1 X71.146 Y74.102 E-0.13239
G1 F6240
G1 X71.146 Y73.869 E-0.12770
G1 F6240
G1 X71.187 Y73.792 E-0.04765
G1 F6240
G1 X71.216 Y73.608 E-0.10206
G1 F6240
G1 X71.745 Y72.570 E-0.63902
G1 F6240
G1 X71.920 Y72.394 E-0.13589
G1 F6240
G1 X71.963 Y72.313 E-0.05030
G1 E-0.06500 F3600.00000
G1 X71.358 Y105.841 F7800.000
G1 E1.30000 F3600.00000
G1 X72.520 Y107.855 E0.13795 F360.000
G1 X72.322 Y108.007 E0.01485
G1 X72.131 Y107.816 E0.01601
G1 X71.974 Y107.708 E0.01131
G1 X71.920 Y107.606 E0.00686
G1 X71.745 Y107.430 E0.01471
G1 X71.216 Y106.392 E0.06916
G1 X71.187 Y106.208 E0.01105
G1 X71.146 Y106.131 E0.00515
G1 X71.146 Y105.898 E0.01382
G1 X71.300 Y105.857 E0.00943
G1 F6240
G1 X72.474 Y107.780 E-1.23500
G1 E-0.06500 F3600.00000
G1 X107.479 Y107.855 F7800.000
G1 E1.30000 F3600.00000
G1 X108.632 Y105.858 E0.13679 F360.000
G1 X108.856 Y105.937 E0.01408
G1 X108.784 Y106.392 E0.02729
G1 X108.579 Y106.795 E0.02687
G1 X108.536 Y106.970 E0.01066
G1 X108.428 Y107.092 E0.00967
G1 X108.255 Y107.430 E0.02255
G1 X107.678 Y108.007 E0.04840
G1 X107.527 Y107.892 E0.01129
G1 F6240
G1 X108.603 Y105.912 E-1.23500
G1 E-0.06500 F3600.00000
G1 X108.632 Y74.142 F7800.000
G1 E1.30000 F3600.00000
G1 X107.479 Y72.145 E0.13680 F360.000
G1 X107.678 Y71.993 E0.01485
G1 X108.255 Y72.570 E0.04840
G1 X108.428 Y72.908 E0.02256
G1 X108.536 Y73.030 E0.00966
G1 X108.579 Y73.205 E0.01066
G1 X108.784 Y73.608 E0.02687
G1 X108.856 Y74.063 E0.02729
G1 X108.689 Y74.122 E0.01052
G1 X108.720 Y75.726 F7800.000
G1 X108.450 Y76.733 E0.06188 F360.000
G1 X108.696 Y77.296 F7800.000
G1 X108.446 Y77.046 E0.02099 F1980.000
G1 X107.881 Y77.154 E0.03416
G1 X108.696 Y77.969 E0.06845
G1 X108.696 Y78.642 E0.03993
G1 X107.634 Y77.580 E0.08912
G1 X107.388 Y78.007 E0.02923
G1 X108.696 Y79.315 E0.10978
G1 X108.696 Y79.988 E0.03993
G1 X106.989 Y78.281 E0.14326
G1 X106.316 Y78.281 E0.03993
G1 X108.696 Y80.661 E0.19973
G1 X108.696 Y81.333 E0.03993
G1 X105.644 Y78.281 E0.25620
G1 X104.971 Y78.281 E0.03993
G1 X108.696 Y82.006 E0.31267
G1 X108.696 Y82.679 E0.03993
G1 X104.298 Y78.281 E0.36913
G1 X103.625 Y78.281 E0.03993
G1 X108.696 Y83.352 E0.42560
G1 X108.696 Y84.025 E0.03993
G1 X102.864 Y78.192 E0.48949
G1 X102.864 Y78.865 E0.03993
G1 X108.696 Y84.698 E0.48949
G1 X108.696 Y85.371 E0.03993
G1 X102.864 Y79.538 E0.48949
G1 X102.864 Y80.211 E0.03993
G1 X108.696 Y86.043 E0.48949
G1 X108.696 Y86.716 E0.03993
G1 X102.864 Y80.884 E0.48949
G1 X102.864 Y81.557 E0.03993
G1 X108.696 Y87.389 E0.48949
G1 X108.696 Y88.062 E0.03993
G1 X102.864 Y82.229 E0.48949
G1 X102.864 Y82.902 E0.03993
G1 X108.696 Y88.735 E0.48949
G1 X108.696 Y89.408 E0.03993
G1 X102.864 Y83.575 E0.48949
G1 X102.864 Y84.248 E0.03993
G1 X108.696 Y90.081 E0.48949
G1 X108.696 Y90.753 E0.03993
G1 X102.864 Y84.921 E0.48949
G1 X102.864 Y85.594 E0.03993
G1 X108.696 Y91.426 E0.48949
G1 X108.696 Y92.099 E0.03993
G1 X102.864 Y86.267 E0.48949
G1 X102.864 Y86.939 E0.03993
G1 X108.696 Y92.772 E0.48949
G1 X108.696 Y93.445 E0.03993
G1 X102.864 Y87.612 E0.48949
G1 X102.864 Y88.285 E0.03993
G1 X108.696 Y94.118 E0.48949
G1 X108.696 Y94.791 E0.03993
G1 X102.864 Y88.958 E0.48949
G1 X102.864 Y89.631 E0.03993
G1 X108.696 Y95.463 E0.48949
G1 X108.696 Y96.136 E0.03993
G1 X102.864 Y90.304 E0.48949
G1 X102.864 Y90.977 E0.03993
G1 X108.696 Y96.809 E0.48949
G1 X108.696 Y97.482 E0.03993
G1 X102.864 Y91.649 E0.48949
G1 X102.864 Y92.322 E0.03993
G1 X108.696 Y98.155 E0.48949
G1 X108.696 Y98.828 E0.03993
G1 X102.864 Y92.995 E0.48949
G1 X102.864 Y93.668 E0.03993
G1 X108.696 Y99.501 E0.48949
G1 X108.696 Y100.173 E0.03993
G1 X102.864 Y94.341 E0.48949
G1 X102.864 Y95.014 E0.03993
G1 X108.696 Y100.846 E0.48949
G1 X108.696 Y101.519 E0.03993
G1 X102.864 Y95.687 E0.48949
G1 X102.864 Y96.359 E0.03993
G1 X108.696 Y102.192 E0.48949
G1 X108.696 Y102.865 E0.03993
G1 X102.864 Y97.032 E0.48949
G1 X102.864 Y97.705 E0.03993
G1 X106.878 Y101.719 E0.33687
G1 X106.205 Y101.719 E0.03993
G1 X102.864 Y98.378 E0.28041
G1 X102.864 Y99.051 E0.03993
G1 X105.532 Y101.719 E0.22394
G1 X104.859 Y101.719 E0.03993
G1 X102.864 Y99.724 E0.16747
G1 X102.864 Y100.397 E0.03993
G1 X104.186 Y101.719 E0.11100
G1 X103.514 Y101.719 E0.03993
G1 X102.864 Y101.069 E0.05453
G1 X102.864 Y101.742 E0.03993
G1 X103.100 Y101.979 E0.01984
G1 F6240
G1 X102.864 Y101.742 E-0.18325
G1 F6240
G1 X102.864 Y101.069 E-0.36878
G1 F6240
G1 X103.514 Y101.719 E-0.50366
G1 F6240
G1 X103.841 Y101.719 E-0.17931
G1 E-0.06500 F3600.00000
G1 X107.987 Y102.828 F7800.000
G1 E1.30000 F3600.00000
G1 X108.225 Y103.067 E0.02004 F1980.000
G1 X108.450 Y103.267 F7800.000
G1 X108.720 Y104.274 E0.06188 F360.000
G1 F6240
G1 X108.450 Y103.267 E-0.57176
G1 E-0.72824 F3600.00000
G1 X102.453 Y103.100 F7800.000
G1 E1.30000 F3600.00000
G1 X102.216 Y102.864 E0.02021 F1980.000
G1 X102.202 Y103.535 E0.04057
G1 X101.531 Y102.864 E0.05736
G1 X100.846 Y102.864 E0.04143
G1 X101.951 Y103.969 E0.09450
G1 X101.700 Y104.404 E0.03033
G1 X100.160 Y102.864 E0.13165
G1 X99.475 Y102.864 E0.04143
G1 X101.449 Y104.838 E0.16880
G1 X101.198 Y105.273 E0.03033
G1 X98.789 Y102.864 E0.20594
G1 X98.104 Y102.864 E0.04143
G1 X101.949 Y106.708 E0.32866
G1 X102.885 Y108.330 F7800.000
G1 X97.419 Y102.864 E0.46728 F1980.000
G1 X96.733 Y102.864 E0.04143
G1 X102.537 Y108.667 E0.49611
G1 X101.851 Y108.667 E0.04143
G1 X96.048 Y102.864 E0.49611
G1 X95.362 Y102.864 E0.04143
G1 X101.166 Y108.667 E0.49611
G1 X100.480 Y108.667 E0.04143
G1 X94.677 Y102.864 E0.49611
G1 X93.992 Y102.864 E0.04143
G1 X99.795 Y108.667 E0.49611
G1 X99.110 Y108.667 E0.04143
G1 X93.306 Y102.864 E0.49611
G1 X92.621 Y102.864 E0.04143
G1 X98.424 Y108.667 E0.49611
G1 X97.739 Y108.667 E0.04143
G1 X91.935 Y102.864 E0.49611
G1 X91.250 Y102.864 E0.04143
G1 X97.053 Y108.667 E0.49611
G1 X96.368 Y108.667 E0.04143
G1 X90.565 Y102.864 E0.49611
G1 X89.879 Y102.864 E0.04143
G1 X95.683 Y108.667 E0.49611
G1 X94.997 Y108.667 E0.04143
G1 X89.194 Y102.864 E0.49611
G1 X88.508 Y102.864 E0.04143
G1 X94.312 Y108.667 E0.49611
G1 X93.626 Y108.667 E0.04143
G1 X87.823 Y102.864 E0.49611
G1 X87.138 Y102.864 E0.04143
G1 X92.941 Y108.667 E0.49611
G1 X92.256 Y108.667 E0.04143
G1 X86.452 Y102.864 E0.49611
G1 X85.767 Y102.864 E0.04143
G1 X91.570 Y108.667 E0.49611
G1 X90.885 Y108.667 E0.04143
G1 X85.081 Y102.864 E0.49611
G1 X84.396 Y102.864 E0.04143
G1 X90.199 Y108.667 E0.49611
G1 X89.514 Y108.667 E0.04143
G1 X83.711 Y102.864 E0.49611
G1 X83.025 Y102.864 E0.04143
G1 X88.829 Y108.667 E0.49611
G1 X88.143 Y108.667 E0.04143
G1 X82.340 Y102.864 E0.49611
G1 X81.654 Y102.864 E0.04143
G1 X87.458 Y108.667 E0.49611
G1 X86.772 Y108.667 E0.04143
G1 X80.969 Y102.864 E0.49611
G1 X80.284 Y102.864 E0.04143
G1 X86.087 Y108.667 E0.49611
G1 X85.402 Y108.667 E0.04143
G1 X79.598 Y102.864 E0.49611
G1 X78.913 Y102.864 E0.04143
G1 X84.716 Y108.667 E0.49611
G1 X84.031 Y108.667 E0.04143
G1 X78.228 Y102.864 E0.49611
G1 X77.562 Y102.884 E0.04025
G1 X83.346 Y108.667 E0.49441
G1 X82.660 Y108.667 E0.04143
G1 X78.443 Y104.450 E0.36049
G1 X78.697 Y105.389 F7800.000
G1 X81.975 Y108.667 E0.28023 F1980.000
G1 X81.289 Y108.667 E0.04143
G1 X78.446 Y105.824 E0.24308
G1 X78.195 Y106.258 E0.03033
G1 X80.604 Y108.667 E0.20594
G1 X79.919 Y108.667 E0.04143
G1 X77.944 Y106.693 E0.16879
G1 X77.693 Y107.127 E0.03033
G1 X79.233 Y108.667 E0.13165
G1 X78.548 Y108.667 E0.04143
G1 X77.442 Y107.562 E0.09450
G1 X77.191 Y107.996 E0.03033
G1 X77.862 Y108.667 E0.05736
G1 X77.177 Y108.667 E0.04143
G1 X76.941 Y108.431 E0.02021
G1 F6240
G1 X77.177 Y108.667 E-0.18324
G1 F6240
G1 X77.862 Y108.667 E-0.37565
G1 F6240
G1 X77.191 Y107.996 E-0.52004
G1 F6240
G1 X77.334 Y107.750 E-0.15607
G1 E-0.06500 F3600.00000
G1 X71.396 Y104.073 F7800.000
G1 E1.30000 F3600.00000
G1 X71.666 Y103.065 E0.06189 F360.000
G1 X71.670 Y102.752 F7800.000
G1 X71.420 Y102.502 E0.02124 F1980.000
G1 X71.420 Y101.821 E0.04089
G1 X72.238 Y102.640 E0.06952
G1 X72.488 Y102.208 E0.02994
G1 X71.420 Y101.140 E0.09068
G1 X71.420 Y100.460 E0.04089
G1 X72.737 Y101.777 E0.11185
G1 X73.361 Y101.719 E0.03761
G1 X71.420 Y99.779 E0.16482
G1 X71.420 Y99.098 E0.04089
G1 X74.042 Y101.719 E0.22266
G1 X74.723 Y101.719 E0.04089
G1 X71.420 Y98.417 E0.28049
G1 X71.420 Y97.736 E0.04089
G1 X75.403 Y101.719 E0.33832
G1 X76.084 Y101.719 E0.04089
G1 X71.420 Y97.055 E0.39615
G1 X71.420 Y96.374 E0.04089
G1 X76.765 Y101.719 E0.45398
G1 X77.136 Y101.409 E0.02903
G1 X71.420 Y95.693 E0.48549
G1 X71.420 Y95.012 E0.04089
G1 X77.136 Y100.728 E0.48549
G1 X77.136 Y100.047 E0.04089
G1 X71.420 Y94.331 E0.48549
G1 X71.420 Y93.650 E0.04089
G1 X77.136 Y99.367 E0.48549
G1 X77.136 Y98.686 E0.04089
G1 X71.420 Y92.969 E0.48549
G1 X71.420 Y92.288 E0.04089
G1 X77.136 Y98.005 E0.48549
G1 X77.136 Y97.324 E0.04089
G1 X71.420 Y91.607 E0.48549
G1 X71.420 Y90.926 E0.04089
G1 X77.136 Y96.643 E0.48549
G1 X77.136 Y95.962 E0.04089
G1 X71.420 Y90.246 E0.48549
G1 X71.420 Y89.565 E0.04089
G1 X77.136 Y95.281 E0.48549
G1 X77.136 Y94.600 E0.04089
G1 X71.420 Y88.884 E0.48549
G1 X71.420 Y88.203 E0.04089
G1 X77.136 Y93.919 E0.48549
G1 X77.136 Y93.238 E0.04089
G1 X71.420 Y87.522 E0.48549
G1 X71.420 Y86.841 E0.04089
G1 X77.136 Y92.557 E0.48549
G1 X77.136 Y91.876 E0.04089
G1 X71.420 Y86.160 E0.48549
G1 X71.420 Y85.479 E0.04089
G1 X77.136 Y91.195 E0.48549
G1 X77.136 Y90.514 E0.04089
G1 X71.420 Y84.798 E0.48549
G1 X71.420 Y84.117 E0.04089
G1 X77.136 Y89.833 E0.48549
G1 X77.136 Y89.153 E0.04089
G1 X71.420 Y83.436 E0.48549
G1 X71.420 Y82.755 E0.04089
G1 X77.136 Y88.472 E0.48549
G1 X77.136 Y87.791 E0.04089
G1 X71.420 Y82.074 E0.48549
G1 X71.420 Y81.393 E0.04089
G1 X77.136 Y87.110 E0.48549
G1 X77.136 Y86.429 E0.04089
G1 X71.420 Y80.712 E0.48549
G1 X71.420 Y80.031 E0.04089
G1 X77.136 Y85.748 E0.48549
G1 X77.136 Y85.067 E0.04089
G1 X71.420 Y79.351 E0.48549
G1 X71.420 Y78.670 E0.04089
G1 X77.136 Y84.386 E0.48549
G1 X77.136 Y83.705 E0.04089
G1 X71.420 Y77.989 E0.48549
G1 X71.420 Y77.308 F7800.000
G1 X77.136 Y83.024 E0.48549 F1980.000
G1 X77.136 Y78.258 F7800.000
G1 X76.900 Y78.021 E0.02008 F1980.000
G1 X76.478 Y78.281 F7800.000
G1 X77.136 Y78.938 E0.05587 F1980.000
G1 X77.136 Y79.619 E0.04089
G1 X75.798 Y78.281 E0.11370
G1 X75.117 Y78.281 E0.04089
G1 X77.136 Y80.300 E0.17153
G1 X77.136 Y80.981 E0.04089
G1 X74.436 Y78.281 E0.22936
G1 X73.755 Y78.281 E0.04089
G1 X77.136 Y81.662 E0.28720
G1 X77.136 Y82.343 E0.04089
G1 X73.074 Y78.281 E0.34503
G1 X71.666 Y76.935 F7800.000
G1 X71.396 Y75.927 E0.06189 F360.000
G1 F6240
G1 X71.666 Y76.935 E-0.57177
G1 E-0.72823 F3600.00000
G1 X77.547 Y76.900 F7800.000
G1 E1.30000 F3600.00000
G1 X77.784 Y77.136 E0.02021 F1980.000
G1 X78.469 Y77.136 E0.04143
G1 X77.798 Y76.465 E0.05736
G1 X78.049 Y76.031 E0.03033
G1 X79.154 Y77.136 E0.09450
G1 X79.840 Y77.136 E0.04143
G1 X78.300 Y75.596 E0.13165
G1 X78.551 Y75.162 E0.03033
G1 X80.525 Y77.136 E0.16879
G1 X81.211 Y77.136 E0.04143
G1 X78.802 Y74.727 E0.20594
G1 X78.052 Y73.292 F7800.000
G1 X81.896 Y77.136 E0.32865 F1980.000
G1 X82.581 Y77.136 E0.04143
G1 X77.115 Y71.670 E0.46728
G1 X77.463 Y71.333 E0.02930
G1 X83.267 Y77.136 E0.49611
G1 X83.952 Y77.136 E0.04143
G1 X78.149 Y71.333 E0.49611
G1 X78.834 Y71.333 E0.04143
G1 X84.638 Y77.136 E0.49611
G1 X85.323 Y77.136 E0.04143
G1 X79.520 Y71.333 E0.49611
