; generated by Slic3r 1.2.7-dev on 2015-02-10 at 10:49:47

; external perimeters extrusion width = 0.40mm
; perimeters extrusion width = 0.48mm
; infill extrusion width = 0.48mm
; solid infill extrusion width = 0.48mm
; top infill extrusion width = 0.48mm

M190 S90 ; set bed temperature
M104 S225 ; set temperature
G28 ; home all axes
G92 E0.0 ; reset extruder
M109 S225 ; wait for temperature to be reached
G21 ; set units to millimeters
G90 ; use absolute coordinates
M83 ; use relative distances for extrusion
G1 E-1.30000 F3600.00000
G1 Z0.300 F7800.000
G1 X25.312 Y10.942 F7800.000
G1 E1.30000 F3600.00000
M204 S500
G1 X26.022 Y9.549 E0.10450 F2160.000
G1 X27.040 Y8.147 E0.11572
G1 X28.146 Y7.041 E0.10450
G1 X29.548 Y6.023 E0.11574
G1 X30.942 Y5.312 E0.10452
G1 X32.589 Y4.777 E0.11568
G1 X34.134 Y4.533 E0.10450
G1 X35.000 Y4.464 E0.05803
G1 X145.000 Y4.464 E7.34859
G1 X145.866 Y4.533 E0.05803
G1 X147.411 Y4.777 E0.10451 F2160.000
G1 X149.058 Y5.312 E0.11569
G1 X150.352 Y5.972 E0.09704
G1 X150.452 Y6.023 E0.00747
G1 X151.853 Y7.041 E0.11570
G1 X152.959 Y8.147 E0.10451
G1 X153.977 Y9.548 E0.11569
G1 X154.688 Y10.942 E0.10451
G1 X155.223 Y12.589 E0.11570
G1 X155.467 Y14.134 E0.10451
G1 X155.536 Y15.000 E0.05803
G1 X155.536 Y165.000 E10.02081
G1 X155.467 Y165.866 E0.05803
G1 X155.223 Y167.411 E0.10450
G1 X154.688 Y169.058 E0.11568
G1 X153.977 Y170.452 E0.10452
G1 X152.959 Y171.854 E0.11574
G1 X151.853 Y172.960 E0.10450
G1 X150.452 Y173.978 E0.11572
G1 X149.058 Y174.688 E0.10450
G1 X147.412 Y175.222 E0.11560
G1 X145.867 Y175.467 E0.10451
G1 X145.000 Y175.536 E0.05809
G1 X35.000 Y175.536 E7.34860
G1 X34.133 Y175.467 E0.05810
G1 X32.588 Y175.222 E0.10450
G1 X30.943 Y174.688 E0.11558
G1 X29.549 Y173.978 E0.10451
G1 X28.147 Y172.959 E0.11576
G1 X27.041 Y171.853 E0.10449
G1 X26.022 Y170.451 E0.11576
G1 X25.312 Y169.057 E0.10451
G1 X24.778 Y167.412 E0.11557
G1 X24.533 Y165.867 E0.10451
G1 X24.464 Y165.000 E0.05810
G1 X24.464 Y15.000 E10.02081
G1 X24.533 Y14.133 E0.05809
G1 X24.778 Y12.588 E0.10451
G1 X25.294 Y10.999 E0.11158
G1 E-1.30000 F3600.00000
G1 X139.281 Y159.013 F7800.000
G1 E1.30000 F3600.00000
G1 X140.045 Y158.644 E0.05672 F1080.000
G1 X140.800 Y158.524 E0.05106 F1080.000
G1 X141.602 Y158.651 E0.05426
G1 X142.326 Y159.019 E0.05422
G1 X142.900 Y159.594 E0.05428
G1 X143.269 Y160.318 E0.05428
G1 X143.396 Y161.120 E0.05427
G1 X143.277 Y161.875 E0.05107
G1 X142.906 Y162.640 E0.05678
G1 X142.326 Y163.221 E0.05488
G1 X141.602 Y163.589 E0.05422
G1 X140.800 Y163.716 E0.05426
G1 X139.998 Y163.589 E0.05426
G1 X139.274 Y163.221 E0.05422
G1 X138.700 Y162.646 E0.05428
G1 X138.331 Y161.922 E0.05428
G1 X138.204 Y161.120 E0.05427
G1 X138.331 Y160.318 E0.05427
G1 X138.700 Y159.594 E0.05428
G1 X139.238 Y159.055 E0.05087
G1 X139.595 Y159.456 F7800.000
G1 X140.207 Y159.161 E0.04540 F1080.000
G1 X140.800 Y159.066 E0.04010 F1080.000
G1 X141.435 Y159.167 E0.04293
G1 X142.007 Y159.458 E0.04290
G1 X142.462 Y159.912 E0.04293
G1 X142.753 Y160.485 E0.04294
G1 X142.854 Y161.120 E0.04294
G1 X142.760 Y161.713 E0.04011
G1 X142.464 Y162.325 E0.04543
G1 X142.007 Y162.782 E0.04314
G1 X141.435 Y163.073 E0.04290
G1 X140.800 Y163.174 E0.04293
G1 X140.165 Y163.073 E0.04293
G1 X139.593 Y162.782 E0.04290
G1 X139.138 Y162.328 E0.04293
G1 X138.847 Y161.755 E0.04294
G1 X138.746 Y161.120 E0.04294
G1 X138.847 Y160.485 E0.04294
G1 X139.138 Y159.912 E0.04294
G1 X139.553 Y159.498 E0.03913
G1 X139.580 Y159.056 F7800.000
G1 X140.540 Y153.515 F7800.000
G1 X139.998 Y153.429 E0.03667 F1080.000
G1 X139.274 Y153.061 E0.05422
G1 X138.700 Y152.486 E0.05428
G1 X138.331 Y151.762 E0.05428
G1 X138.204 Y150.960 E0.05427
G1 X138.331 Y150.158 E0.05427
G1 X138.700 Y149.434 E0.05428
G1 X139.281 Y148.853 E0.05487
G1 X140.045 Y148.484 E0.05672
G1 X140.800 Y148.364 E0.05106 F1080.000
G1 X141.602 Y148.491 E0.05426
G1 X142.326 Y148.859 E0.05422
G1 X142.900 Y149.434 E0.05428
G1 X143.269 Y150.158 E0.05428
G1 X143.396 Y150.960 E0.05427
G1 X143.277 Y151.715 E0.05107
G1 X142.906 Y152.480 E0.05677
G1 X142.326 Y153.061 E0.05488
G1 X141.602 Y153.429 E0.05422
G1 X140.800 Y153.556 E0.05426
G1 X140.599 Y153.524 E0.01358
G1 X140.624 Y152.986 F7800.000
G1 X140.165 Y152.913 E0.03103 F1080.000
G1 X139.593 Y152.622 E0.04290
G1 X139.138 Y152.168 E0.04293
G1 X138.847 Y151.595 E0.04294
G1 X138.746 Y150.960 E0.04294
G1 X138.847 Y150.325 E0.04294
G1 X139.138 Y149.752 E0.04294
G1 X139.595 Y149.296 E0.04314
G1 X140.207 Y149.001 E0.04540
G1 X140.800 Y148.906 E0.04010 F1080.000
G1 X141.435 Y149.007 E0.04293
G1 X142.007 Y149.298 E0.04290
G1 X142.462 Y149.752 E0.04293
G1 X142.753 Y150.325 E0.04294
G1 X142.854 Y150.960 E0.04294
G1 X142.760 Y151.553 E0.04011
G1 X142.464 Y152.165 E0.04543
G1 X142.007 Y152.622 E0.04314
G1 X141.435 Y152.913 E0.04290
G1 X140.800 Y153.014 E0.04293
G1 X140.683 Y152.995 E0.00789
G1 X140.372 Y153.297 F7800.000
G1 E-1.30000 F3600.00000
G1 X140.800 Y143.396 F7800.000
G1 E1.30000 F3600.00000
G1 X139.998 Y143.269 E0.05426 F1080.000
G1 X139.274 Y142.901 E0.05422
G1 X138.700 Y142.326 E0.05428
G1 X138.331 Y141.602 E0.05428
G1 X138.204 Y140.800 E0.05427
G1 X138.331 Y139.998 E0.05427
G1 X138.700 Y139.274 E0.05428
G1 X139.281 Y138.693 E0.05487
G1 X140.045 Y138.324 E0.05672
G1 X140.800 Y138.204 E0.05106 F1080.000
G1 X141.602 Y138.331 E0.05426
G1 X142.326 Y138.699 E0.05422
G1 X142.900 Y139.274 E0.05428
G1 X143.269 Y139.998 E0.05428
G1 X143.396 Y140.800 E0.05427
G1 X143.277 Y141.555 E0.05107
G1 X142.907 Y142.320 E0.05677
G1 X142.326 Y142.901 E0.05488
G1 X141.602 Y143.269 E0.05422
G1 X140.859 Y143.387 E0.05025
G1 X140.800 Y142.854 F7800.000
G1 X140.165 Y142.753 E0.04293 F1080.000
G1 X139.593 Y142.462 E0.04290
G1 X139.138 Y142.008 E0.04293
G1 X138.847 Y141.435 E0.04294
G1 X138.746 Y140.800 E0.04294
G1 X138.847 Y140.165 E0.04294
G1 X139.138 Y139.592 E0.04294
G1 X139.595 Y139.136 E0.04314
G1 X140.207 Y138.841 E0.04540
G1 X140.800 Y138.746 E0.04010 F1080.000
G1 X141.435 Y138.847 E0.04293
G1 X142.007 Y139.138 E0.04290
G1 X142.462 Y139.592 E0.04293
G1 X142.753 Y140.165 E0.04294
G1 X142.854 Y140.800 E0.04294
G1 X142.760 Y141.393 E0.04011
G1 X142.464 Y142.005 E0.04543
G1 X142.007 Y142.462 E0.04314
G1 X141.435 Y142.753 E0.04290
G1 X140.859 Y142.844 E0.03892
G1 X140.582 Y143.189 F7800.000
G1 E-1.30000 F3600.00000
G1 X140.800 Y133.236 F7800.000
G1 E1.30000 F3600.00000
G1 X139.998 Y133.109 E0.05426 F1080.000
G1 X139.274 Y132.741 E0.05422
G1 X138.700 Y132.166 E0.05428
G1 X138.331 Y131.442 E0.05428
G1 X138.204 Y130.640 E0.05427
G1 X138.331 Y129.838 E0.05427
G1 X138.700 Y129.114 E0.05428
G1 X139.281 Y128.533 E0.05487
G1 X140.045 Y128.164 E0.05672
G1 X140.800 Y128.044 E0.05106 F1080.000
G1 X141.602 Y128.171 E0.05426
G1 X142.326 Y128.539 E0.05422
G1 X142.900 Y129.114 E0.05428
G1 X143.269 Y129.838 E0.05428
G1 X143.396 Y130.640 E0.05427
G1 X143.277 Y131.395 E0.05107
G1 X142.906 Y132.160 E0.05677
G1 X142.326 Y132.741 E0.05488
G1 X141.602 Y133.109 E0.05422
G1 X140.859 Y133.227 E0.05025
G1 X140.800 Y132.694 F7800.000
G1 X140.165 Y132.593 E0.04293 F1080.000
G1 X139.593 Y132.302 E0.04290
G1 X139.138 Y131.848 E0.04293
G1 X138.847 Y131.275 E0.04294
G1 X138.746 Y130.640 E0.04294
G1 X138.847 Y130.005 E0.04294
G1 X139.138 Y129.432 E0.04294
G1 X139.595 Y128.976 E0.04314
G1 X140.207 Y128.681 E0.04540
G1 X140.800 Y128.586 E0.04010 F1080.000
G1 X141.435 Y128.687 E0.04293
G1 X142.007 Y128.978 E0.04290
G1 X142.462 Y129.432 E0.04293
G1 X142.753 Y130.005 E0.04294
G1 X142.854 Y130.640 E0.04294
G1 X142.760 Y131.233 E0.04011
G1 X142.464 Y131.845 E0.04543
G1 X142.007 Y132.302 E0.04314
G1 X141.435 Y132.593 E0.04290
G1 X140.859 Y132.684 E0.03892
G1 X140.582 Y133.029 F7800.000
G1 E-1.30000 F3600.00000
G1 X140.800 Y123.076 F7800.000
G1 E1.30000 F3600.00000
G1 X139.998 Y122.949 E0.05426 F1080.000
G1 X139.274 Y122.581 E0.05422
G1 X138.700 Y122.006 E0.05428
G1 X138.331 Y121.282 E0.05428
G1 X138.204 Y120.480 E0.05427
G1 X138.331 Y119.678 E0.05427
G1 X138.700 Y118.954 E0.05428
G1 X139.281 Y118.373 E0.05487
G1 X140.045 Y118.004 E0.05672
G1 X140.800 Y117.884 E0.05106 F1080.000
G1 X141.602 Y118.011 E0.05426
G1 X142.326 Y118.379 E0.05422
G1 X142.900 Y118.954 E0.05428
G1 X143.269 Y119.678 E0.05428
G1 X143.396 Y120.480 E0.05427
G1 X143.277 Y121.235 E0.05107
G1 X142.906 Y122.000 E0.05677
G1 X142.326 Y122.581 E0.05488
G1 X141.602 Y122.949 E0.05422
G1 X140.859 Y123.067 E0.05025
G1 X140.800 Y122.534 F7800.000
G1 X140.165 Y122.433 E0.04293 F1080.000
G1 X139.593 Y122.142 E0.04290
G1 X139.138 Y121.688 E0.04293
G1 X138.847 Y121.115 E0.04294
G1 X138.746 Y120.480 E0.04294
G1 X138.847 Y119.845 E0.04294
G1 X139.138 Y119.272 E0.04294
G1 X139.595 Y118.816 E0.04314
G1 X140.207 Y118.521 E0.04540
G1 X140.800 Y118.426 E0.04010 F1080.000
G1 X141.435 Y118.527 E0.04293
G1 X142.007 Y118.818 E0.04290
G1 X142.462 Y119.272 E0.04293
G1 X142.753 Y119.845 E0.04294
G1 X142.854 Y120.480 E0.04294
G1 X142.760 Y121.073 E0.04011
G1 X142.464 Y121.685 E0.04543
G1 X142.007 Y122.142 E0.04314
G1 X141.435 Y122.433 E0.04290
G1 X140.859 Y122.524 E0.03892
G1 X140.582 Y122.869 F7800.000
G1 X133.109 Y121.282 F7800.000
G1 X132.740 Y122.006 E0.05427 F1080.000
G1 X132.166 Y122.581 E0.05429
G1 X131.442 Y122.949 E0.05422
G1 X130.640 Y123.076 E0.05426
G1 X129.838 Y122.949 E0.05426
G1 X129.114 Y122.581 E0.05421
G1 X128.540 Y122.006 E0.05429
G1 X128.171 Y121.282 E0.05427
G1 X128.044 Y120.480 E0.05427
G1 X128.171 Y119.678 E0.05427
G1 X128.540 Y118.954 E0.05427
G1 X129.121 Y118.373 E0.05488
G1 X129.885 Y118.004 E0.05671
G1 X130.640 Y117.884 E0.05106 F1080.000
G1 X131.442 Y118.011 E0.05426
G1 X132.166 Y118.379 E0.05422
G1 X132.740 Y118.954 E0.05429
G1 X133.109 Y119.678 E0.05427
G1 X133.236 Y120.480 E0.05427
G1 X133.118 Y121.223 E0.05026
G1 X132.593 Y121.115 F7800.000
G1 X132.302 Y121.688 E0.04294 F1080.000
G1 X131.847 Y122.142 E0.04293
G1 X131.275 Y122.433 E0.04290
G1 X130.640 Y122.534 E0.04293
G1 X130.005 Y122.433 E0.04293
G1 X129.433 Y122.142 E0.04290
G1 X128.978 Y121.688 E0.04293
G1 X128.687 Y121.115 E0.04294
G1 X128.586 Y120.480 E0.04294
G1 X128.687 Y119.845 E0.04294
G1 X128.978 Y119.272 E0.04294
G1 X129.435 Y118.816 E0.04314
G1 X130.047 Y118.521 E0.04539
G1 X130.640 Y118.426 E0.04010 F1080.000
G1 X131.275 Y118.527 E0.04293
G1 X131.847 Y118.818 E0.04290
G1 X132.302 Y119.272 E0.04293
G1 X132.593 Y119.845 E0.04294
G1 X132.694 Y120.480 E0.04294
G1 X132.603 Y121.056 E0.03893
G1 X132.845 Y121.426 F7800.000
G1 X131.442 Y128.171 F7800.000
G1 X132.166 Y128.539 E0.05422 F1080.000
G1 X132.740 Y129.114 E0.05429
G1 X133.109 Y129.838 E0.05427
G1 X133.236 Y130.640 E0.05427
G1 X133.109 Y131.442 E0.05427
G1 X132.740 Y132.166 E0.05427
G1 X132.166 Y132.741 E0.05429
G1 X131.442 Y133.109 E0.05422
G1 X130.640 Y133.236 E0.05426
G1 X129.838 Y133.109 E0.05426
G1 X129.114 Y132.741 E0.05421
G1 X128.540 Y132.166 E0.05429
G1 X128.171 Y131.442 E0.05427
G1 X128.044 Y130.640 E0.05427
G1 X128.171 Y129.838 E0.05427
G1 X128.540 Y129.114 E0.05427
G1 X129.121 Y128.533 E0.05488
G1 X129.885 Y128.164 E0.05671
G1 X130.640 Y128.044 E0.05106 F1080.000
G1 X131.383 Y128.162 E0.05025
G1 X131.275 Y128.687 F7800.000
G1 X131.847 Y128.978 E0.04290 F1080.000
G1 X132.302 Y129.432 E0.04293
G1 X132.593 Y130.005 E0.04294
G1 X132.694 Y130.640 E0.04294
G1 X132.593 Y131.275 E0.04294
G1 X132.302 Y131.848 E0.04294
G1 X131.847 Y132.302 E0.04293
G1 X131.275 Y132.593 E0.04290
G1 X130.640 Y132.694 E0.04293
G1 X130.005 Y132.593 E0.04293
G1 X129.433 Y132.302 E0.04290
G1 X128.978 Y131.848 E0.04293
G1 X128.687 Y131.275 E0.04294
G1 X128.586 Y130.640 E0.04294
G1 X128.687 Y130.005 E0.04294
G1 X128.978 Y129.432 E0.04294
G1 X129.435 Y128.976 E0.04314
G1 X130.047 Y128.681 E0.04539
G1 X130.640 Y128.586 E0.04010 F1080.000
G1 X131.215 Y128.678 E0.03892
G1 X131.585 Y128.435 F7800.000
G1 E-1.30000 F3600.00000
G1 X130.640 Y138.204 F7800.000
G1 E1.30000 F3600.00000
G1 X131.442 Y138.331 E0.05426 F1080.000
G1 X132.166 Y138.699 E0.05422
G1 X132.740 Y139.274 E0.05429
G1 X133.109 Y139.998 E0.05427
G1 X133.236 Y140.800 E0.05427
G1 X133.109 Y141.602 E0.05427
G1 X132.740 Y142.326 E0.05428
G1 X132.166 Y142.901 E0.05429
G1 X131.442 Y143.269 E0.05421
G1 X130.640 Y143.396 E0.05426
G1 X129.838 Y143.269 E0.05426
G1 X129.114 Y142.901 E0.05421
G1 X128.540 Y142.326 E0.05429
G1 X128.171 Y141.602 E0.05428
G1 X128.044 Y140.800 E0.05427
G1 X128.171 Y139.998 E0.05427
G1 X128.540 Y139.274 E0.05427
G1 X129.121 Y138.693 E0.05488
G1 X129.885 Y138.324 E0.05671
G1 X130.581 Y138.213 E0.04705 F1080.000
G1 X130.640 Y138.746 F7800.000
G1 X131.275 Y138.847 E0.04293 F1080.000
G1 X131.847 Y139.138 E0.04290
G1 X132.302 Y139.592 E0.04293
G1 X132.593 Y140.165 E0.04294
G1 X132.694 Y140.800 E0.04294
G1 X132.593 Y141.435 E0.04294
G1 X132.302 Y142.008 E0.04294
G1 X131.847 Y142.462 E0.04293
G1 X131.275 Y142.753 E0.04290
G1 X130.640 Y142.854 E0.04293
G1 X130.005 Y142.753 E0.04293
G1 X129.433 Y142.462 E0.04290
G1 X128.978 Y142.008 E0.04293
G1 X128.687 Y141.435 E0.04294
G1 X128.586 Y140.800 E0.04294
G1 X128.687 Y140.165 E0.04294
G1 X128.978 Y139.592 E0.04294
G1 X129.435 Y139.136 E0.04314
G1 X130.047 Y138.841 E0.04539
G1 X130.581 Y138.756 E0.03610 F1080.000
G1 X130.858 Y138.411 F7800.000
G1 E-1.30000 F3600.00000
G1 X130.640 Y148.364 F7800.000
G1 E1.30000 F3600.00000
G1 X131.442 Y148.491 E0.05426 F1080.000
G1 X132.166 Y148.859 E0.05422
G1 X132.740 Y149.434 E0.05429
G1 X133.109 Y150.158 E0.05428
G1 X133.236 Y150.960 E0.05427
G1 X133.109 Y151.762 E0.05427
G1 X132.740 Y152.486 E0.05427
G1 X132.166 Y153.061 E0.05429
G1 X131.442 Y153.429 E0.05422
G1 X130.640 Y153.556 E0.05426
G1 X129.838 Y153.429 E0.05426
G1 X129.114 Y153.061 E0.05422
G1 X128.540 Y152.486 E0.05429
G1 X128.171 Y151.762 E0.05427
G1 X128.044 Y150.960 E0.05427
G1 X128.171 Y150.158 E0.05427
G1 X128.540 Y149.434 E0.05428
G1 X129.121 Y148.853 E0.05488
G1 X129.885 Y148.484 E0.05671
G1 X130.581 Y148.373 E0.04705 F1080.000
G1 X130.640 Y148.906 F7800.000
G1 X131.275 Y149.007 E0.04293 F1080.000
G1 X131.847 Y149.298 E0.04290
G1 X132.302 Y149.752 E0.04293
G1 X132.593 Y150.325 E0.04294
G1 X132.694 Y150.960 E0.04294
G1 X132.593 Y151.595 E0.04294
G1 X132.302 Y152.168 E0.04293
G1 X131.847 Y152.622 E0.04293
G1 X131.275 Y152.913 E0.04290
G1 X130.640 Y153.014 E0.04293
G1 X130.005 Y152.913 E0.04293
G1 X129.433 Y152.622 E0.04290
G1 X128.978 Y152.168 E0.04293
G1 X128.687 Y151.595 E0.04293
G1 X128.586 Y150.960 E0.04294
G1 X128.687 Y150.325 E0.04294
G1 X128.978 Y149.752 E0.04294
G1 X129.435 Y149.296 E0.04314
G1 X130.047 Y149.001 E0.04539
G1 X130.581 Y148.916 E0.03610 F1080.000
G1 X130.858 Y148.571 F7800.000
G1 E-1.30000 F3600.00000
G1 X130.640 Y158.524 F7800.000
G1 E1.30000 F3600.00000
G1 X131.442 Y158.651 E0.05426 F1080.000
G1 X132.166 Y159.019 E0.05422
G1 X132.740 Y159.594 E0.05429
G1 X133.109 Y160.318 E0.05427
G1 X133.236 Y161.120 E0.05427
G1 X133.109 Y161.922 E0.05427
G1 X132.740 Y162.646 E0.05428
G1 X132.166 Y163.221 E0.05429
G1 X131.442 Y163.589 E0.05422
G1 X130.640 Y163.716 E0.05426
G1 X129.838 Y163.589 E0.05426
G1 X129.114 Y163.221 E0.05421
G1 X128.540 Y162.646 E0.05429
G1 X128.171 Y161.922 E0.05428
G1 X128.044 Y161.120 E0.05427
G1 X128.171 Y160.318 E0.05427
G1 X128.540 Y159.594 E0.05427
G1 X129.121 Y159.013 E0.05488
G1 X129.885 Y158.644 E0.05671
G1 X130.581 Y158.533 E0.04705 F1080.000
G1 X130.640 Y159.066 F7800.000
G1 X131.275 Y159.167 E0.04293 F1080.000
G1 X131.847 Y159.458 E0.04290
G1 X132.302 Y159.912 E0.04293
G1 X132.593 Y160.485 E0.04293
G1 X132.694 Y161.120 E0.04294
G1 X132.593 Y161.755 E0.04294
G1 X132.302 Y162.328 E0.04294
G1 X131.847 Y162.782 E0.04293
G1 X131.275 Y163.073 E0.04290
G1 X130.640 Y163.174 E0.04293
G1 X130.005 Y163.073 E0.04293
G1 X129.433 Y162.782 E0.04290
G1 X128.978 Y162.328 E0.04293
G1 X128.687 Y161.755 E0.04294
G1 X128.586 Y161.120 E0.04294
G1 X128.687 Y160.485 E0.04294
G1 X128.978 Y159.912 E0.04293
G1 X129.435 Y159.456 E0.04314
G1 X130.047 Y159.161 E0.04539
G1 X130.581 Y159.076 E0.03610 F1080.000
G1 X130.858 Y158.731 F7800.000
G1 X122.949 Y160.318 F7800.000
G1 X123.076 Y161.120 E0.05427 F1080.000
G1 X122.949 Y161.922 E0.05427
G1 X122.580 Y162.646 E0.05428
G1 X122.006 Y163.221 E0.05429
G1 X121.282 Y163.589 E0.05422
