; generated by Slic3r 1.2.6 on 2015-02-03 at 11:17:37

; external perimeters extrusion width = 0.40mm
; perimeters extrusion width = 0.48mm
; infill extrusion width = 0.48mm
; solid infill extrusion width = 0.48mm
; top infill extrusion width = 0.48mm

M190 S80 ; set bed temperature
M104 S230 ; set temperature
G28 ; home all axes
G92 E0.0 ; reset extruder
M109 S230 ; wait for temperature to be reached
G21 ; set units to millimeters
G90 ; use absolute coordinates
M83 ; use relative distances for extrusion
G1 E-1.30000 F3600.00000
G1 Z0.300 F7800.000
G1 X52.176 Y41.023 F7800.000
G1 E1.30000 F3600.00000
M204 S500
G1 X54.016 Y38.813 E0.14152 F2160.000
G1 X56.392 Y37.193 E0.14152
G1 X59.121 Y36.286 E0.14152
G1 X61.000 Y36.114 E0.09288
G1 X119.000 Y36.114 E2.85447
G1 X121.848 Y36.512 E0.14152
G1 X124.477 Y37.676 E0.14152 F2160.000
G1 X126.687 Y39.516 E0.14152
G1 X128.307 Y41.892 E0.14152
G1 X129.214 Y44.621 E0.14152
G1 X129.386 Y46.500 E0.09288
G1 X129.386 Y133.500 E4.28171
G1 X128.988 Y136.348 E0.14152
G1 X127.824 Y138.977 E0.14152
G1 X125.984 Y141.187 E0.14152
G1 X123.608 Y142.807 E0.14152
G1 X120.879 Y143.714 E0.14152
G1 X119.000 Y143.886 E0.09288
G1 X61.000 Y143.886 E2.85447
G1 X58.152 Y143.488 E0.14152
G1 X55.523 Y142.324 E0.14152
G1 X53.313 Y140.484 E0.14152
G1 X51.693 Y138.108 E0.14152
G1 X50.786 Y135.379 E0.14152
G1 X50.614 Y133.500 E0.09288
G1 X50.614 Y46.500 E4.28171
G1 X51.012 Y43.652 E0.14152
G1 X52.152 Y41.078 E0.13856
G1 E-1.30000 F3600.00000
G1 X107.064 Y126.121 F7800.000
G1 E1.30000 F3600.00000
G1 X108.887 Y129.280 E0.17950 F1080.000
G1 X107.064 Y132.439 E0.17950
G1 X103.416 Y132.439 E0.17950
G1 X101.593 Y129.280 E0.17951
G1 X103.416 Y126.121 E0.17951
G1 X107.004 Y126.121 E0.17655
G1 X107.440 Y125.984 F7800.000
G1 E-1.30000 F3600.00000
G1 X98.727 Y129.280 F7800.000
G1 E1.30000 F3600.00000
G1 X96.904 Y132.439 E0.17951 F1080.000
G1 X93.256 Y132.439 E0.17950
G1 X91.433 Y129.280 E0.17950
G1 X93.256 Y126.121 E0.17950
G1 X96.904 Y126.121 E0.17950
G1 X98.697 Y129.228 E0.17655
G1 X99.034 Y129.537 F7800.000
G1 E-1.30000 F3600.00000
G1 X86.744 Y132.439 F7800.000
G1 E1.30000 F3600.00000
G1 X83.096 Y132.439 E0.17950 F1080.000
G1 X81.273 Y129.280 E0.17951
G1 X83.096 Y126.121 E0.17951
G1 X86.744 Y126.121 E0.17950
G1 X88.567 Y129.280 E0.17950
G1 X86.774 Y132.387 E0.17655
G1 X86.674 Y132.833 F7800.000
G1 E-1.30000 F3600.00000
G1 X78.407 Y129.280 F7800.000
G1 E1.30000 F3600.00000
G1 X76.584 Y132.439 E0.17951 F1080.000
G1 X72.936 Y132.439 E0.17950
G1 X71.113 Y129.280 E0.17951
G1 X72.936 Y126.121 E0.17950
G1 X76.584 Y126.121 E0.17950
G1 X78.377 Y129.228 E0.17655
G1 X78.714 Y129.537 F7800.000
G1 E-1.30000 F3600.00000
G1 X62.591 Y132.889 F7800.000
G1 E1.30000 F3600.00000
G1 X61.611 Y132.889 E0.04826 F1080.000
G1 X61.611 Y131.534 E0.06671
G1 X61.782 Y131.488 E0.00874
G1 X62.561 Y132.837 E0.07669
G1 E-1.30000 F3600.00000
G1 X63.676 Y112.159 F7800.000
G1 E1.30000 F3600.00000
G1 X61.853 Y109.000 E0.17950 F1080.000
G1 X63.676 Y105.841 E0.17950
G1 X67.324 Y105.841 E0.17950
G1 X69.147 Y109.000 E0.17950
G1 X67.324 Y112.159 E0.17950
G1 X63.736 Y112.159 E0.17655
G1 X63.300 Y112.296 F7800.000
G1 X112.676 Y112.159 F7800.000
G1 X110.853 Y109.000 E0.17950 F1080.000
G1 X112.676 Y105.841 E0.17950
G1 X116.324 Y105.841 E0.17951
G1 X118.147 Y109.000 E0.17950
G1 X116.324 Y112.159 E0.17950
G1 X112.736 Y112.159 E0.17655
G1 X112.300 Y112.296 F7800.000
G1 E-1.30000 F3600.00000
G1 X118.389 Y131.534 F7800.000
G1 E1.30000 F3600.00000
G1 X118.389 Y132.889 E0.06671 F1080.000
G1 X117.409 Y132.889 E0.04826
G1 X118.218 Y131.488 E0.07964
G1 X118.331 Y131.518 E0.00578
G1 E-1.30000 F3600.00000
G1 X117.446 Y54.616 F7800.000
G1 E1.30000 F3600.00000
G1 X116.505 Y54.616 E0.04632 F1080.000
G1 X118.218 Y51.649 E0.16859
G1 X118.389 Y51.695 E0.00874
G1 X118.389 Y55.906 E0.20726
G1 X118.218 Y55.952 E0.00874
G1 X117.476 Y54.668 E0.07299
G1 E-1.30000 F3600.00000
G1 X109.611 Y112.889 F7800.000
G1 E1.30000 F3600.00000
G1 X109.611 Y125.111 E0.60147 F1620.000
G1 X70.389 Y125.111 E1.93028
G1 X70.389 Y112.889 E0.60147
G1 X109.551 Y112.889 E1.92732
G1 X109.225 Y113.275 F7800.000
G1 X109.225 Y124.725 E0.56351 F1458.000
G1 X70.775 Y124.725 E1.89232
G1 X70.775 Y113.275 E0.56351
G1 X109.165 Y113.275 E1.88937
G1 X109.625 Y113.275 F7800.000
G1 E-1.30000 F3600.00000
G1 X78.853 Y58.160 F7800.000
G1 E1.30000 F3600.00000
G1 X76.806 Y61.704 E0.20142 F1080.000
G1 X72.714 Y61.704 E0.20141
G1 X70.667 Y58.160 E0.20142
G1 X72.714 Y54.616 E0.20142
G1 X76.806 Y54.616 E0.20142
G1 X78.823 Y58.108 E0.19847
G1 X78.407 Y58.160 F7800.000
G1 X76.584 Y61.319 E0.17951 F1080.000
G1 X72.936 Y61.319 E0.17950
G1 X71.113 Y58.160 E0.17951
G1 X72.936 Y55.001 E0.17950
G1 X76.584 Y55.001 E0.17950
G1 X78.377 Y58.108 E0.17655
G1 X78.714 Y58.417 F7800.000
G1 X82.981 Y61.889 F7800.000
G1 X80.827 Y58.160 E0.21194 F1620.000
G1 X82.874 Y54.616 E0.20142
G1 X86.966 Y54.616 E0.20142
G1 X89.013 Y58.160 E0.20142
G1 X86.860 Y61.889 E0.21193
G1 X93.140 Y61.889 E0.30912
G1 X90.987 Y58.160 E0.21193
G1 X93.034 Y54.616 E0.20142
G1 X97.126 Y54.616 E0.20142
G1 X99.173 Y58.160 E0.20142
G1 X97.019 Y61.889 E0.21194
G1 X103.301 Y61.889 E0.30913
G1 X101.147 Y58.160 E0.21194
G1 X103.194 Y54.616 E0.20142
G1 X107.286 Y54.616 E0.20142
G1 X109.333 Y58.160 E0.20142
G1 X107.180 Y61.889 E0.21193
G1 X109.611 Y61.889 E0.11965
G1 X109.611 Y106.111 E2.17635
G1 X78.389 Y106.111 E1.53656
G1 X78.389 Y99.945 E0.30343
G1 X78.218 Y99.899 E0.00874
G1 X76.806 Y102.344 E0.13895
G1 X72.714 Y102.344 E0.20141
G1 X70.667 Y98.800 E0.20142
G1 X72.714 Y95.256 E0.20142
G1 X76.806 Y95.256 E0.20142
G1 X78.218 Y97.701 E0.13895
G1 X78.389 Y97.655 E0.00874
G1 X78.389 Y89.785 E0.38730
G1 X78.218 Y89.739 E0.00874
G1 X76.806 Y92.184 E0.13895
G1 X72.714 Y92.184 E0.20141
G1 X70.667 Y88.640 E0.20142
G1 X72.714 Y85.096 E0.20142
G1 X76.806 Y85.096 E0.20142
G1 X78.218 Y87.541 E0.13895
G1 X78.389 Y87.495 E0.00874
G1 X78.389 Y79.625 E0.38730
G1 X78.218 Y79.579 E0.00874
G1 X76.806 Y82.024 E0.13895
G1 X72.714 Y82.024 E0.20141
G1 X70.667 Y78.480 E0.20142
G1 X72.714 Y74.936 E0.20142
G1 X76.806 Y74.936 E0.20142
G1 X78.218 Y77.381 E0.13895
G1 X78.389 Y77.335 E0.00874
G1 X78.389 Y69.465 E0.38730
G1 X78.218 Y69.419 E0.00874
G1 X76.806 Y71.864 E0.13895
G1 X72.714 Y71.864 E0.20141
G1 X70.667 Y68.320 E0.20142
G1 X72.714 Y64.776 E0.20142
G1 X76.806 Y64.776 E0.20142
G1 X78.218 Y67.221 E0.13895
G1 X78.389 Y67.175 E0.00874
G1 X78.389 Y61.889 E0.26012
G1 X82.921 Y61.889 E0.22300
G1 X78.775 Y62.275 F7800.000
G1 X109.225 Y62.275 E1.49860 F1458.000
G1 X109.225 Y105.725 E2.13839
G1 X78.775 Y105.725 E1.49860
G1 X78.775 Y62.335 E2.13544
G1 X78.775 Y61.875 F7800.000
G1 X78.407 Y68.320 F7800.000
G1 X76.584 Y71.479 E0.17951 F1080.000
G1 X72.936 Y71.479 E0.17950
G1 X71.113 Y68.320 E0.17951
G1 X72.936 Y65.161 E0.17950
G1 X76.584 Y65.161 E0.17950
G1 X78.377 Y68.268 E0.17655
G1 X78.714 Y68.577 F7800.000
G1 E-1.30000 F3600.00000
G1 X72.936 Y75.321 F7800.000
G1 E1.30000 F3600.00000
G1 X76.584 Y75.321 E0.17950 F1080.000
G1 X78.407 Y78.480 E0.17951
G1 X76.584 Y81.639 E0.17951
G1 X72.936 Y81.639 E0.17950
G1 X71.113 Y78.480 E0.17951
G1 X72.906 Y75.373 E0.17655
G1 X73.006 Y74.927 F7800.000
G1 E-1.30000 F3600.00000
G1 X72.936 Y85.481 F7800.000
G1 E1.30000 F3600.00000
G1 X76.584 Y85.481 E0.17950 F1080.000
G1 X78.407 Y88.640 E0.17951
G1 X76.584 Y91.799 E0.17951
G1 X72.936 Y91.799 E0.17950
G1 X71.113 Y88.640 E0.17951
G1 X72.906 Y85.533 E0.17655
G1 X73.006 Y85.087 F7800.000
G1 E-1.30000 F3600.00000
G1 X72.936 Y95.641 F7800.000
G1 E1.30000 F3600.00000
G1 X76.584 Y95.641 E0.17950 F1080.000
G1 X78.407 Y98.800 E0.17951
G1 X76.584 Y101.959 E0.17951
G1 X72.936 Y101.959 E0.17950
G1 X71.113 Y98.800 E0.17951
G1 X72.906 Y95.693 E0.17655
G1 X73.006 Y95.247 F7800.000
G1 E-1.30000 F3600.00000
G1 X86.744 Y61.319 F7800.000
G1 E1.30000 F3600.00000
G1 X83.096 Y61.319 E0.17950 F1080.000
G1 X81.273 Y58.160 E0.17951
G1 X83.096 Y55.001 E0.17950
G1 X86.744 Y55.001 E0.17950
G1 X88.567 Y58.160 E0.17950
G1 X86.774 Y61.267 E0.17655
G1 X86.674 Y61.713 F7800.000
G1 X93.256 Y61.319 F7800.000
G1 X91.433 Y58.160 E0.17950 F1080.000
G1 X93.256 Y55.001 E0.17950
G1 X96.904 Y55.001 E0.17950
G1 X98.727 Y58.160 E0.17950
G1 X96.904 Y61.319 E0.17951
G1 X93.316 Y61.319 E0.17655
G1 X92.880 Y61.456 F7800.000
G1 E-1.30000 F3600.00000
G1 X101.593 Y58.160 F7800.000
G1 E1.30000 F3600.00000
G1 X103.416 Y55.001 E0.17950 F1080.000
G1 X107.064 Y55.001 E0.17950
G1 X108.887 Y58.160 E0.17950
G1 X107.064 Y61.319 E0.17950
G1 X103.416 Y61.319 E0.17950
G1 X101.623 Y58.212 E0.17655
G1 X101.286 Y57.903 F7800.000
G1 E-1.30000 F3600.00000
G1 X112.454 Y54.544 F7800.000
G1 E1.30000 F3600.00000
G1 X113.395 Y54.544 E0.04632 F1620.000
G1 X111.307 Y58.160 E0.20548
G1 X113.354 Y61.704 E0.20142
G1 X117.446 Y61.704 E0.20142
G1 X118.218 Y60.368 E0.07595
G1 X118.389 Y60.414 E0.00874
G1 X118.389 Y66.066 E0.27818
G1 X118.218 Y66.112 E0.00874
G1 X117.446 Y64.776 E0.07595
G1 X113.354 Y64.776 E0.20142
G1 X111.307 Y68.320 E0.20142
G1 X113.354 Y71.864 E0.20142
G1 X117.446 Y71.864 E0.20142
G1 X118.218 Y70.528 E0.07595
G1 X118.389 Y70.574 E0.00874
G1 X118.389 Y76.226 E0.27818
G1 X118.218 Y76.272 E0.00874
G1 X117.446 Y74.936 E0.07595
G1 X113.354 Y74.936 E0.20142
G1 X111.307 Y78.480 E0.20142
G1 X113.354 Y82.024 E0.20142
G1 X117.446 Y82.024 E0.20142
G1 X118.218 Y80.688 E0.07595
G1 X118.389 Y80.734 E0.00874
G1 X118.389 Y86.386 E0.27818
G1 X118.218 Y86.432 E0.00874
G1 X117.446 Y85.096 E0.07595
G1 X113.354 Y85.096 E0.20142
G1 X111.307 Y88.640 E0.20142
G1 X113.354 Y92.184 E0.20142
G1 X117.446 Y92.184 E0.20142
G1 X118.218 Y90.848 E0.07595
G1 X118.389 Y90.894 E0.00874
G1 X118.389 Y96.546 E0.27818
G1 X118.218 Y96.592 E0.00874
G1 X117.446 Y95.256 E0.07595
G1 X113.354 Y95.256 E0.20142
G1 X111.307 Y98.800 E0.20142
G1 X113.354 Y102.344 E0.20142
G1 X117.446 Y102.344 E0.20142
G1 X118.218 Y101.008 E0.07595
G1 X118.389 Y101.054 E0.00874
G1 X118.389 Y108.305 E0.35687
G1 X118.218 Y108.351 E0.00874
G1 X116.546 Y105.456 E0.16454
G1 X112.454 Y105.456 E0.20142
G1 X110.407 Y109.000 E0.20142
G1 X112.454 Y112.544 E0.20142
G1 X116.546 Y112.544 E0.20142
G1 X118.218 Y109.649 E0.16454
G1 X118.389 Y109.695 E0.00874
G1 X118.389 Y116.866 E0.35293
G1 X118.218 Y116.912 E0.00874
G1 X117.446 Y115.576 E0.07595
G1 X113.354 Y115.576 E0.20142
G1 X111.307 Y119.120 E0.20142
G1 X113.354 Y122.664 E0.20142
G1 X117.446 Y122.664 E0.20142
G1 X118.218 Y121.328 E0.07595
G1 X118.389 Y121.374 E0.00874
G1 X118.389 Y127.026 E0.27818
G1 X118.218 Y127.072 E0.00874
G1 X117.446 Y125.736 E0.07595
G1 X113.354 Y125.736 E0.20142
G1 X111.307 Y129.280 E0.20142
G1 X113.391 Y132.889 E0.20511
G1 X107.249 Y132.889 E0.30230
G1 X109.333 Y129.280 E0.20511
G1 X107.286 Y125.736 E0.20142
G1 X103.194 Y125.736 E0.20142
G1 X101.147 Y129.280 E0.20142
G1 X103.231 Y132.889 E0.20512
G1 X97.089 Y132.889 E0.30231
G1 X99.173 Y129.280 E0.20512
G1 X97.126 Y125.736 E0.20142
G1 X93.034 Y125.736 E0.20142
G1 X90.987 Y129.280 E0.20142
G1 X93.071 Y132.889 E0.20511
G1 X86.929 Y132.889 E0.30230
G1 X89.013 Y129.280 E0.20511
G1 X86.966 Y125.736 E0.20142
G1 X82.874 Y125.736 E0.20142
G1 X80.827 Y129.280 E0.20142
G1 X82.911 Y132.889 E0.20512
G1 X76.769 Y132.889 E0.30231
G1 X78.853 Y129.280 E0.20512
G1 X76.806 Y125.736 E0.20142
G1 X72.714 Y125.736 E0.20142
G1 X70.667 Y129.280 E0.20142
G1 X72.751 Y132.889 E0.20512
G1 X66.609 Y132.889 E0.30231
G1 X68.693 Y129.280 E0.20512
G1 X66.646 Y125.736 E0.20142
G1 X62.554 Y125.736 E0.20142
G1 X61.782 Y127.072 E0.07595
G1 X61.611 Y127.026 E0.00874
G1 X61.611 Y121.374 E0.27818
G1 X61.782 Y121.328 E0.00874
G1 X62.554 Y122.664 E0.07595
G1 X66.646 Y122.664 E0.20142
G1 X68.693 Y119.120 E0.20142
G1 X66.646 Y115.576 E0.20142
G1 X62.554 Y115.576 E0.20142
G1 X61.782 Y116.912 E0.07595
G1 X61.611 Y116.866 E0.00874
G1 X61.611 Y109.695 E0.35293
G1 X61.782 Y109.649 E0.00874
G1 X63.454 Y112.544 E0.16454
G1 X67.546 Y112.544 E0.20142
G1 X69.593 Y109.000 E0.20142
G1 X67.546 Y105.456 E0.20142
G1 X63.454 Y105.456 E0.20142
G1 X61.782 Y108.351 E0.16454
G1 X61.611 Y108.305 E0.00874
G1 X61.611 Y101.054 E0.35687
G1 X61.782 Y101.008 E0.00874
G1 X62.554 Y102.344 E0.07595
G1 X66.646 Y102.344 E0.20142
G1 X68.693 Y98.800 E0.20142
G1 X66.646 Y95.256 E0.20142
G1 X62.554 Y95.256 E0.20142
G1 X61.782 Y96.592 E0.07595
G1 X61.611 Y96.546 E0.00874
G1 X61.611 Y90.894 E0.27818
G1 X61.782 Y90.848 E0.00874
G1 X62.554 Y92.184 E0.07595
G1 X66.646 Y92.184 E0.20142
G1 X68.693 Y88.640 E0.20142
G1 X66.646 Y85.096 E0.20142
G1 X62.554 Y85.096 E0.20142
G1 X61.782 Y86.432 E0.07595
G1 X61.611 Y86.386 E0.00874
G1 X61.611 Y80.734 E0.27818
G1 X61.782 Y80.688 E0.00874
G1 X62.554 Y82.024 E0.07595
G1 X66.646 Y82.024 E0.20142
G1 X68.693 Y78.480 E0.20142
G1 X66.646 Y74.936 E0.20142
G1 X62.554 Y74.936 E0.20142
G1 X61.782 Y76.272 E0.07595
G1 X61.611 Y76.226 E0.00874
G1 X61.611 Y70.574 E0.27818
G1 X61.782 Y70.528 E0.00874
G1 X62.554 Y71.864 E0.07595
G1 X66.646 Y71.864 E0.20142
G1 X68.693 Y68.320 E0.20142
G1 X66.646 Y64.776 E0.20142
G1 X62.554 Y64.776 E0.20142
G1 X61.782 Y66.112 E0.07595
G1 X61.611 Y66.066 E0.00874
G1 X61.611 Y60.414 E0.27818
G1 X61.782 Y60.368 E0.00874
G1 X62.554 Y61.704 E0.07595
G1 X66.646 Y61.704 E0.20142
G1 X68.693 Y58.160 E0.20142
G1 X66.605 Y54.544 E0.20548
G1 X67.546 Y54.544 E0.04632
G1 X69.593 Y51.000 E0.20142
G1 X67.546 Y47.456 E0.20142
G1 X63.454 Y47.456 E0.20142
G1 X61.782 Y50.351 E0.16454
G1 X61.611 Y50.305 E0.00874
G1 X61.611 Y47.111 E0.15722
G1 X118.389 Y47.111 E2.79437
G1 X118.389 Y50.305 E0.15721
G1 X118.218 Y50.351 E0.00874
G1 X116.546 Y47.456 E0.16453
G1 X112.454 Y47.456 E0.20142
G1 X110.407 Y51.000 E0.20142
G1 X112.424 Y54.492 E0.19846
G1 X112.676 Y54.159 F7800.000
G1 X110.853 Y51.000 E0.17950 F1080.000
G1 X112.676 Y47.841 E0.17950
G1 X116.324 Y47.841 E0.17951
G1 X118.147 Y51.000 E0.17950
G1 X116.324 Y54.159 E0.17950
G1 X112.736 Y54.159 E0.17655
G1 X112.300 Y54.295 F7800.000
G1 X69.147 Y51.000 F7800.000
G1 X67.324 Y54.159 E0.17950 F1080.000
G1 X63.676 Y54.159 E0.17950
G1 X61.853 Y51.000 E0.17950
G1 X63.676 Y47.841 E0.17950
G1 X67.324 Y47.841 E0.17950
G1 X69.117 Y50.948 E0.17655
G1 X69.454 Y51.257 F7800.000
G1 E-1.30000 F3600.00000
G1 X63.495 Y54.616 F7800.000
G1 E1.30000 F3600.00000
G1 X62.554 Y54.616 E0.04632 F1080.000
G1 X61.782 Y55.952 E0.07595
G1 X61.611 Y55.906 E0.00874
G1 X61.611 Y51.695 E0.20726
G1 X61.782 Y51.649 E0.00874
G1 X63.465 Y54.564 E0.16564
G1 X66.424 Y55.001 F7800.000
G1 X62.776 Y55.001 E0.17950 F1458.000
G1 X61.396 Y57.391 E0.13582
G1 X61.225 Y57.345 E0.00874
G1 X61.225 Y46.725 E0.52268
G1 X118.775 Y46.725 E2.83233
G1 X118.775 Y57.345 E0.52268
G1 X118.604 Y57.391 E0.00874
G1 X117.224 Y55.001 E0.13582
G1 X113.576 Y55.001 E0.17951
G1 X111.753 Y58.160 E0.17950
G1 X113.576 Y61.319 E0.17950
G1 X117.224 Y61.319 E0.17951
G1 X118.604 Y58.929 E0.13582
G1 X118.775 Y58.975 E0.00874
G1 X118.775 Y67.505 E0.41984
G1 X118.604 Y67.551 E0.00874
G1 X117.224 Y65.161 E0.13582
G1 X113.576 Y65.161 E0.17951
G1 X111.753 Y68.320 E0.17950
G1 X113.576 Y71.479 E0.17950
G1 X117.224 Y71.479 E0.17951
G1 X118.604 Y69.089 E0.13582
G1 X118.775 Y69.135 E0.00874
G1 X118.775 Y77.665 E0.41984
G1 X118.604 Y77.711 E0.00874
G1 X117.224 Y75.321 E0.13582
G1 X113.576 Y75.321 E0.17951
G1 X111.753 Y78.480 E0.17950
G1 X113.576 Y81.639 E0.17950
G1 X117.224 Y81.639 E0.17951
G1 X118.604 Y79.249 E0.13582
G1 X118.775 Y79.295 E0.00874
G1 X118.775 Y87.825 E0.41984
G1 X118.604 Y87.871 E0.00874
G1 X117.224 Y85.481 E0.13582
G1 X113.576 Y85.481 E0.17951
G1 X111.753 Y88.640 E0.17950
G1 X113.576 Y91.799 E0.17950
G1 X117.224 Y91.799 E0.17951
G1 X118.604 Y89.409 E0.13582
G1 X118.775 Y89.455 E0.00874
G1 X118.775 Y97.985 E0.41984
G1 X118.604 Y98.031 E0.00874
G1 X117.224 Y95.641 E0.13582
G1 X113.576 Y95.641 E0.17951
G1 X111.753 Y98.800 E0.17950
G1 X113.576 Y101.959 E0.17950
G1 X117.224 Y101.959 E0.17951
G1 X118.604 Y99.569 E0.13582
G1 X118.775 Y99.615 E0.00874
G1 X118.775 Y118.305 E0.91986
G1 X118.604 Y118.351 E0.00874
G1 X117.224 Y115.961 E0.13582
G1 X113.576 Y115.961 E0.17951
G1 X111.753 Y119.120 E0.17950
G1 X113.576 Y122.279 E0.17950
G1 X117.224 Y122.279 E0.17951
G1 X118.604 Y119.889 E0.13582
