; generated by Slic3r 1.2.7-dev on 2015-03-18 at 09:54:33

; external perimeters extrusion width = 0.40mm
; perimeters extrusion width = 0.48mm
; infill extrusion width = 0.48mm
; solid infill extrusion width = 0.48mm
; top infill extrusion width = 0.48mm

M190 S80 ; set bed temperature
M104 S230 ; set temperature
G28 ; home all axes
G92 E0.0 ; reset extruder
M109 S230 ; wait for temperature to be reached
G21 ; set units to millimeters
G90 ; use absolute coordinates
M83 ; use relative distances for extrusion
G1 E-1.30000 F3600.00000
G1 Z0.300 F7800.000
G1 X56.387 Y56.387 F7800.000
G1 E1.30000 F3600.00000
M204 S500
G1 X100.581 Y12.193 E3.96657 F2160.000
G1 X102.891 Y10.446 E0.18381
G1 X105.590 Y9.394 E0.18381
G1 X108.473 Y9.117 E0.18381
G1 X111.322 Y9.635 E0.18381
G1 X113.923 Y10.909 E0.18381 F2160.000
G1 X115.481 Y12.193 E0.12812
G1 X167.807 Y64.519 E4.69642
G1 X169.554 Y66.829 E0.18381
G1 X170.606 Y69.527 E0.18381
G1 X170.883 Y72.410 E0.18381
G1 X170.365 Y75.260 E0.18381
G1 X169.091 Y77.861 E0.18381
G1 X167.807 Y79.419 E0.12812
G1 X79.419 Y167.807 E7.93314
G1 X77.109 Y169.554 E0.18381
G1 X74.410 Y170.606 E0.18381
G1 X71.527 Y170.883 E0.18381
G1 X68.678 Y170.365 E0.18381
G1 X66.077 Y169.091 E0.18381
G1 X64.519 Y167.807 E0.12812
G1 X12.193 Y115.481 E4.69642
G1 X10.446 Y113.171 E0.18381
G1 X9.394 Y110.473 E0.18381
G1 X9.117 Y107.590 E0.18381
G1 X9.635 Y104.740 E0.18381
G1 X10.909 Y102.139 E0.18381
G1 X12.193 Y100.581 E0.12812
G1 X56.345 Y56.430 E3.96276
G1 X57.588 Y57.588 F7800.000
G1 X104.371 Y10.805 E4.19890 F2160.000
G1 X111.692 Y10.805 E0.46465
G1 X166.003 Y65.116 E4.87456
G1 X169.195 Y68.308 E0.28652 F2160.000
G1 X169.195 Y75.630 E0.46466
G1 X75.629 Y169.195 E8.39780
G1 X68.308 Y169.195 E0.46465
G1 X10.805 Y111.692 E5.16107
G1 X10.805 Y104.371 E0.46465
G1 X57.545 Y57.630 E4.19509
G1 X57.967 Y57.967 F7800.000
G1 X104.592 Y11.341 E4.18482 F2160.000
G1 X111.470 Y11.341 E0.43649
G1 X168.659 Y68.530 E5.13291 F2160.000
G1 X168.659 Y75.408 E0.43649
G1 X75.408 Y168.659 E8.36963
G1 X68.530 Y168.659 E0.43649
G1 X11.341 Y111.470 E5.13291
G1 X11.341 Y104.592 E0.43649
G1 X57.924 Y58.009 E4.18101
G1 X58.345 Y58.345 F7800.000
G1 X104.814 Y11.876 E4.17074 F2160.000
G1 X111.248 Y11.876 E0.40833
G1 X165.245 Y65.873 E4.84640
G1 X168.124 Y68.752 E0.25836 F2160.000
G1 X168.124 Y75.186 E0.40833
G1 X75.186 Y168.124 E8.34147
G1 X68.752 Y168.124 E0.40833
G1 X11.876 Y111.248 E5.10475
G1 X11.876 Y104.814 E0.40833
G1 X58.303 Y58.388 E4.16693
G1 X58.724 Y58.724 F7800.000
G1 X105.036 Y12.412 E4.15666 F2160.000
G1 X111.026 Y12.412 E0.38017
G1 X167.588 Y68.974 E5.07659 F2160.000
G1 X167.588 Y74.964 E0.38017
G1 X74.964 Y167.588 E8.31331
G1 X68.974 Y167.588 E0.38017
G1 X12.412 Y111.026 E5.07659
G1 X12.412 Y105.036 E0.38017
G1 X58.682 Y58.766 E4.15285
G1 X59.103 Y59.103 F7800.000
G1 X105.258 Y12.948 E4.14258 F2160.000
G1 X110.804 Y12.948 E0.35201
G1 X164.488 Y66.631 E4.81824
G1 X167.052 Y69.196 E0.23020 F2160.000
G1 X167.052 Y74.742 E0.35201
G1 X74.742 Y167.052 E8.28515
G1 X69.196 Y167.052 E0.35201
G1 X12.948 Y110.804 E5.04843
G1 X12.948 Y105.258 E0.35201
G1 X59.060 Y59.145 E4.13877
G1 X59.482 Y59.482 F7800.000
G1 X105.480 Y13.483 E4.12850 F2160.000
G1 X110.583 Y13.483 E0.32385
G1 X166.517 Y69.417 E5.02027 F2160.000
G1 X166.517 Y74.520 E0.32385
G1 X74.520 Y166.517 E8.25699
G1 X69.417 Y166.517 E0.32385
G1 X13.483 Y110.583 E5.02027
G1 X13.483 Y105.480 E0.32385
G1 X59.439 Y59.524 E4.12469
G1 X59.860 Y59.860 F7800.000
G1 X105.702 Y14.019 E4.11442 F2160.000
G1 X110.361 Y14.019 E0.29569
G1 X163.730 Y67.388 E4.79008
G1 X165.981 Y69.639 E0.20203 F2160.000
G1 X165.981 Y74.298 E0.29569
G1 X74.298 Y165.981 E8.22883
G1 X69.639 Y165.981 E0.29569
G1 X14.019 Y110.361 E4.99211
G1 X14.019 Y105.702 E0.29569
G1 X59.818 Y59.903 E4.11061
G1 X60.239 Y60.239 F7800.000
G1 X105.924 Y14.554 E4.10034 F2160.000
G1 X110.139 Y14.554 E0.26753
G1 X165.446 Y69.861 E4.96395 F2160.000
G1 X165.446 Y74.076 E0.26753
G1 X74.076 Y165.446 E8.20067
G1 X69.861 Y165.446 E0.26753
G1 X14.554 Y110.139 E4.96395
G1 X14.554 Y105.924 E0.26753
G1 X60.197 Y60.281 E4.09653
G1 X60.618 Y60.618 F7800.000
G1 X106.145 Y15.090 E4.08625 F2160.000
G1 X109.917 Y15.090 E0.23937
G1 X162.973 Y68.146 E4.76192
G1 X164.910 Y70.083 E0.17387 F2160.000
G1 X164.910 Y73.855 E0.23937
G1 X73.855 Y164.910 E8.17251
G1 X70.083 Y164.910 E0.23937
G1 X15.090 Y109.917 E4.93579
G1 X15.090 Y106.145 E0.23937
G1 X60.575 Y60.660 E4.08245
G1 X60.997 Y60.997 F7800.000
G1 X106.367 Y15.626 E4.07217 F2160.000
G1 X109.695 Y15.626 E0.21121
G1 X164.374 Y70.305 E4.90763 F2160.000
G1 X164.374 Y73.633 E0.21121
G1 X73.633 Y164.374 E8.14435
G1 X70.305 Y164.374 E0.21121
G1 X15.626 Y109.695 E4.90763
G1 X15.626 Y106.367 E0.21121
G1 X60.954 Y61.039 E4.06837
G1 X61.375 Y61.375 F7800.000
G1 X106.589 Y16.161 E4.05809 F2160.000
G1 X109.473 Y16.161 E0.18305
G1 X162.215 Y68.903 E4.73375
G1 X163.839 Y70.527 E0.14571 F2160.000
G1 X163.839 Y73.411 E0.18305
G1 X73.411 Y163.839 E8.11619
G1 X70.527 Y163.839 E0.18305
G1 X16.161 Y109.473 E4.87947
G1 X16.161 Y106.589 E0.18305
G1 X61.333 Y61.418 E4.05429
G1 X61.754 Y61.754 F7800.000
G1 X106.811 Y16.697 E4.04401 F2160.000
G1 X109.251 Y16.697 E0.15488
G1 X163.303 Y70.749 E4.85131 F2160.000
G1 X163.303 Y73.189 E0.15489
G1 X73.189 Y163.303 E8.08803
G1 X70.749 Y163.303 E0.15488
G1 X16.697 Y109.251 E4.85130
G1 X16.697 Y106.811 E0.15488
G1 X61.712 Y61.796 E4.04021
G1 X62.133 Y62.133 F7800.000
G1 X107.033 Y17.233 E4.02993 F2160.000
G1 X109.030 Y17.233 E0.12672
G1 X161.458 Y69.661 E4.70559
G1 X162.767 Y70.970 E0.11755 F2160.000
G1 X162.767 Y72.967 E0.12672
G1 X72.967 Y162.767 E8.05987
G1 X70.970 Y162.767 E0.12672
G1 X17.233 Y109.030 E4.82314
G1 X17.233 Y107.033 E0.12672
G1 X62.090 Y62.175 E4.02613
G1 X62.511 Y62.511 F7800.000
G1 X107.255 Y17.768 E4.01585 F2160.000
G1 X108.808 Y17.768 E0.09856
G1 X162.232 Y71.192 E4.79498 F2160.000
G1 X162.232 Y72.745 E0.09856
G1 X72.745 Y162.232 E8.03171
G1 X71.192 Y162.232 E0.09856
G1 X17.768 Y108.808 E4.79498
G1 X17.768 Y107.255 E0.09856
G1 X62.469 Y62.554 E4.01204
G1 X62.890 Y62.890 F7800.000
G1 X107.477 Y18.304 E4.00177 F2160.000
G1 X108.586 Y18.304 E0.07040
G1 X160.700 Y70.418 E4.67743
G1 X161.696 Y71.414 E0.08939 F2160.000
G1 X161.696 Y72.523 E0.07040
G1 X72.523 Y161.696 E8.00354
G1 X71.414 Y161.696 E0.07040
G1 X18.304 Y108.586 E4.76682
G1 X18.304 Y107.477 E0.07040
G1 X62.848 Y62.933 E3.99796
G1 X63.269 Y63.269 F7800.000
G1 X107.698 Y18.839 E3.98769 F2160.000
G1 X108.364 Y18.839 E0.04224
G1 X161.161 Y71.636 E4.73866 F2160.000
G1 X161.161 Y72.302 E0.04224
G1 X72.302 Y161.161 E7.97538
G1 X71.636 Y161.161 E0.04224
G1 X18.839 Y108.364 E4.73866
G1 X18.839 Y107.698 E0.04224
G1 X63.227 Y63.311 E3.98388
G1 F6240
G1 X64.820 Y61.718 E-1.23500
G1 E-0.06500 F3600.00000
G1 X107.920 Y19.375 F7800.000
G1 E1.30000 F3600.00000
G1 X108.142 Y19.375 E0.01408 F2160.000
G1 X159.943 Y71.176 E4.64927
G1 X160.625 Y71.858 E0.06123
G1 X160.625 Y72.080 E0.01408
G1 X72.080 Y160.625 E7.94722
G1 X71.858 Y160.625 E0.01408
G1 X19.375 Y108.142 E4.71050
G1 X19.375 Y107.920 E0.01408
G1 X107.878 Y19.417 E7.94342
G1 X108.031 Y20.067 F7800.000
G1 X159.933 Y71.969 E4.65834 F1458.000
G1 X71.969 Y159.933 E7.89506
G1 X20.067 Y108.031 E4.65834
G1 X107.989 Y20.110 E7.89126
G1 X108.135 Y20.454 F7800.000
G1 F6240
G1 X109.583 Y21.702 E-1.23500
G1 E-0.06500 F3600.00000
G1 X30.216 Y104.883 F7800.000
G1 E1.30000 F3600.00000
G1 X25.915 Y103.731 E0.28257 F1620.000
G1 X22.767 Y106.879 E0.28257
G1 X23.776 Y110.646 E0.24751
G1 X23.563 Y110.769 E0.01565
G1 X20.825 Y108.031 E0.24575
G1 X108.031 Y20.825 E7.82708
G1 X159.175 Y71.969 E4.59035
G1 X71.969 Y159.175 E7.82708
G1 X69.266 Y156.473 E0.24258
G1 X69.389 Y156.259 E0.01565
G1 X73.157 Y157.269 E0.24752
G1 X76.305 Y154.120 E0.28257
G1 X75.152 Y149.820 E0.28257
G1 X70.852 Y148.667 E0.28257
G1 X67.703 Y151.815 E0.28257
G1 X68.713 Y155.583 E0.24752
G1 X68.499 Y155.706 E0.01565
G1 X24.329 Y111.536 E3.96439
G1 X24.453 Y111.323 E0.01565
G1 X28.220 Y112.332 E0.24751
G1 X31.368 Y109.184 E0.28257
G1 X30.231 Y104.941 E0.27876
G1 F6240
G1 X28.062 Y104.332 E-1.23500
G1 E-0.06500 F3600.00000
G1 X149.762 Y75.210 F7800.000
G1 E1.30000 F3600.00000
G1 X148.769 Y71.507 E0.24333 F1080.000
G1 X151.481 Y68.796 E0.24335
G1 X155.183 Y69.789 E0.24330
G1 X156.176 Y73.491 E0.24330
G1 X153.465 Y76.203 E0.24335
G1 X149.819 Y75.226 E0.23952
G1 X149.363 Y75.245 F7800.000
G1 X149.324 Y75.648 F7800.000
G1 X148.172 Y71.347 E0.28258 F1080.000
G1 X151.321 Y68.198 E0.28261
G1 X155.621 Y69.351 E0.28254
G1 X156.774 Y73.651 E0.28254
G1 X153.625 Y76.800 E0.28261
G1 X149.382 Y75.663 E0.27878
G1 F6240
G1 X148.774 Y73.494 E-1.23500
G1 E-0.06500 F3600.00000
G1 X111.240 Y28.555 F7800.000
G1 E1.30000 F3600.00000
G1 X108.528 Y31.266 E0.24335 F1080.000
G1 X104.825 Y30.274 E0.24333
G1 X103.833 Y26.570 E0.24333
G1 X106.544 Y23.859 E0.24335
G1 X110.247 Y24.852 E0.24329
G1 X111.224 Y28.497 E0.23949
G1 X111.469 Y28.882 F7800.000
G1 X111.837 Y28.715 F7800.000
G1 X108.688 Y31.863 E0.28261 F1080.000
G1 X104.388 Y30.711 E0.28258
G1 X103.235 Y26.410 E0.28258
G1 X106.384 Y23.262 E0.28261
G1 X110.684 Y24.415 E0.28254
G1 X111.822 Y28.657 E0.27873
G1 F6240
G1 X110.247 Y30.268 E-1.23500
G1 E-0.06500 F3600.00000
G1 X89.119 Y47.776 F7800.000
G1 E1.30000 F3600.00000
G1 X90.111 Y51.479 E0.24332 F1080.000
G1 X87.400 Y54.190 E0.24332
G1 X83.697 Y53.198 E0.24332
G1 X82.705 Y49.495 E0.24332
G1 X85.416 Y46.784 E0.24332
G1 X89.061 Y47.760 E0.23951
G1 X89.517 Y47.741 F7800.000
G1 X89.889 Y42.310 F7800.000
G1 X92.600 Y39.599 E0.24332 F1080.000
G1 X96.303 Y40.592 E0.24330
G1 X97.295 Y44.295 E0.24330
G1 X94.584 Y47.006 E0.24332
G1 X90.881 Y46.014 E0.24332
G1 X89.904 Y42.368 E0.23951
G1 X89.659 Y41.983 F7800.000
G1 F6240
G1 X91.476 Y40.754 E-1.23500
G1 E-0.06500 F3600.00000
G1 X98.065 Y38.830 F7800.000
G1 E1.30000 F3600.00000
G1 X97.073 Y35.126 E0.24333 F1080.000
G1 X99.784 Y32.415 E0.24335
G1 X103.487 Y33.408 E0.24329
G1 X104.480 Y37.111 E0.24329
G1 X101.768 Y39.822 E0.24335
G1 X98.123 Y38.845 E0.23952
G1 X97.666 Y38.865 F7800.000
G1 F6240
G1 X97.511 Y36.677 E-1.23500
G1 E-0.06500 F3600.00000
G1 X85.404 Y57.402 F7800.000
G1 E1.30000 F3600.00000
G1 X107.324 Y35.482 E1.96742 F1458.000
G1 X144.518 Y72.676 E3.33827
G1 X122.598 Y94.596 E1.96742
G1 X128.254 Y100.253 E0.50772
G1 X93.182 Y135.326 E3.14787
G1 X87.525 Y129.669 E0.50772
G1 X72.676 Y144.518 E1.33277
G1 X35.482 Y107.324 E3.33827
G1 X50.331 Y92.475 E1.33277
G1 X44.674 Y86.818 E0.50772
G1 X79.747 Y51.746 E3.14787
G1 X85.361 Y57.360 E0.50391
G1 X85.507 Y57.016 F7800.000
G1 F6240
G1 X86.958 Y55.770 E-1.23500
G1 E-0.06500 F3600.00000
G1 X112.433 Y38.830 F7800.000
G1 E1.30000 F3600.00000
G1 X111.441 Y35.126 E0.24333 F1080.000
G1 X114.153 Y32.415 E0.24335
G1 X117.855 Y33.408 E0.24329
G1 X118.848 Y37.111 E0.24330
G1 X116.137 Y39.822 E0.24335
G1 X112.491 Y38.845 E0.23952
G1 X112.035 Y38.865 F7800.000
G1 F6240
G1 X111.879 Y36.677 E-1.23500
G1 E-0.06500 F3600.00000
G1 X121.337 Y39.599 F7800.000
G1 E1.30000 F3600.00000
G1 X125.040 Y40.592 E0.24330 F1080.000
G1 X126.032 Y44.295 E0.24330
G1 X123.321 Y47.006 E0.24335
G1 X119.618 Y46.014 E0.24333
G1 X118.625 Y42.311 E0.24333
G1 X121.294 Y39.642 E0.23955
G1 X121.506 Y39.237 F7800.000
G1 F6240
G1 X123.478 Y40.196 E-1.23500
G1 E-0.06500 F3600.00000
G1 X128.521 Y46.783 F7800.000
G1 E1.30000 F3600.00000
G1 X132.224 Y47.776 E0.24329 F1080.000
G1 X133.217 Y51.479 E0.24330
G1 X130.505 Y54.190 E0.24335
G1 X126.802 Y53.198 E0.24333
G1 X125.810 Y49.495 E0.24333
G1 X128.479 Y46.826 E0.23954
G1 X128.690 Y46.421 F7800.000
G1 F6240
G1 X130.663 Y47.380 E-1.23500
G1 E-0.06500 F3600.00000
G1 X135.705 Y53.968 F7800.000
G1 E1.30000 F3600.00000
G1 X139.408 Y54.960 E0.24330 F1080.000
G1 X140.401 Y58.663 E0.24330
G1 X137.689 Y61.375 E0.24335
G1 X133.986 Y60.382 E0.24333
G1 X132.994 Y56.679 E0.24333
G1 X135.663 Y54.010 E0.23954
G1 X135.874 Y53.605 F7800.000
G1 F6240
G1 X137.847 Y54.564 E-1.23500
G1 E-0.06500 F3600.00000
G1 X142.889 Y61.152 F7800.000
G1 E1.30000 F3600.00000
G1 X146.592 Y62.145 E0.24329 F1080.000
G1 X147.585 Y65.847 E0.24330
G1 X144.874 Y68.559 E0.24335
G1 X141.170 Y67.567 E0.24333
G1 X140.178 Y63.863 E0.24333
G1 X142.847 Y61.194 E0.23954
G1 X143.059 Y60.789 F7800.000
G1 F6240
G1 X145.031 Y61.749 E-1.23500
G1 E-0.06500 F3600.00000
G1 X142.889 Y75.520 F7800.000
G1 E1.30000 F3600.00000
G1 X146.592 Y76.513 E0.24330 F1080.000
G1 X147.585 Y80.216 E0.24330
G1 X144.874 Y82.927 E0.24335
G1 X141.170 Y81.935 E0.24333
G1 X140.178 Y78.232 E0.24333
G1 X142.847 Y75.563 E0.23954
G1 X143.059 Y75.158 F7800.000
G1 X135.705 Y82.705 F7800.000
G1 X139.408 Y83.697 E0.24331 F1080.000
G1 X140.401 Y87.400 E0.24331
G1 X137.690 Y90.111 E0.24332
G1 X133.986 Y89.119 E0.24332
G1 X132.994 Y85.416 E0.24332
G1 X135.663 Y82.747 E0.23951
G1 X135.874 Y82.342 F7800.000
G1 F6240
G1 X137.847 Y83.301 E-1.23500
G1 E-0.06500 F3600.00000
G1 X132.224 Y90.881 F7800.000
G1 E1.30000 F3600.00000
G1 X133.216 Y94.584 E0.24332 F1080.000
G1 X130.505 Y97.295 E0.24332
G1 X126.802 Y96.303 E0.24332
G1 X125.810 Y92.600 E0.24332
G1 X128.521 Y89.889 E0.24332
G1 X132.166 Y90.866 E0.23952
G1 X132.623 Y90.846 F7800.000
G1 F6240
G1 X132.779 Y93.034 E-1.23500
G1 E-0.06500 F3600.00000
G1 X89.119 Y133.986 F7800.000
G1 E1.30000 F3600.00000
G1 X90.111 Y137.690 E0.24332 F1080.000
G1 X87.400 Y140.401 E0.24332
G1 X83.697 Y139.408 E0.24332
G1 X82.705 Y135.705 E0.24332
G1 X85.416 Y132.994 E0.24332
G1 X89.061 Y133.971 E0.23952
G1 X89.517 Y133.951 F7800.000
G1 F6240
G1 X89.673 Y136.139 E-1.23500
G1 E-0.06500 F3600.00000
G1 X44.295 Y97.295 F7800.000
G1 E1.30000 F3600.00000
G1 X40.592 Y96.303 E0.24332 F1080.000
G1 X39.599 Y92.600 E0.24332
G1 X42.310 Y89.889 E0.24332
G1 X46.014 Y90.881 E0.24332
G1 X47.006 Y94.584 E0.24332
G1 X44.337 Y97.253 E0.23951
G1 X44.126 Y97.658 F7800.000
G1 X38.829 Y98.065 F7800.000
G1 X39.822 Y101.769 E0.24332 F1080.000
G1 X37.111 Y104.480 E0.24332
G1 X33.407 Y103.487 E0.24332
G1 X32.415 Y99.784 E0.24332
G1 X35.126 Y97.073 E0.24332
G1 X38.771 Y98.050 E0.23951
G1 X39.228 Y98.030 F7800.000
G1 F6240
G1 X39.384 Y100.218 E-1.23500
G1 E-0.06500 F3600.00000
G1 X35.126 Y111.441 F7800.000
G1 E1.30000 F3600.00000
G1 X38.829 Y112.434 E0.24332 F1080.000
G1 X39.822 Y116.137 E0.24332
G1 X37.111 Y118.848 E0.24332
G1 X33.407 Y117.856 E0.24332
G1 X32.415 Y114.152 E0.24332
G1 X35.084 Y111.484 E0.23951
G1 X35.295 Y111.079 F7800.000
G1 F6240
G1 X37.268 Y112.038 E-1.23500
G1 E-0.06500 F3600.00000
G1 X42.310 Y118.626 F7800.000
G1 E1.30000 F3600.00000
G1 X46.014 Y119.618 E0.24332 F1080.000
G1 X47.006 Y123.321 E0.24332
G1 X44.295 Y126.032 E0.24332
G1 X40.592 Y125.040 E0.24332
G1 X39.599 Y121.337 E0.24332
G1 X42.268 Y118.668 E0.23951
G1 X42.479 Y118.263 F7800.000
G1 F6240
G1 X44.452 Y119.222 E-1.23500
G1 E-0.06500 F3600.00000
G1 X49.495 Y125.810 F7800.000
G1 E1.30000 F3600.00000
G1 X53.198 Y126.802 E0.24332 F1080.000
G1 X54.190 Y130.505 E0.24332
G1 X51.479 Y133.216 E0.24332
G1 X47.776 Y132.224 E0.24332
G1 X46.784 Y128.521 E0.24332
G1 X49.452 Y125.852 E0.23951
G1 X49.664 Y125.447 F7800.000
G1 F6240
G1 X51.636 Y126.406 E-1.23500
G1 E-0.06500 F3600.00000
G1 X56.679 Y132.994 F7800.000
G1 E1.30000 F3600.00000
G1 X60.382 Y133.986 E0.24332 F1080.000
G1 X61.374 Y137.690 E0.24332
G1 X58.663 Y140.401 E0.24332
G1 X54.960 Y139.408 E0.24332
G1 X53.968 Y135.705 E0.24332
G1 X56.636 Y133.036 E0.23951
G1 X56.848 Y132.632 F7800.000
G1 F6240
G1 X58.821 Y133.590 E-1.23500
G1 E-0.06500 F3600.00000
G1 X63.863 Y140.178 F7800.000
G1 E1.30000 F3600.00000
G1 X67.566 Y141.171 E0.24332 F1080.000
G1 X68.559 Y144.874 E0.24332
G1 X65.848 Y147.585 E0.24332
G1 X62.144 Y146.593 E0.24332
G1 X61.152 Y142.889 E0.24332
G1 X63.821 Y140.221 E0.23951
G1 X64.032 Y139.816 F7800.000
G1 F6240
G1 X66.005 Y140.775 E-1.23500
G1 E-0.06500 F3600.00000
G1 X75.520 Y142.889 F7800.000
G1 E1.30000 F3600.00000
G1 X78.231 Y140.178 E0.24332 F1080.000
G1 X81.935 Y141.171 E0.24332
G1 X82.927 Y144.874 E0.24332
G1 X80.216 Y147.585 E0.24332
G1 X76.513 Y146.593 E0.24332
G1 X75.536 Y142.947 E0.23951
G1 X75.291 Y142.562 F7800.000
G1 X74.986 Y142.965 F7800.000
G1 X72.676 Y145.275 E0.20736 F1620.000
