; generated by Slic3r 1.1.7 on 2015-01-02 at 14:52:18

; perimeters extrusion width = 0.60mm
; infill extrusion width = 0.60mm
; solid infill extrusion width = 0.60mm
; top infill extrusion width = 0.60mm

G21 ; set units to millimeters
M107
M190 S60 ; wait for bed temperature to be reached
M104 S200 ; set temperature
G28 ; home all axes
G92 E0.0 ; reset extruder
M109 S200 ; wait for temperature to be reached
G90 ; use absolute coordinates
M83 ; use relative distances for extrusion
M204 S500
G1 F1800.000 E-1.00000
G1 Z0.300 F7800.000
G1 X50.822 Y41.769 F7800.000
G1 E1.00000 F1800.000
G1 X53.269 Y39.322 E0.24049 F2160.000
G1 X64.731 Y39.322 E0.79635
G1 X67.178 Y41.769 E0.24049
G1 X67.178 Y48.096 E0.43956 F2160.000
G1 X67.504 Y48.422 E0.03207
G1 X92.496 Y48.422 E1.73644
G1 X92.822 Y48.096 E0.03207
G1 X92.822 Y41.769 E0.43956
G1 X95.269 Y39.322 E0.24049
G1 X106.731 Y39.322 E0.79635
G1 X109.178 Y41.769 E0.24049
G1 X109.178 Y128.231 E6.00750
G1 X106.731 Y130.678 E0.24049
G1 X53.269 Y130.678 E3.71460
G1 X50.822 Y128.231 E0.24049
G1 X50.822 Y41.829 E6.00333
G1 X51.379 Y42.000 F7800.000
G1 X53.500 Y39.879 E0.20843 F2160.000
G1 X64.500 Y39.879 E0.76428
G1 X66.621 Y42.000 E0.20843 F2160.000
G1 X66.621 Y48.653 E0.46223
G1 X66.947 Y48.979 E0.03207
G1 X93.053 Y48.979 E1.81385
G1 X93.379 Y48.653 E0.03207
G1 X93.379 Y42.000 E0.46223
G1 X95.500 Y39.879 E0.20843
G1 X106.500 Y39.879 E0.76428
G1 X108.621 Y42.000 E0.20843
G1 X108.621 Y128.000 E5.97544
G1 X106.500 Y130.121 E0.20843
G1 X53.500 Y130.121 E3.68253
G1 X51.379 Y128.000 E0.20843
G1 X51.379 Y42.060 E5.97127
G1 X51.936 Y42.231 F7800.000
G1 X53.731 Y40.436 E0.17636 F2160.000
G1 X64.269 Y40.436 E0.73222
G1 X66.064 Y42.231 E0.17636
G1 X66.064 Y49.210 E0.48491 F2160.000
G1 X66.390 Y49.536 E0.03207
G1 X93.610 Y49.536 E1.89126
G1 X93.936 Y49.210 E0.03207
G1 X93.936 Y42.231 E0.48491
G1 X95.731 Y40.436 E0.17636
G1 X106.269 Y40.436 E0.73222
G1 X108.064 Y42.231 E0.17636
G1 X108.064 Y127.769 E5.94337
G1 X106.269 Y129.564 E0.17636
G1 X53.731 Y129.564 E3.65046
G1 X51.936 Y127.769 E0.17636
G1 X51.936 Y42.291 E5.93920
G1 X52.493 Y42.462 F7800.000
G1 X53.962 Y40.993 E0.14430 F2160.000
G1 X64.038 Y40.993 E0.70015
G1 X65.507 Y42.462 E0.14430 F2160.000
G1 X65.507 Y49.767 E0.50758
G1 X65.833 Y50.093 E0.03207
G1 X94.167 Y50.093 E1.96868
G1 X94.493 Y49.767 E0.03207
G1 X94.493 Y42.462 E0.50758
G1 X95.962 Y40.993 E0.14430
G1 X106.038 Y40.993 E0.70015
G1 X107.507 Y42.462 E0.14430
G1 X107.507 Y127.538 E5.91131
G1 X106.038 Y129.007 E0.14430
G1 X53.962 Y129.007 E3.61840
G1 X52.493 Y127.538 E0.14430
G1 X52.493 Y42.522 E5.90714
G1 X53.050 Y42.692 F7800.000
G1 X54.192 Y41.550 E0.11223 F2160.000
G1 X63.808 Y41.550 E0.66809
G1 X64.950 Y42.692 E0.11223
G1 X64.950 Y50.324 E0.53025 F2160.000
G1 X65.276 Y50.650 E0.03207
G1 X94.724 Y50.650 E2.04609
G1 X95.050 Y50.324 E0.03207
G1 X95.050 Y42.692 E0.53025
G1 X96.192 Y41.550 E0.11223
G1 X105.808 Y41.550 E0.66809
G1 X106.950 Y42.692 E0.11223
G1 X106.950 Y127.308 E5.87924
G1 X105.808 Y128.450 E0.11223
G1 X54.192 Y128.450 E3.58633
G1 X53.050 Y127.308 E0.11223
G1 X53.050 Y42.752 E5.87507
G1 X53.607 Y42.923 F7800.000
G1 X54.423 Y42.107 E0.08016 F2160.000
G1 X63.577 Y42.107 E0.63602
G1 X64.393 Y42.923 E0.08016 F2160.000
G1 X64.393 Y50.881 E0.55293
G1 X64.719 Y51.207 E0.03207
G1 X95.281 Y51.207 E2.12351
G1 X95.607 Y50.881 E0.03207
G1 X95.607 Y42.923 E0.55293
G1 X96.423 Y42.107 E0.08016
G1 X105.577 Y42.107 E0.63602
G1 X106.393 Y42.923 E0.08016
G1 X106.393 Y127.077 E5.84717
G1 X105.577 Y127.893 E0.08016
G1 X54.423 Y127.893 E3.55427
G1 X53.607 Y127.077 E0.08016
G1 X53.607 Y42.983 E5.84301
G1 X54.164 Y43.154 F7800.000
G1 X54.654 Y42.664 E0.04810 F2160.000
G1 X63.346 Y42.664 E0.60396
G1 X63.836 Y43.154 E0.04810
G1 X63.836 Y51.438 E0.57560 F2160.000
G1 X64.162 Y51.764 E0.03207
G1 X95.838 Y51.764 E2.20092
G1 X96.164 Y51.438 E0.03207
G1 X96.164 Y43.154 E0.57560
G1 X96.654 Y42.664 E0.04810
G1 X105.346 Y42.664 E0.60396
G1 X105.836 Y43.154 E0.04810
G1 X105.836 Y126.846 E5.81511
G1 X105.346 Y127.336 E0.04810
G1 X54.654 Y127.336 E3.52220
G1 X54.164 Y126.846 E0.04810
G1 X54.164 Y43.214 E5.81094
G1 X54.885 Y43.221 F7800.000
G1 X63.115 Y43.221 E0.57189 F2160.000
G1 X63.279 Y43.385 E0.01603
G1 X63.279 Y51.995 E0.59828
G1 X63.605 Y52.321 E0.03207
G1 X96.395 Y52.321 E2.27833
G1 X96.721 Y51.995 E0.03207
G1 X96.721 Y43.385 E0.59828
G1 X96.885 Y43.221 E0.01603
G1 X105.115 Y43.221 E0.57189
G1 X105.279 Y43.385 E0.01603
G1 X105.279 Y126.615 E5.78304
G1 X105.115 Y126.779 E0.01603
G1 X54.885 Y126.779 E3.49014
G1 X54.721 Y126.615 E0.01603
G1 X54.721 Y43.385 E5.78304
G1 X54.842 Y43.264 E0.01186
G1 F1800.000 E-1.00000
G1 X60.513 Y43.888 F7800.000
G1 E1.00000 F1800.000
G1 X59.567 Y43.634 E0.06806 F1296.000
G1 X59.433 Y43.634 E0.00931
G1 X58.487 Y43.888 E0.06806
G1 F1800.000 E-1.00000
G1 X99.487 Y43.888 F7800.000
G1 E1.00000 F1800.000
G1 X100.433 Y43.634 E0.06806 F1296.000
G1 X100.567 Y43.634 E0.00931
G1 X101.513 Y43.888 E0.06806
G1 F1800.000 E-1.00000
G1 X97.343 Y48.427 F7800.000
G1 E1.00000 F1800.000
G1 X97.343 Y45.573 E0.19832 F1296.000
G1 F1800.000 E-1.00000
G1 X62.657 Y48.427 F7800.000
G1 E1.00000 F1800.000
G1 X62.657 Y45.573 E0.19832 F1296.000
G1 F1800.000 E-1.00000
G1 X61.173 Y126.195 F7800.000
G1 E1.00000 F1800.000
G1 X58.187 Y126.195 E0.20744 F1296.000
G1 X71.333 Y126.195 F7800.000
G1 X68.347 Y126.195 E0.20743 F1296.000
G1 X81.493 Y126.195 F7800.000
G1 X78.507 Y126.195 E0.20743 F1296.000
G1 X91.653 Y126.195 F7800.000
G1 X88.667 Y126.195 E0.20743 F1296.000
G1 X101.813 Y126.195 F7800.000
G1 X98.827 Y126.195 E0.20745 F1296.000
G1 F1800.000 E-1.00000
G1 X99.241 Y44.130 F7800.000
G1 E1.00000 F1800.000
G1 X97.300 Y45.251 E0.15575 F1296.000
G1 X97.300 Y43.800 E0.10083
G1 X99.153 Y43.800 E0.12873
G1 X99.226 Y44.072 E0.01959
G1 X98.843 Y44.095 F7800.000
G1 F1800.000 E-1.00000
G1 X62.700 Y43.800 F7800.000
G1 E1.00000 F1800.000
G1 X62.700 Y45.251 E0.10083 F1296.000
G1 X60.759 Y44.130 E0.15575
G1 X60.847 Y43.800 E0.02376
G1 X62.640 Y43.800 E0.12456
G1 X62.500 Y44.146 F7800.000
G1 F1800.000 E-1.00000
G1 X56.385 Y45.202 F7800.000
G1 E1.00000 F1800.000
G1 X56.385 Y48.798 E0.24989 F1296.000
G1 X59.500 Y50.596 E0.24989
G1 X62.700 Y48.749 E0.25674
G1 X62.700 Y52.900 E0.28843
G1 X97.300 Y52.900 E2.40408
G1 X97.300 Y48.749 E0.28843
G1 X100.500 Y50.596 E0.25674
G1 X103.615 Y48.798 E0.24989
G1 X103.615 Y45.202 E0.24989
G1 X101.759 Y44.130 E0.14890
G1 X101.847 Y43.800 E0.02376
G1 X104.700 Y43.800 E0.19822
G1 X104.700 Y126.200 E5.72532
G1 X102.156 Y126.200 E0.17673
G1 X104.004 Y123.000 E0.25674
G1 X102.162 Y119.810 E0.25597
G1 X98.478 Y119.810 E0.25597
G1 X96.636 Y123.000 E0.25597
G1 X98.484 Y126.200 E0.25674
G1 X91.996 Y126.200 E0.45074
G1 X93.844 Y123.000 E0.25674
G1 X92.002 Y119.810 E0.25597
G1 X88.318 Y119.810 E0.25596
G1 X86.476 Y123.000 E0.25597
G1 X88.324 Y126.200 E0.25674
G1 X81.836 Y126.200 E0.45075
G1 X83.684 Y123.000 E0.25674
G1 X81.842 Y119.810 E0.25597
G1 X78.158 Y119.810 E0.25596
G1 X76.316 Y123.000 E0.25597
G1 X78.164 Y126.200 E0.25674
G1 X71.676 Y126.200 E0.45075
G1 X73.524 Y123.000 E0.25674
G1 X71.682 Y119.810 E0.25597
G1 X67.998 Y119.810 E0.25596
G1 X66.156 Y123.000 E0.25597
G1 X68.004 Y126.200 E0.25674
G1 X61.516 Y126.200 E0.45075
G1 X63.364 Y123.000 E0.25674
G1 X61.522 Y119.810 E0.25597
G1 X57.838 Y119.810 E0.25597
G1 X55.996 Y123.000 E0.25597
G1 X57.844 Y126.200 E0.25674
G1 X55.300 Y126.200 E0.17673
G1 X55.300 Y43.800 E5.72532
G1 X58.153 Y43.800 E0.19822
G1 X58.241 Y44.130 E0.02376
G1 X56.437 Y45.172 E0.14473
G1 X55.991 Y45.271 F7800.000
G1 F1800.000 E-1.00000
G1 X59.500 Y51.240 F7800.000
G1 E1.00000 F1800.000
G1 X62.143 Y49.714 E0.21205 F1440.000
G1 X62.143 Y53.457 E0.26009
G1 X97.857 Y53.457 E2.48149
G1 X97.857 Y49.714 E0.26009
G1 X100.500 Y51.240 E0.21204
G1 X104.143 Y49.136 E0.29228
G1 X104.143 Y60.506 E0.78998
G1 X103.813 Y60.594 E0.02376
G1 X102.484 Y58.293 E0.18468
G1 X98.156 Y58.293 E0.30067
G1 X95.993 Y62.040 E0.30066
G1 X98.156 Y65.787 E0.30066
G1 X102.484 Y65.787 E0.30067
G1 X103.813 Y63.486 E0.18468
G1 X104.143 Y63.574 E0.02376
G1 X104.143 Y70.666 E0.49276
G1 X103.813 Y70.754 E0.02376
G1 X102.484 Y68.453 E0.18468
G1 X98.156 Y68.453 E0.30067
G1 X95.993 Y72.200 E0.30066
G1 X98.156 Y75.947 E0.30066
G1 X102.484 Y75.947 E0.30067
G1 X103.813 Y73.646 E0.18468
G1 X104.143 Y73.734 E0.02376
G1 X104.143 Y80.826 E0.49276
G1 X103.813 Y80.914 E0.02376
G1 X102.484 Y78.613 E0.18468
G1 X98.156 Y78.613 E0.30067
G1 X95.993 Y82.360 E0.30066
G1 X98.156 Y86.107 E0.30066
G1 X102.484 Y86.107 E0.30067
G1 X103.813 Y83.806 E0.18468
G1 X104.143 Y83.894 E0.02376
G1 X104.143 Y90.986 E0.49276
G1 X103.813 Y91.074 E0.02376
G1 X102.484 Y88.773 E0.18468
G1 X98.156 Y88.773 E0.30067
G1 X95.993 Y92.520 E0.30066
G1 X98.156 Y96.267 E0.30066
G1 X102.484 Y96.267 E0.30067
G1 X103.813 Y93.966 E0.18468
G1 X104.143 Y94.054 E0.02376
G1 X104.143 Y101.146 E0.49276
G1 X103.813 Y101.234 E0.02376
G1 X102.484 Y98.933 E0.18468
G1 X98.156 Y98.933 E0.30067
G1 X95.993 Y102.680 E0.30066
G1 X98.156 Y106.427 E0.30066
G1 X102.484 Y106.427 E0.30067
G1 X103.813 Y104.126 E0.18468
G1 X104.143 Y104.214 E0.02376
G1 X104.143 Y111.306 E0.49276
G1 X103.813 Y111.394 E0.02376
G1 X102.484 Y109.093 E0.18468
G1 X98.156 Y109.093 E0.30067
G1 X95.993 Y112.840 E0.30066
G1 X98.156 Y116.587 E0.30066
G1 X102.484 Y116.587 E0.30067
G1 X103.813 Y114.286 E0.18468
G1 X104.143 Y114.374 E0.02376
G1 X104.143 Y121.466 E0.49276
G1 X103.813 Y121.554 E0.02376
G1 X102.484 Y119.253 E0.18468
G1 X98.156 Y119.253 E0.30067
G1 X95.993 Y123.000 E0.30066
G1 X97.519 Y125.643 E0.21204
G1 X92.961 Y125.643 E0.31666
G1 X94.487 Y123.000 E0.21204
G1 X92.324 Y119.253 E0.30067
G1 X87.996 Y119.253 E0.30065
G1 X85.833 Y123.000 E0.30067
G1 X87.359 Y125.643 E0.21204
G1 X82.801 Y125.643 E0.31666
G1 X84.327 Y123.000 E0.21204
G1 X82.164 Y119.253 E0.30067
G1 X77.836 Y119.253 E0.30065
G1 X75.673 Y123.000 E0.30067
G1 X77.199 Y125.643 E0.21204
G1 X72.641 Y125.643 E0.31666
G1 X74.167 Y123.000 E0.21204
G1 X72.004 Y119.253 E0.30066
G1 X67.676 Y119.253 E0.30065
G1 X65.513 Y123.000 E0.30067
G1 X67.039 Y125.643 E0.21204
G1 X62.481 Y125.643 E0.31666
G1 X64.007 Y123.000 E0.21204
G1 X61.844 Y119.253 E0.30066
G1 X57.516 Y119.253 E0.30066
G1 X56.187 Y121.554 E0.18469
G1 X55.857 Y121.466 E0.02376
G1 X55.857 Y114.374 E0.49276
G1 X56.187 Y114.286 E0.02376
G1 X57.516 Y116.587 E0.18469
G1 X61.844 Y116.587 E0.30066
G1 X64.007 Y112.840 E0.30066
G1 X61.844 Y109.093 E0.30066
G1 X57.516 Y109.093 E0.30066
G1 X56.187 Y111.394 E0.18469
G1 X55.857 Y111.306 E0.02376
G1 X55.857 Y104.214 E0.49276
G1 X56.187 Y104.126 E0.02376
G1 X57.516 Y106.427 E0.18469
G1 X61.844 Y106.427 E0.30066
G1 X64.007 Y102.680 E0.30066
G1 X61.844 Y98.933 E0.30066
G1 X57.516 Y98.933 E0.30066
G1 X56.187 Y101.234 E0.18469
G1 X55.857 Y101.146 E0.02376
G1 X55.857 Y94.054 E0.49276
G1 X56.187 Y93.966 E0.02376
G1 X57.516 Y96.267 E0.18469
G1 X61.844 Y96.267 E0.30066
G1 X64.007 Y92.520 E0.30066
G1 X61.844 Y88.773 E0.30066
G1 X57.516 Y88.773 E0.30066
G1 X56.187 Y91.074 E0.18469
G1 X55.857 Y90.986 E0.02376
G1 X55.857 Y83.894 E0.49276
G1 X56.187 Y83.806 E0.02376
G1 X57.516 Y86.107 E0.18469
G1 X61.844 Y86.107 E0.30066
G1 X64.007 Y82.360 E0.30066
G1 X61.844 Y78.613 E0.30066
G1 X57.516 Y78.613 E0.30066
G1 X56.187 Y80.914 E0.18469
G1 X55.857 Y80.826 E0.02376
G1 X55.857 Y73.734 E0.49276
G1 X56.187 Y73.646 E0.02376
G1 X57.516 Y75.947 E0.18469
G1 X61.844 Y75.947 E0.30066
G1 X64.007 Y72.200 E0.30066
G1 X61.844 Y68.453 E0.30066
G1 X57.516 Y68.453 E0.30066
G1 X56.187 Y70.754 E0.18469
G1 X55.857 Y70.666 E0.02376
G1 X55.857 Y63.574 E0.49276
G1 X56.187 Y63.486 E0.02376
G1 X57.516 Y65.787 E0.18469
G1 X61.844 Y65.787 E0.30066
G1 X64.007 Y62.040 E0.30066
G1 X61.844 Y58.293 E0.30066
G1 X57.516 Y58.293 E0.30066
G1 X56.187 Y60.594 E0.18469
G1 X55.857 Y60.506 E0.02376
G1 X55.857 Y49.136 E0.78998
G1 X59.448 Y51.210 E0.28811
G1 F1800.000 E-1.00000
G1 X56.187 Y124.446 F7800.000
G1 E1.00000 F1800.000
G1 X56.879 Y125.643 E0.09607 F1440.000
G1 X55.857 Y125.643 E0.07098
G1 X55.857 Y124.534 E0.07705
G1 X56.129 Y124.461 E0.01959
G1 F1800.000 E-1.00000
G1 X103.121 Y125.643 F7800.000
G1 E1.00000 F1800.000
G1 X103.813 Y124.446 E0.09606 F1440.000
G1 X104.143 Y124.534 E0.02376
G1 X104.143 Y125.643 E0.07705
G1 X103.181 Y125.643 E0.06681
G1 F1800.000 E-1.00000
G1 X73.524 Y112.840 F7800.000
G1 E1.00000 F1800.000
G1 X71.682 Y116.030 E0.25597 F1296.000
G1 X67.998 Y116.030 E0.25596
G1 X66.156 Y112.840 E0.25597
G1 X67.998 Y109.650 E0.25597
G1 X71.682 Y109.650 E0.25596
G1 X73.494 Y112.788 E0.25180
G1 X73.830 Y113.097 F7800.000
G1 X74.167 Y112.840 F7800.000
G1 X72.004 Y116.587 E0.30067 F1440.000
G1 X67.676 Y116.587 E0.30065
G1 X65.513 Y112.840 E0.30067
G1 X67.676 Y109.093 E0.30066
G1 X72.004 Y109.093 E0.30065
G1 X74.137 Y112.788 E0.29650
G1 X73.524 Y102.680 F7800.000
G1 X71.682 Y105.870 E0.25597 F1296.000
G1 X67.998 Y105.870 E0.25596
G1 X66.156 Y102.680 E0.25597
G1 X67.998 Y99.490 E0.25597
G1 X71.682 Y99.490 E0.25596
G1 X73.494 Y102.628 E0.25180
G1 X73.830 Y102.937 F7800.000
G1 X74.167 Y102.680 F7800.000
G1 X72.004 Y106.427 E0.30066 F1440.000
G1 X67.676 Y106.427 E0.30065
G1 X65.513 Y102.680 E0.30067
G1 X67.676 Y98.933 E0.30067
G1 X72.004 Y98.933 E0.30065
G1 X74.137 Y102.628 E0.29650
G1 X73.524 Y92.520 F7800.000
G1 X71.682 Y95.710 E0.25597 F1296.000
G1 X67.998 Y95.710 E0.25596
G1 X66.156 Y92.520 E0.25597
G1 X67.998 Y89.330 E0.25597
G1 X71.682 Y89.330 E0.25596
G1 X73.494 Y92.468 E0.25180
G1 X73.830 Y92.777 F7800.000
G1 X74.167 Y92.520 F7800.000
G1 X72.004 Y96.267 E0.30066 F1440.000
G1 X67.676 Y96.267 E0.30065
G1 X65.513 Y92.520 E0.30067
G1 X67.676 Y88.773 E0.30067
G1 X72.004 Y88.773 E0.30065
G1 X74.137 Y92.468 E0.29650
G1 X73.524 Y82.360 F7800.000
G1 X71.682 Y85.550 E0.25597 F1296.000
G1 X67.998 Y85.550 E0.25596
G1 X66.156 Y82.360 E0.25597
G1 X67.998 Y79.170 E0.25597
G1 X71.682 Y79.170 E0.25596
G1 X73.494 Y82.308 E0.25180
G1 X73.830 Y82.617 F7800.000
G1 X74.167 Y82.360 F7800.000
G1 X72.004 Y86.107 E0.30066 F1440.000
G1 X67.676 Y86.107 E0.30065
G1 X65.513 Y82.360 E0.30067
G1 X67.676 Y78.613 E0.30067
G1 X72.004 Y78.613 E0.30065
G1 X74.137 Y82.308 E0.29650
G1 X73.524 Y72.200 F7800.000
G1 X71.682 Y75.390 E0.25597 F1296.000
G1 X67.998 Y75.390 E0.25596
G1 X66.156 Y72.200 E0.25597
G1 X67.998 Y69.010 E0.25597
G1 X71.682 Y69.010 E0.25596
G1 X73.494 Y72.148 E0.25180
G1 X73.830 Y72.457 F7800.000
G1 X74.167 Y72.200 F7800.000
G1 X72.004 Y75.947 E0.30066 F1440.000
G1 X67.676 Y75.947 E0.30065
G1 X65.513 Y72.200 E0.30067
G1 X67.676 Y68.453 E0.30067
G1 X72.004 Y68.453 E0.30065
G1 X74.137 Y72.148 E0.29650
G1 X73.524 Y62.040 F7800.000
G1 X71.682 Y65.230 E0.25597 F1296.000
G1 X67.998 Y65.230 E0.25596
G1 X66.156 Y62.040 E0.25597
G1 X67.998 Y58.850 E0.25597
G1 X71.682 Y58.850 E0.25596
G1 X73.494 Y61.988 E0.25180
G1 X73.830 Y62.297 F7800.000
G1 X74.167 Y62.040 F7800.000
G1 X72.004 Y65.787 E0.30066 F1440.000
G1 X67.676 Y65.787 E0.30065
G1 X65.513 Y62.040 E0.30067
G1 X67.676 Y58.293 E0.30067
G1 X72.004 Y58.293 E0.30065
G1 X74.137 Y61.988 E0.29650
G1 X76.316 Y62.040 F7800.000
G1 X78.158 Y58.850 E0.25597 F1296.000
G1 X81.842 Y58.850 E0.25596
G1 X83.684 Y62.040 E0.25597
G1 X81.842 Y65.230 E0.25597
G1 X78.158 Y65.230 E0.25596
G1 X76.346 Y62.092 E0.25180
G1 X76.010 Y61.783 F7800.000
G1 X75.673 Y62.040 F7800.000
G1 X77.836 Y58.293 E0.30067 F1440.000
G1 X82.164 Y58.293 E0.30065
G1 X84.327 Y62.040 E0.30067
G1 X82.164 Y65.787 E0.30067
G1 X77.836 Y65.787 E0.30065
G1 X75.703 Y62.092 E0.29650
G1 F1800.000 E-1.00000
G1 X86.476 Y62.040 F7800.000
G1 E1.00000 F1800.000
G1 X88.318 Y58.850 E0.25597 F1296.000
G1 X92.002 Y58.850 E0.25596
G1 X93.844 Y62.040 E0.25597
G1 X92.002 Y65.230 E0.25597
G1 X88.318 Y65.230 E0.25596
G1 X86.506 Y62.092 E0.25180
G1 X86.170 Y61.783 F7800.000
G1 X85.833 Y62.040 F7800.000
G1 X87.996 Y58.293 E0.30066 F1440.000
G1 X92.324 Y58.293 E0.30065
G1 X94.487 Y62.040 E0.30067
G1 X92.324 Y65.787 E0.30067
G1 X87.996 Y65.787 E0.30065
G1 X85.863 Y62.092 E0.29650
G1 F1800.000 E-1.00000
G1 X98.478 Y58.850 F7800.000
G1 E1.00000 F1800.000
G1 X102.162 Y58.850 E0.25597 F1296.000
G1 X104.004 Y62.040 E0.25597
