; generated by Slic3r 1.1.7 on 2015-01-21 at 23:51:26

; perimeters extrusion width = 0.40mm
; infill extrusion width = 0.42mm
; solid infill extrusion width = 0.42mm
; top infill extrusion width = 0.42mm

G21 ; set units to millimeters
M107
M190 S60 ; wait for bed temperature to be reached
M104 S200 ; set temperature
G28 ; home all axes
G92 E0.0 ; reset extruder
M109 S200 ; wait for temperature to be reached
G90 ; use absolute coordinates
M83 ; use relative distances for extrusion
M204 S500
G1 F1800.000 E-1.10000
G1 Z0.300 F7800.000
G1 X28.269 Y55.822 F7800.000
G1 E1.10000 F1800.000
G1 X131.731 Y55.822 E6.11039 F2160.000
G1 X134.178 Y58.269 E0.20442
G1 X134.178 Y111.731 E3.15741 F2160.000
G1 X131.731 Y114.178 E0.20442
G1 X28.269 Y114.178 E6.11039
G1 X25.822 Y111.731 E0.20442
G1 X25.822 Y58.269 E3.15741
G1 X28.227 Y55.864 E0.20088
G1 X28.500 Y56.379 F7800.000
G1 X131.500 Y56.379 E6.08314 F2160.000
G1 X133.621 Y58.500 E0.17716 F2160.000
G1 X133.621 Y111.500 E3.13015
G1 X131.500 Y113.621 E0.17716
G1 X28.500 Y113.621 E6.08314
G1 X26.379 Y111.500 E0.17716
G1 X26.379 Y58.500 E3.13015
G1 X28.458 Y56.421 E0.17362
G1 X28.731 Y56.936 F7800.000
G1 X131.269 Y56.936 E6.05588 F2160.000
G1 X133.064 Y58.731 E0.14991
G1 X133.064 Y111.269 E3.10289 F2160.000
G1 X131.269 Y113.064 E0.14991
G1 X28.731 Y113.064 E6.05588
G1 X26.936 Y111.269 E0.14991
G1 X26.936 Y58.731 E3.10289
G1 X28.688 Y56.978 E0.14636
G1 X28.962 Y57.493 F7800.000
G1 X131.038 Y57.493 E6.02863 F2160.000
G1 X132.507 Y58.962 E0.12265 F2160.000
G1 X132.507 Y111.038 E3.07564
G1 X131.038 Y112.507 E0.12265
G1 X28.962 Y112.507 E6.02863
G1 X27.493 Y111.038 E0.12265
G1 X27.493 Y58.962 E3.07564
G1 X28.919 Y57.536 E0.11911
G1 X29.192 Y58.050 F7800.000
G1 X130.808 Y58.050 E6.00137 F2160.000
G1 X131.950 Y59.192 E0.09540
G1 X131.950 Y110.808 E3.04838 F2160.000
G1 X130.808 Y111.950 E0.09540
G1 X29.192 Y111.950 E6.00137
G1 X28.050 Y110.808 E0.09540
G1 X28.050 Y59.192 E3.04838
G1 X29.150 Y58.093 E0.09185
G1 X29.423 Y58.607 F7800.000
G1 X130.577 Y58.607 E5.97411 F2160.000
G1 X131.393 Y59.423 E0.06814 F2160.000
G1 X131.393 Y110.577 E3.02113
G1 X130.577 Y111.393 E0.06814
G1 X29.423 Y111.393 E5.97411
G1 X28.607 Y110.577 E0.06814
G1 X28.607 Y59.423 E3.02113
G1 X29.381 Y58.650 E0.06460
G1 X29.654 Y59.164 F7800.000
G1 X130.346 Y59.164 E5.94686 F2160.000
G1 X130.836 Y59.654 E0.04088
G1 X130.836 Y110.346 E2.99387 F2160.000
G1 X130.346 Y110.836 E0.04088
G1 X29.654 Y110.836 E5.94686
G1 X29.164 Y110.346 E0.04088
G1 X29.164 Y59.654 E2.99387
G1 X29.611 Y59.207 E0.03734
G1 X29.885 Y59.721 F7800.000
G1 X130.115 Y59.721 E5.91960 F2160.000
G1 X130.279 Y59.885 E0.01363
G1 X130.279 Y110.115 E2.96661
G1 X130.115 Y110.279 E0.01363
G1 X29.885 Y110.279 E5.91960
G1 X29.721 Y110.115 E0.01363
G1 X29.721 Y59.885 E2.96661
G1 X29.842 Y59.764 E0.01008
G1 F1800.000 E-1.10000
G1 X129.700 Y109.700 F7800.000
G1 E1.10000 F1800.000
G1 X30.300 Y109.700 E5.87054 F1296.000
G1 X30.300 Y60.300 E2.91755
G1 X129.700 Y60.300 E5.87054
G1 X129.700 Y109.640 E2.91401
G1 X129.354 Y109.500 F7800.000
G1 X129.143 Y109.143 F7800.000
G1 X127.561 Y109.143 E0.09345 F1440.000
G1 X127.472 Y108.813 E0.02020
G1 X129.143 Y107.848 E0.11394
G1 X129.143 Y109.083 E0.07293
G1 X129.143 Y62.152 F7800.000
G1 X127.472 Y61.187 E0.11394 F1440.000
G1 X127.561 Y60.857 E0.02020
G1 X129.143 Y60.857 E0.09345
G1 X129.143 Y62.092 E0.07293
G1 F1800.000 E-1.10000
G1 X122.149 Y62.491 F7800.000
G1 E1.10000 F1800.000
G1 X122.149 Y66.869 E0.25852 F1440.000
G1 X125.940 Y69.057 E0.25851
G1 X129.143 Y67.208 E0.21843
G1 X129.143 Y102.792 E2.10158
G1 X125.940 Y100.943 E0.21843
G1 X122.149 Y103.131 E0.25852
G1 X122.149 Y107.509 E0.25851
G1 X124.408 Y108.813 E0.15403
G1 X124.319 Y109.143 E0.02020
G1 X112.861 Y109.143 E0.67670
G1 X114.965 Y105.500 E0.24843
G1 X112.732 Y101.633 E0.26368
G1 X108.268 Y101.633 E0.26368
G1 X106.035 Y105.500 E0.26368
G1 X108.139 Y109.143 E0.24843
G1 X97.392 Y109.143 E0.63467
G1 X97.304 Y108.813 E0.02020
G1 X99.251 Y107.689 E0.13277
G1 X99.251 Y103.311 E0.25851
G1 X95.460 Y101.123 E0.25852
G1 X91.669 Y103.311 E0.25852
G1 X91.669 Y107.689 E0.25851
G1 X93.616 Y108.813 E0.13277
G1 X93.528 Y109.143 E0.02020
G1 X87.232 Y109.143 E0.37179
G1 X87.144 Y108.813 E0.02020
G1 X89.091 Y107.689 E0.13277
G1 X89.091 Y103.311 E0.25851
G1 X85.300 Y101.123 E0.25852
G1 X81.509 Y103.311 E0.25852
G1 X81.509 Y107.689 E0.25851
G1 X83.456 Y108.813 E0.13277
G1 X83.368 Y109.143 E0.02020
G1 X77.072 Y109.143 E0.37179
G1 X76.984 Y108.813 E0.02020
G1 X78.931 Y107.689 E0.13277
G1 X78.931 Y103.311 E0.25851
G1 X75.140 Y101.123 E0.25852
G1 X71.349 Y103.311 E0.25852
G1 X71.349 Y107.689 E0.25851
G1 X73.296 Y108.813 E0.13277
G1 X73.208 Y109.143 E0.02020
G1 X66.912 Y109.143 E0.37179
G1 X66.824 Y108.813 E0.02020
G1 X68.771 Y107.689 E0.13277
G1 X68.771 Y103.311 E0.25851
G1 X64.980 Y101.123 E0.25852
G1 X61.189 Y103.311 E0.25852
G1 X61.189 Y107.689 E0.25851
G1 X63.136 Y108.813 E0.13277
G1 X63.048 Y109.143 E0.02020
G1 X56.752 Y109.143 E0.37179
G1 X56.664 Y108.813 E0.02020
G1 X58.611 Y107.689 E0.13277
G1 X58.611 Y103.311 E0.25851
G1 X54.820 Y101.123 E0.25852
G1 X51.029 Y103.311 E0.25852
G1 X51.029 Y107.689 E0.25851
G1 X52.976 Y108.813 E0.13277
G1 X52.888 Y109.143 E0.02020
G1 X46.592 Y109.143 E0.37179
G1 X46.504 Y108.813 E0.02020
G1 X48.451 Y107.689 E0.13277
G1 X48.451 Y103.311 E0.25851
G1 X44.660 Y101.123 E0.25852
G1 X40.869 Y103.311 E0.25852
G1 X40.869 Y107.689 E0.25852
G1 X42.816 Y108.813 E0.13277
G1 X42.728 Y109.143 E0.02020
G1 X36.432 Y109.143 E0.37179
G1 X36.344 Y108.813 E0.02020
G1 X38.291 Y107.689 E0.13277
G1 X38.291 Y103.311 E0.25851
G1 X34.500 Y101.123 E0.25851
G1 X30.857 Y103.226 E0.24843
G1 X30.857 Y97.614 E0.33145
G1 X34.500 Y99.717 E0.24843
G1 X38.291 Y97.529 E0.25852
G1 X38.291 Y93.151 E0.25851
G1 X34.500 Y90.963 E0.25851
G1 X30.857 Y93.066 E0.24843
G1 X30.857 Y87.454 E0.33145
G1 X34.500 Y89.557 E0.24843
G1 X38.291 Y87.369 E0.25852
G1 X38.291 Y82.991 E0.25851
G1 X34.500 Y80.803 E0.25851
G1 X30.857 Y82.906 E0.24843
G1 X30.857 Y77.294 E0.33145
G1 X34.500 Y79.397 E0.24844
G1 X38.291 Y77.209 E0.25852
G1 X38.291 Y72.831 E0.25851
G1 X34.500 Y70.643 E0.25851
G1 X30.857 Y72.746 E0.24843
G1 X30.857 Y66.774 E0.35271
G1 X34.500 Y68.877 E0.24843
G1 X38.291 Y66.689 E0.25851
G1 X38.291 Y62.311 E0.25852
G1 X36.344 Y61.187 E0.13276
G1 X36.432 Y60.857 E0.02020
G1 X43.351 Y60.857 E0.40862
G1 X43.440 Y61.187 E0.02020
G1 X40.869 Y62.671 E0.17529
G1 X40.869 Y67.049 E0.25852
G1 X44.660 Y69.237 E0.25851
G1 X48.451 Y67.049 E0.25851
G1 X48.451 Y62.671 E0.25852
G1 X45.880 Y61.187 E0.17529
G1 X45.969 Y60.857 E0.02020
G1 X53.511 Y60.857 E0.44544
G1 X53.600 Y61.187 E0.02020
G1 X51.029 Y62.671 E0.17529
G1 X51.029 Y67.049 E0.25852
G1 X54.820 Y69.237 E0.25851
G1 X58.611 Y67.049 E0.25851
G1 X58.611 Y62.671 E0.25852
G1 X56.040 Y61.187 E0.17529
G1 X56.129 Y60.857 E0.02020
G1 X63.671 Y60.857 E0.44544
G1 X63.760 Y61.187 E0.02020
G1 X61.189 Y62.671 E0.17529
G1 X61.189 Y67.049 E0.25852
G1 X64.980 Y69.237 E0.25851
G1 X68.771 Y67.049 E0.25851
G1 X68.771 Y62.671 E0.25852
G1 X66.200 Y61.187 E0.17529
G1 X66.289 Y60.857 E0.02020
G1 X73.831 Y60.857 E0.44544
G1 X73.920 Y61.187 E0.02020
G1 X71.349 Y62.671 E0.17529
G1 X71.349 Y67.049 E0.25852
G1 X75.140 Y69.237 E0.25851
G1 X78.931 Y67.049 E0.25851
G1 X78.931 Y62.671 E0.25852
G1 X76.360 Y61.187 E0.17529
G1 X76.449 Y60.857 E0.02020
G1 X83.991 Y60.857 E0.44544
G1 X84.080 Y61.187 E0.02020
G1 X81.509 Y62.671 E0.17529
G1 X81.509 Y67.049 E0.25852
G1 X85.300 Y69.237 E0.25851
G1 X89.091 Y67.049 E0.25851
G1 X89.091 Y62.671 E0.25852
G1 X86.520 Y61.187 E0.17529
G1 X86.609 Y60.857 E0.02020
G1 X94.151 Y60.857 E0.44544
G1 X94.240 Y61.187 E0.02020
G1 X91.669 Y62.671 E0.17529
G1 X91.669 Y67.049 E0.25852
G1 X95.460 Y69.237 E0.25851
G1 X99.251 Y67.049 E0.25851
G1 X99.251 Y62.671 E0.25852
G1 X96.680 Y61.187 E0.17529
G1 X96.769 Y60.857 E0.02020
G1 X108.139 Y60.857 E0.67149
G1 X106.035 Y64.500 E0.24843
G1 X108.268 Y68.366 E0.26368
G1 X112.732 Y68.366 E0.26368
G1 X114.965 Y64.500 E0.26368
G1 X112.861 Y60.857 E0.24843
G1 X124.319 Y60.857 E0.67670
G1 X124.408 Y61.187 E0.02020
G1 X122.201 Y62.461 E0.15048
G1 F1800.000 E-1.10000
G1 X32.656 Y61.187 F7800.000
G1 E1.10000 F1800.000
G1 X30.857 Y62.226 E0.12268 F1440.000
G1 X30.857 Y60.857 E0.08085
G1 X32.568 Y60.857 E0.10102
G1 X32.641 Y61.129 E0.01665
G1 F1800.000 E-1.10000
G1 X30.857 Y107.774 F7800.000
G1 E1.10000 F1800.000
G1 X32.656 Y108.813 E0.12269 F1440.000
G1 X32.568 Y109.143 E0.02020
G1 X30.857 Y109.143 E0.10102
G1 X30.857 Y107.834 E0.07731
G1 X34.500 Y109.234 F7800.000
G1 X31.266 Y107.367 E0.22052 F1296.000
G1 X31.266 Y103.633 E0.22052
G1 X34.500 Y101.766 E0.22052
G1 X37.734 Y103.633 E0.22052
G1 X37.734 Y107.367 E0.22052
G1 X34.552 Y109.204 E0.21698
G1 X34.243 Y109.540 F7800.000
G1 F1800.000 E-1.10000
G1 X34.500 Y99.074 F7800.000
G1 E1.10000 F1800.000
G1 X31.266 Y97.207 E0.22052 F1296.000
G1 X31.266 Y93.473 E0.22053
G1 X34.500 Y91.606 E0.22052
G1 X37.734 Y93.473 E0.22052
G1 X37.734 Y97.207 E0.22052
G1 X34.552 Y99.044 E0.21698
G1 X34.243 Y99.380 F7800.000
G1 F1800.000 E-1.10000
G1 X31.266 Y87.047 F7800.000
G1 E1.10000 F1800.000
G1 X31.266 Y83.313 E0.22053 F1296.000
G1 X34.500 Y81.446 E0.22052
G1 X37.734 Y83.313 E0.22052
G1 X37.734 Y87.047 E0.22052
G1 X34.500 Y88.914 E0.22052
G1 X31.318 Y87.077 E0.21698
G1 X30.872 Y86.978 F7800.000
G1 F1800.000 E-1.10000
G1 X34.500 Y78.754 F7800.000
G1 E1.10000 F1800.000
G1 X31.266 Y76.887 E0.22053 F1296.000
G1 X31.266 Y73.153 E0.22052
G1 X34.500 Y71.286 E0.22052
G1 X37.734 Y73.153 E0.22052
G1 X37.734 Y76.887 E0.22052
G1 X34.552 Y78.724 E0.21698
G1 X34.243 Y79.060 F7800.000
G1 F1800.000 E-1.10000
G1 X31.266 Y66.367 F7800.000
G1 E1.10000 F1800.000
G1 X31.266 Y62.633 E0.22053 F1296.000
G1 X34.500 Y60.766 E0.22052
G1 X37.734 Y62.633 E0.22052
G1 X37.734 Y66.367 E0.22053
G1 X34.500 Y68.234 E0.22052
G1 X31.318 Y66.397 E0.21698
G1 X30.872 Y66.298 F7800.000
G1 F1800.000 E-1.10000
G1 X41.426 Y66.727 F7800.000
G1 E1.10000 F1800.000
G1 X41.426 Y62.993 E0.22053 F1296.000
G1 X44.660 Y61.126 E0.22052
G1 X47.894 Y62.993 E0.22052
G1 X47.894 Y66.727 E0.22053
G1 X44.660 Y68.594 E0.22052
G1 X41.478 Y66.757 E0.21698
G1 X41.032 Y66.658 F7800.000
G1 F1800.000 E-1.10000
G1 X51.586 Y62.993 F7800.000
G1 E1.10000 F1800.000
G1 X54.820 Y61.126 E0.22052 F1296.000
G1 X58.054 Y62.993 E0.22052
G1 X58.054 Y66.727 E0.22053
G1 X54.820 Y68.594 E0.22052
G1 X51.586 Y66.727 E0.22052
G1 X51.586 Y63.053 E0.21699
G1 X51.449 Y62.617 F7800.000
G1 F1800.000 E-1.10000
G1 X61.746 Y62.993 F7800.000
G1 E1.10000 F1800.000
G1 X64.980 Y61.126 E0.22052 F1296.000
G1 X68.214 Y62.993 E0.22052
G1 X68.214 Y66.727 E0.22053
G1 X64.980 Y68.594 E0.22052
G1 X61.746 Y66.727 E0.22052
G1 X61.746 Y63.053 E0.21699
G1 X61.609 Y62.617 F7800.000
G1 F1800.000 E-1.10000
G1 X71.906 Y62.993 F7800.000
G1 E1.10000 F1800.000
G1 X75.140 Y61.126 E0.22052 F1296.000
G1 X78.374 Y62.993 E0.22052
G1 X78.374 Y66.727 E0.22053
G1 X75.140 Y68.594 E0.22052
G1 X71.906 Y66.727 E0.22052
G1 X71.906 Y63.053 E0.21699
G1 X71.769 Y62.617 F7800.000
G1 F1800.000 E-1.10000
G1 X82.066 Y62.993 F7800.000
G1 E1.10000 F1800.000
G1 X85.300 Y61.126 E0.22052 F1296.000
G1 X88.534 Y62.993 E0.22052
G1 X88.534 Y66.727 E0.22053
G1 X85.300 Y68.594 E0.22052
G1 X82.066 Y66.727 E0.22052
G1 X82.066 Y63.053 E0.21699
G1 X81.929 Y62.617 F7800.000
G1 F1800.000 E-1.10000
G1 X92.226 Y62.993 F7800.000
G1 E1.10000 F1800.000
G1 X95.460 Y61.126 E0.22052 F1296.000
G1 X98.694 Y62.993 E0.22052
G1 X98.694 Y66.727 E0.22053
G1 X95.460 Y68.594 E0.22052
G1 X92.226 Y66.727 E0.22052
G1 X92.226 Y63.053 E0.21699
G1 X92.089 Y62.617 F7800.000
G1 F1800.000 E-1.10000
G1 X106.679 Y64.500 F7800.000
G1 E1.10000 F1800.000
G1 X108.589 Y61.191 E0.22569 F1296.000
G1 X112.411 Y61.191 E0.22569
G1 X114.321 Y64.500 E0.22569
G1 X112.411 Y67.809 E0.22569
G1 X108.589 Y67.809 E0.22569
G1 X106.709 Y64.552 E0.22215
G1 X106.372 Y64.243 F7800.000
G1 F1800.000 E-1.10000
G1 X122.706 Y62.813 F7800.000
G1 E1.10000 F1800.000
G1 X125.940 Y60.946 E0.22052 F1296.000
G1 X129.174 Y62.813 E0.22052
G1 X129.174 Y66.547 E0.22053
G1 X125.940 Y68.414 E0.22052
G1 X122.706 Y66.547 E0.22052
G1 X122.706 Y62.873 E0.21699
G1 X122.569 Y62.437 F7800.000
G1 X119.014 Y83.133 F7800.000
G1 X119.014 Y86.867 E0.22052 F1296.000
G1 X115.780 Y88.734 E0.22053
G1 X112.546 Y86.867 E0.22052
G1 X112.546 Y83.133 E0.22053
G1 X115.780 Y81.266 E0.22052
G1 X118.962 Y83.103 E0.21698
G1 X119.408 Y83.202 F7800.000
G1 X119.571 Y82.811 F7800.000
G1 X119.571 Y87.189 E0.25852 F1440.000
G1 X115.780 Y89.377 E0.25852
G1 X111.989 Y87.189 E0.25852
G1 X111.989 Y82.811 E0.25852
G1 X115.780 Y80.623 E0.25851
G1 X119.519 Y82.781 E0.25497
G1 F1800.000 E-1.10000
G1 X112.411 Y102.191 F7800.000
G1 E1.10000 F1800.000
G1 X114.321 Y105.500 E0.22569 F1296.000
G1 X112.411 Y108.809 E0.22569
G1 X108.589 Y108.809 E0.22569
G1 X106.679 Y105.500 E0.22569
G1 X108.589 Y102.191 E0.22569
G1 X112.351 Y102.191 E0.22215
G1 X112.787 Y102.054 F7800.000
G1 X99.300 Y99.300 F7800.000
G1 X71.700 Y99.300 E1.63005 F1296.000
G1 X71.700 Y70.700 E1.68911
G1 X99.300 Y70.700 E1.63005
G1 X99.300 Y99.240 E1.68556
G1 X99.300 Y99.700 F7800.000
G1 X99.857 Y99.857 F7800.000
G1 X71.143 Y99.857 E1.69585 F1440.000
G1 X71.143 Y70.143 E1.75491
G1 X99.857 Y70.143 E1.69585
G1 X99.857 Y99.797 E1.75137
G1 X98.694 Y103.633 F7800.000
G1 X98.694 Y107.367 E0.22052 F1296.000
G1 X95.460 Y109.234 E0.22053
G1 X92.226 Y107.367 E0.22053
G1 X92.226 Y103.633 E0.22052
G1 X95.460 Y101.766 E0.22053
G1 X98.642 Y103.603 E0.21698
G1 X99.088 Y103.703 F7800.000
G1 F1800.000 E-1.10000
G1 X88.534 Y103.633 F7800.000
G1 E1.10000 F1800.000
G1 X88.534 Y107.367 E0.22052 F1296.000
G1 X85.300 Y109.234 E0.22053
G1 X82.066 Y107.367 E0.22053
G1 X82.066 Y103.633 E0.22052
G1 X85.300 Y101.766 E0.22053
G1 X88.482 Y103.603 E0.21698
G1 X88.928 Y103.703 F7800.000
G1 F1800.000 E-1.10000
G1 X78.374 Y103.633 F7800.000
G1 E1.10000 F1800.000
G1 X78.374 Y107.367 E0.22052 F1296.000
G1 X75.140 Y109.234 E0.22053
G1 X71.906 Y107.367 E0.22053
G1 X71.906 Y103.633 E0.22052
G1 X75.140 Y101.766 E0.22053
G1 X78.322 Y103.603 E0.21698
G1 X78.768 Y103.703 F7800.000
G1 F1800.000 E-1.10000
G1 X68.214 Y103.633 F7800.000
G1 E1.10000 F1800.000
G1 X68.214 Y107.367 E0.22052 F1296.000
G1 X64.980 Y109.234 E0.22053
G1 X61.746 Y107.367 E0.22053
G1 X61.746 Y103.633 E0.22052
G1 X64.980 Y101.766 E0.22053
G1 X68.162 Y103.603 E0.21698
G1 X68.608 Y103.703 F7800.000
G1 F1800.000 E-1.10000
G1 X58.054 Y103.633 F7800.000
G1 E1.10000 F1800.000
G1 X58.054 Y107.367 E0.22052 F1296.000
G1 X54.820 Y109.234 E0.22053
G1 X51.586 Y107.367 E0.22053
G1 X51.586 Y103.633 E0.22052
G1 X54.820 Y101.766 E0.22053
G1 X58.002 Y103.603 E0.21698
G1 X58.448 Y103.703 F7800.000
G1 F1800.000 E-1.10000
G1 X47.894 Y103.633 F7800.000
G1 E1.10000 F1800.000
G1 X47.894 Y107.367 E0.22052 F1296.000
G1 X44.660 Y109.234 E0.22053
G1 X41.426 Y107.367 E0.22053
G1 X41.426 Y103.633 E0.22052
G1 X44.660 Y101.766 E0.22053
G1 X47.842 Y103.603 E0.21698
G1 X48.288 Y103.703 F7800.000
G1 X40.700 Y99.300 F7800.000
G1 X40.700 Y70.700 E1.68911 F1296.000
G1 X60.300 Y70.700 E1.15757
G1 X60.300 Y99.300 E1.68911
G1 X40.760 Y99.300 E1.15403
G1 X40.300 Y99.300 F7800.000
G1 F1800.000 E-1.10000
G1 X64.980 Y78.754 F7800.000
G1 E1.10000 F1800.000
G1 X61.746 Y76.887 E0.22053 F1296.000
G1 X61.746 Y73.153 E0.22052
G1 X64.980 Y71.286 E0.22052
G1 X68.214 Y73.153 E0.22052
G1 X68.214 Y76.887 E0.22052
G1 X65.032 Y78.724 E0.21698
G1 X64.843 Y78.378 F7800.000
G1 X61.746 Y83.313 F7800.000
G1 X64.980 Y81.446 E0.22052 F1296.000
G1 X68.214 Y83.313 E0.22052
G1 X68.214 Y87.047 E0.22052
G1 X64.980 Y88.914 E0.22053
G1 X61.746 Y87.047 E0.22052
G1 X61.746 Y83.373 E0.21699
G1 X62.140 Y83.382 F7800.000
G1 F1800.000 E-1.10000
G1 X61.746 Y93.473 F7800.000
G1 E1.10000 F1800.000
G1 X64.980 Y91.606 E0.22052 F1296.000
G1 X68.214 Y93.473 E0.22052
G1 X68.214 Y97.207 E0.22052
G1 X64.980 Y99.074 E0.22053
G1 X61.746 Y97.207 E0.22052
G1 X61.746 Y93.533 E0.21699
G1 X62.140 Y93.542 F7800.000
G1 X60.857 Y93.343 F7800.000
G1 X64.980 Y90.963 E0.28117 F1440.000
G1 X68.771 Y93.151 E0.25851
G1 X68.771 Y97.529 E0.25851
G1 X64.980 Y99.717 E0.25852
