; generated by Slic3r 1.2.7-dev on 2015-03-20 at 12:28:28

; external perimeters extrusion width = 0.40mm
; perimeters extrusion width = 0.67mm
; infill extrusion width = 0.67mm
; solid infill extrusion width = 0.67mm
; top infill extrusion width = 0.67mm

M190 S80 ; set bed temperature
M104 S230 ; set temperature
G28 ; home all axes
G92 E0.0 ; reset extruder
M109 S230 ; wait for temperature to be reached
G21 ; set units to millimeters
G90 ; use absolute coordinates
M83 ; use relative distances for extrusion
G1 E-1.30000 F3600.00000
G1 Z0.300 F7800.000
G1 X56.027 Y34.479 F7800.000
G1 E1.30000 F3600.00000
M204 S500
G1 X57.869 Y32.244 E0.18381 F2160.000
G1 X60.250 Y30.596 E0.18381
G1 X62.991 Y29.658 E0.18381
G1 X65.000 Y29.464 E0.12812
G1 X115.000 Y29.464 E3.17326
G1 X117.869 Y29.862 E0.18381
G1 X120.521 Y31.027 E0.18381 F2160.000
G1 X122.756 Y32.869 E0.18381
G1 X124.404 Y35.250 E0.18381
G1 X125.342 Y37.991 E0.18381
G1 X125.536 Y40.000 E0.12812
G1 X125.536 Y140.000 E6.34651
G1 X125.138 Y142.869 E0.18381
G1 X123.973 Y145.521 E0.18381
G1 X122.131 Y147.756 E0.18381
G1 X119.750 Y149.404 E0.18381
G1 X117.009 Y150.342 E0.18381
G1 X115.000 Y150.536 E0.12812
G1 X65.000 Y150.536 E3.17326
G1 X62.131 Y150.138 E0.18381
G1 X59.479 Y148.973 E0.18381
G1 X57.244 Y147.131 E0.18381
G1 X55.596 Y144.750 E0.18381
G1 X54.658 Y142.009 E0.18381
G1 X54.464 Y140.000 E0.12812
G1 X54.464 Y40.000 E6.34651
G1 X54.862 Y37.131 E0.18381
G1 X56.003 Y34.534 E0.18001
G1 X57.025 Y35.477 F7800.000
G1 X61.339 Y31.162 E0.38726 F2160.000
G1 X118.661 Y31.162 E3.63791
G1 X123.838 Y36.339 E0.46465
G1 X123.838 Y143.661 E6.81117 F2160.000
G1 X118.661 Y148.838 E0.46465
G1 X61.339 Y148.838 E3.63791
G1 X56.162 Y143.661 E0.46465
G1 X56.162 Y36.339 E6.81117
G1 X56.982 Y35.519 E0.07358
G1 X57.403 Y35.856 F7800.000
G1 X61.561 Y31.698 E0.37318 F2160.000
G1 X118.439 Y31.698 E3.60975
G1 X123.302 Y36.561 E0.43649 F2160.000
G1 X123.302 Y143.439 E6.78301
G1 X118.439 Y148.302 E0.43649
G1 X61.561 Y148.302 E3.60975
G1 X56.698 Y143.439 E0.43649
G1 X56.698 Y36.561 E6.78301
G1 X57.361 Y35.898 E0.05950
G1 X57.782 Y36.235 F7800.000
G1 X61.783 Y32.234 E0.35910 F2160.000
G1 X118.217 Y32.234 E3.58159
G1 X122.766 Y36.783 E0.40833
G1 X122.766 Y143.217 E6.75485 F2160.000
G1 X118.217 Y147.766 E0.40833
G1 X61.783 Y147.766 E3.58159
G1 X57.234 Y143.217 E0.40833
G1 X57.234 Y36.783 E6.75485
G1 X57.740 Y36.277 E0.04542
G1 X58.161 Y36.613 F7800.000
G1 X62.005 Y32.769 E0.34502 F2160.000
G1 X117.995 Y32.769 E3.55343
G1 X122.231 Y37.005 E0.38017 F2160.000
G1 X122.231 Y142.995 E6.72669
G1 X117.995 Y147.231 E0.38017
G1 X62.005 Y147.231 E3.55343
G1 X57.769 Y142.995 E0.38017
G1 X57.769 Y37.005 E6.72669
G1 X58.118 Y36.656 E0.03134
G1 X58.539 Y36.992 F7800.000
G1 X62.227 Y33.305 E0.33094 F2160.000
G1 X117.773 Y33.305 E3.52527
G1 X121.695 Y37.227 E0.35201
G1 X121.695 Y142.773 E6.69852 F2160.000
G1 X117.773 Y146.695 E0.35201
G1 X62.227 Y146.695 E3.52527
G1 X58.305 Y142.773 E0.35201
G1 X58.305 Y37.227 E6.69852
G1 X58.497 Y37.034 E0.01726
G1 X58.918 Y37.371 F7800.000
G1 X62.449 Y33.840 E0.31686 F2160.000
G1 X117.551 Y33.840 E3.49711
G1 X121.160 Y37.449 E0.32385 F2160.000
G1 X121.160 Y142.551 E6.67036
G1 X117.551 Y146.160 E0.32385
G1 X62.449 Y146.160 E3.49711
G1 X58.840 Y142.551 E0.32385
G1 X58.840 Y37.449 E6.67036
G1 X58.876 Y37.413 E0.00318
G1 X59.376 Y37.670 F7800.000
G1 X62.670 Y34.376 E0.29569 F2160.000
G1 X117.330 Y34.376 E3.46895
G1 X120.624 Y37.670 E0.29569
G1 X120.624 Y142.330 E6.64220 F2160.000
G1 X117.330 Y145.624 E0.29569
G1 X62.670 Y145.624 E3.46895
G1 X59.376 Y142.330 E0.29569
G1 X59.376 Y37.730 E6.63839
G1 X59.912 Y37.892 F7800.000
G1 X62.892 Y34.912 E0.26753 F2160.000
G1 X117.108 Y34.912 E3.44078
G1 X120.088 Y37.892 E0.26753 F2160.000
G1 X120.088 Y142.108 E6.61404
G1 X117.108 Y145.088 E0.26753
G1 X62.892 Y145.088 E3.44078
G1 X59.912 Y142.108 E0.26753
G1 X59.912 Y37.952 E6.61023
G1 X60.447 Y38.114 F7800.000
G1 X63.114 Y35.447 E0.23937 F2160.000
G1 X116.886 Y35.447 E3.41262
G1 X119.553 Y38.114 E0.23937
G1 X119.553 Y141.886 E6.58588 F2160.000
G1 X116.886 Y144.553 E0.23937
G1 X63.114 Y144.553 E3.41262
G1 X60.447 Y141.886 E0.23937
G1 X60.447 Y38.174 E6.58207
G1 X60.983 Y38.336 F7800.000
G1 X63.336 Y35.983 E0.21121 F2160.000
G1 X116.664 Y35.983 E3.38446
G1 X119.017 Y38.336 E0.21121 F2160.000
G1 X119.017 Y141.664 E6.55772
G1 X116.664 Y144.017 E0.21121
G1 X63.336 Y144.017 E3.38446
G1 X60.983 Y141.664 E0.21121
G1 X60.983 Y38.396 E6.55391
G1 X61.518 Y38.558 F7800.000
G1 X63.558 Y36.518 E0.18305 F2160.000
G1 X116.442 Y36.518 E3.35630
G1 X118.482 Y38.558 E0.18305
G1 X118.482 Y141.442 E6.52956 F2160.000
G1 X116.442 Y143.482 E0.18305
G1 X63.558 Y143.482 E3.35630
G1 X61.518 Y141.442 E0.18305
G1 X61.518 Y38.618 E6.52575
G1 X62.054 Y38.780 F7800.000
G1 X63.780 Y37.054 E0.15488 F2160.000
G1 X116.220 Y37.054 E3.32814
G1 X117.946 Y38.780 E0.15488 F2160.000
G1 X117.946 Y141.220 E6.50140
G1 X116.220 Y142.946 E0.15488
G1 X63.780 Y142.946 E3.32814
G1 X62.054 Y141.220 E0.15488
G1 X62.054 Y38.840 E6.49759
G1 X62.590 Y39.002 F7800.000
G1 X64.002 Y37.590 E0.12672 F2160.000
G1 X115.998 Y37.590 E3.29998
G1 X117.410 Y39.002 E0.12672
G1 X117.410 Y140.998 E6.47324 F2160.000
G1 X115.998 Y142.410 E0.12672
G1 X64.002 Y142.410 E3.29998
G1 X62.590 Y140.998 E0.12672
G1 X62.590 Y39.062 E6.46943
G1 X63.125 Y39.223 F7800.000
G1 X64.223 Y38.125 E0.09856 F2160.000
G1 X115.777 Y38.125 E3.27182
G1 X116.875 Y39.223 E0.09856 F2160.000
G1 X116.875 Y140.777 E6.44508
G1 X115.777 Y141.875 E0.09856
G1 X64.223 Y141.875 E3.27182
G1 X63.125 Y140.777 E0.09856
G1 X63.125 Y39.283 E6.44127
G1 X63.661 Y39.445 F7800.000
G1 X64.445 Y38.661 E0.07040 F2160.000
G1 X115.555 Y38.661 E3.24366
G1 X116.339 Y39.445 E0.07040
G1 X116.339 Y140.555 E6.41692 F2160.000
G1 X115.555 Y141.339 E0.07040
G1 X64.445 Y141.339 E3.24366
G1 X63.661 Y140.555 E0.07040
G1 X63.661 Y39.505 E6.41311
G1 X64.197 Y39.667 F7800.000
G1 X64.667 Y39.197 E0.04224 F2160.000
G1 X115.333 Y39.197 E3.21550
G1 X115.803 Y39.667 E0.04224 F2160.000
G1 X115.803 Y140.333 E6.38876
G1 X115.333 Y140.803 E0.04224
G1 X64.667 Y140.803 E3.21550
G1 X64.197 Y140.333 E0.04224
G1 X64.197 Y39.727 E6.38495
G1 X64.732 Y39.889 F7800.000
G1 X64.889 Y39.732 E0.01408 F2160.000
G1 X115.111 Y39.732 E3.18734
G1 X115.268 Y39.889 E0.01408
G1 X115.268 Y140.111 E6.36059
G1 X115.111 Y140.268 E0.01408
G1 X64.889 Y140.268 E3.18734
G1 X64.732 Y140.111 E0.01408
G1 X64.732 Y39.949 E6.35679
G1 F6240
G1 X64.889 Y39.732 E-0.14670
G1 F6240
G1 X66.875 Y39.732 E-1.08830
G1 E-0.06500 F3600.00000
G1 X114.700 Y40.300 F7800.000
G1 E1.30000 F3600.00000
G1 X114.700 Y139.700 E6.30843 F1458.000
G1 X65.300 Y139.700 E3.13518
G1 X65.300 Y40.300 E6.30843
G1 X114.640 Y40.300 E3.13137
G1 F6240
G1 X114.641 Y42.553 E-1.23500
G1 E-0.06500 F3600.00000
G1 X98.113 Y71.746 F7800.000
G1 E1.30000 F3600.00000
G1 X101.847 Y71.746 E0.23697 F1080.000
G1 X103.714 Y74.980 E0.23698
G1 X101.847 Y78.214 E0.23698
G1 X98.113 Y78.214 E0.23697
G1 X96.246 Y74.980 E0.23697
G1 X98.083 Y71.798 E0.23317
G1 X93.554 Y74.980 F7800.000
G1 X91.687 Y78.214 E0.23698 F1080.000
G1 X87.953 Y78.214 E0.23697
G1 X86.086 Y74.980 E0.23697
G1 X87.953 Y71.746 E0.23697
G1 X91.687 Y71.746 E0.23697
G1 X93.524 Y74.928 E0.23317
G1 F6240
G1 X92.424 Y76.895 E-1.23500
G1 E-0.06500 F3600.00000
G1 X88.133 Y122.546 F7800.000
G1 E1.30000 F3600.00000
G1 X91.867 Y122.546 E0.23697 F1080.000
G1 X93.734 Y125.780 E0.23698
G1 X91.867 Y129.014 E0.23698
G1 X88.133 Y129.014 E0.23697
G1 X86.266 Y125.780 E0.23697
G1 X88.103 Y122.598 E0.23317
G1 X71.547 Y132.706 F7800.000
G1 X73.414 Y135.940 E0.23698 F1080.000
G1 X71.547 Y139.174 E0.23698
G1 X67.813 Y139.174 E0.23697
G1 X65.946 Y135.940 E0.23698
G1 X67.813 Y132.706 E0.23697
G1 X71.487 Y132.706 E0.23317
G1 X72.809 Y122.411 F7800.000
G1 X69.500 Y124.321 E0.24253 F1080.000
G1 X66.191 Y122.411 E0.24253
G1 X66.191 Y118.589 E0.24253
G1 X69.500 Y116.679 E0.24253
G1 X72.809 Y118.589 E0.24253
G1 X72.809 Y122.351 E0.23872
G1 F6240
G1 X70.873 Y123.504 E-1.23500
G1 E-0.06500 F3600.00000
G1 X71.367 Y108.694 F7800.000
G1 E1.30000 F3600.00000
G1 X67.633 Y108.694 E0.23697 F1080.000
G1 X65.766 Y105.460 E0.23697
G1 X67.633 Y102.226 E0.23698
G1 X71.367 Y102.226 E0.23697
G1 X73.234 Y105.460 E0.23698
G1 X71.397 Y108.642 E0.23317
G1 F6240
G1 X69.144 Y108.673 E-1.23500
G1 E-0.06500 F3600.00000
G1 X71.367 Y98.534 F7800.000
G1 E1.30000 F3600.00000
G1 X67.633 Y98.534 E0.23697 F1080.000
G1 X67.462 Y98.237 E0.02174
G1 X65.766 Y95.300 E0.21523
G1 X67.633 Y92.066 E0.23698
G1 X71.367 Y92.066 E0.23697
G1 X73.234 Y95.300 E0.23698
G1 X71.397 Y98.482 E0.23317
G1 F6240
G1 X69.144 Y98.513 E-1.23500
G1 E-0.06500 F3600.00000
G1 X71.367 Y88.374 F7800.000
G1 E1.30000 F3600.00000
G1 X67.633 Y88.374 E0.23697 F1080.000
G1 X67.462 Y88.077 E0.02174
G1 X65.766 Y85.140 E0.21523
G1 X67.633 Y81.906 E0.23698
G1 X71.367 Y81.906 E0.23697
G1 X73.234 Y85.140 E0.23698
G1 X71.397 Y88.322 E0.23317
G1 F6240
G1 X69.144 Y88.353 E-1.23500
G1 E-0.06500 F3600.00000
G1 X74.700 Y80.700 F7800.000
G1 E1.30000 F3600.00000
G1 X105.300 Y80.700 E1.94203 F1458.000
G1 X105.300 Y111.300 E1.94203
G1 X74.700 Y111.300 E1.94203
G1 X74.700 Y80.760 E1.93823
G1 X77.793 Y78.214 F7800.000
G1 X75.926 Y74.980 E0.23697 F1080.000
G1 X77.793 Y71.746 E0.23697
G1 X81.527 Y71.746 E0.23697
G1 X83.394 Y74.980 E0.23698
G1 X81.527 Y78.214 E0.23698
G1 X77.853 Y78.214 E0.23317
G1 X71.367 Y78.214 F7800.000
G1 X67.633 Y78.214 E0.23697 F1080.000
G1 X67.462 Y77.917 E0.02174
G1 X65.766 Y74.980 E0.21523
G1 X67.633 Y71.746 E0.23698
G1 X71.367 Y71.746 E0.23697
G1 X73.234 Y74.980 E0.23698
G1 X71.397 Y78.162 E0.23317
G1 F6240
G1 X69.144 Y78.193 E-1.23500
G1 E-0.06500 F3600.00000
G1 X71.367 Y68.054 F7800.000
G1 E1.30000 F3600.00000
G1 X67.633 Y68.054 E0.23697 F1080.000
G1 X67.462 Y67.757 E0.02174
G1 X65.766 Y64.820 E0.21523
G1 X67.633 Y61.586 E0.23698
G1 X71.367 Y61.586 E0.23697
G1 X73.234 Y64.820 E0.23698
G1 X71.397 Y68.002 E0.23317
G1 F6240
G1 X69.144 Y68.033 E-1.23500
G1 E-0.06500 F3600.00000
G1 X73.234 Y44.500 F7800.000
G1 E1.30000 F3600.00000
G1 X71.367 Y47.734 E0.23697 F1080.000
G1 X67.633 Y47.734 E0.23697
G1 X65.766 Y44.500 E0.23697
G1 X67.633 Y41.266 E0.23697
G1 X71.367 Y41.266 E0.23697
G1 X73.204 Y44.448 E0.23317
G1 X71.367 Y51.426 F7800.000
G1 X73.234 Y54.660 E0.23698 F1080.000
G1 X71.367 Y57.894 E0.23698
G1 X67.633 Y57.894 E0.23697
G1 X65.766 Y54.660 E0.23698
G1 X67.633 Y51.426 E0.23698
G1 X71.307 Y51.426 E0.23317
G1 X74.700 Y49.700 F7800.000
G1 X105.300 Y49.700 E1.94203 F1458.000
G1 X105.300 Y69.800 E1.27565
G1 X74.700 Y69.800 E1.94203
G1 X74.700 Y49.760 E1.27184
G1 X77.793 Y47.734 F7800.000
G1 X75.926 Y44.500 E0.23697 F1080.000
G1 X77.793 Y41.266 E0.23697
G1 X81.527 Y41.266 E0.23697
G1 X83.394 Y44.500 E0.23697
G1 X81.527 Y47.734 E0.23697
G1 X77.853 Y47.734 E0.23317
G1 X87.953 Y47.734 F7800.000
G1 X86.086 Y44.500 E0.23697 F1080.000
G1 X87.953 Y41.266 E0.23697
G1 X91.687 Y41.266 E0.23697
G1 X93.554 Y44.500 E0.23697
G1 X91.687 Y47.734 E0.23697
G1 X88.013 Y47.734 E0.23317
G1 X98.113 Y47.734 F7800.000
G1 X96.246 Y44.500 E0.23697 F1080.000
G1 X98.113 Y41.266 E0.23697
G1 X101.847 Y41.266 E0.23697
G1 X103.714 Y44.500 E0.23697
G1 X101.847 Y47.734 E0.23697
G1 X98.173 Y47.734 E0.23317
G1 X108.633 Y47.734 F7800.000
G1 X106.766 Y44.500 E0.23697 F1080.000
G1 X108.633 Y41.266 E0.23697
G1 X112.367 Y41.266 E0.23697
G1 X114.234 Y44.500 E0.23697
G1 X112.367 Y47.734 E0.23697
G1 X108.693 Y47.734 E0.23317
G1 X108.273 Y51.426 F7800.000
G1 X112.007 Y51.426 E0.23697 F1080.000
G1 X113.874 Y54.660 E0.23698
G1 X112.007 Y57.894 E0.23698
G1 X108.273 Y57.894 E0.23697
G1 X106.406 Y54.660 E0.23697
G1 X108.243 Y51.478 E0.23317
G1 F6240
G1 X110.496 Y51.447 E-1.23500
G1 E-0.06500 F3600.00000
G1 X108.273 Y61.586 F7800.000
G1 E1.30000 F3600.00000
G1 X112.007 Y61.586 E0.23697 F1080.000
G1 X113.874 Y64.820 E0.23698
G1 X112.007 Y68.054 E0.23698
G1 X108.273 Y68.054 E0.23697
G1 X106.406 Y64.820 E0.23697
G1 X108.243 Y61.638 E0.23317
G1 F6240
G1 X110.496 Y61.607 E-1.23500
G1 E-0.06500 F3600.00000
G1 X108.273 Y71.746 F7800.000
G1 E1.30000 F3600.00000
G1 X112.007 Y71.746 E0.23697 F1080.000
G1 X113.874 Y74.980 E0.23698
G1 X112.007 Y78.214 E0.23698
G1 X108.273 Y78.214 E0.23697
G1 X106.406 Y74.980 E0.23697
G1 X108.243 Y71.798 E0.23317
G1 F6240
G1 X110.496 Y71.767 E-1.23500
G1 E-0.06500 F3600.00000
G1 X108.273 Y81.906 F7800.000
G1 E1.30000 F3600.00000
G1 X112.007 Y81.906 E0.23697 F1080.000
G1 X113.874 Y85.140 E0.23698
G1 X112.007 Y88.374 E0.23698
G1 X108.273 Y88.374 E0.23697
G1 X106.406 Y85.140 E0.23697
G1 X108.243 Y81.958 E0.23317
G1 F6240
G1 X110.496 Y81.927 E-1.23500
G1 E-0.06500 F3600.00000
G1 X108.273 Y92.066 F7800.000
G1 E1.30000 F3600.00000
G1 X112.007 Y92.066 E0.23697 F1080.000
G1 X113.874 Y95.300 E0.23698
G1 X112.007 Y98.534 E0.23698
G1 X108.273 Y98.534 E0.23697
G1 X106.406 Y95.300 E0.23697
G1 X108.243 Y92.118 E0.23317
G1 F6240
G1 X110.496 Y92.087 E-1.23500
G1 E-0.06500 F3600.00000
G1 X108.273 Y102.226 F7800.000
G1 E1.30000 F3600.00000
G1 X112.007 Y102.226 E0.23697 F1080.000
G1 X113.874 Y105.460 E0.23698
G1 X112.007 Y108.694 E0.23698
G1 X108.273 Y108.694 E0.23697
G1 X106.406 Y105.460 E0.23697
G1 X108.243 Y102.278 E0.23317
G1 F6240
G1 X110.496 Y102.247 E-1.23500
G1 E-0.06500 F3600.00000
G1 X110.500 Y116.679 F7800.000
G1 E1.30000 F3600.00000
G1 X113.809 Y118.589 E0.24252 F1080.000
G1 X113.809 Y122.411 E0.24253
G1 X110.500 Y124.321 E0.24252
G1 X107.191 Y122.411 E0.24252
G1 X107.191 Y118.589 E0.24253
G1 X110.448 Y116.709 E0.23872
G1 F6240
G1 X112.414 Y117.809 E-1.23500
G1 E-0.06500 F3600.00000
G1 X108.453 Y132.706 F7800.000
G1 E1.30000 F3600.00000
G1 X112.187 Y132.706 E0.23697 F1080.000
G1 X114.054 Y135.940 E0.23698
G1 X112.187 Y139.174 E0.23698
G1 X108.453 Y139.174 E0.23697
G1 X106.586 Y135.940 E0.23697
G1 X108.423 Y132.758 E0.23317
G1 F6240
G1 X110.676 Y132.727 E-1.23500
G1 E-0.06500 F3600.00000
G1 X114.115 Y134.874 F7800.000
G1 E1.30000 F3600.00000
G1 X114.395 Y135.921 E0.03027 F720.000
G1 X114.115 Y137.006 E0.03127
G1 X114.388 Y137.638 F7800.000
G1 X114.112 Y137.363 E0.02734 F1980.000
G1 X113.446 Y137.534 E0.04827
G1 X114.388 Y138.475 E0.09346
G1 X114.388 Y139.313 E0.05875
G1 X113.140 Y138.064 E0.12387
G1 X112.833 Y138.595 E0.04301
G1 X113.626 Y139.388 E0.07866
G1 X112.788 Y139.388 E0.05875
G1 X112.527 Y139.126 E0.02598
G1 F6240
G1 X112.788 Y139.388 E-0.20298
G1 F6240
G1 X113.626 Y139.388 E-0.45895
G1 F6240
G1 X112.886 Y138.649 E-0.57307
G1 E-0.06500 F3600.00000
G1 X114.255 Y122.463 F7800.000
G1 E1.30000 F3600.00000
G1 X114.255 Y118.537 E0.10960 F720.000
G1 X114.115 Y106.214 F7800.000
G1 X114.299 Y105.527 E0.01986 F720.000
G1 X114.299 Y105.393 E0.00373
G1 X114.115 Y104.706 E0.01986
G1 X114.115 Y96.054 F7800.000
G1 X114.299 Y95.367 E0.01986 F720.000
G1 X114.299 Y95.233 E0.00373
G1 X114.115 Y94.546 E0.01986
G1 X114.115 Y85.894 F7800.000
G1 X114.299 Y85.207 E0.01986 F720.000
G1 X114.299 Y85.073 E0.00373
G1 X114.115 Y84.386 E0.01986
G1 X114.115 Y75.734 F7800.000
G1 X114.299 Y75.047 E0.01986 F720.000
G1 X114.299 Y74.913 E0.00373
G1 X114.115 Y74.226 E0.01986
G1 X114.115 Y65.574 F7800.000
G1 X114.299 Y64.887 E0.01986 F720.000
G1 X114.299 Y64.753 E0.00373
G1 X114.115 Y64.066 E0.01986
G1 X114.115 Y55.414 F7800.000
G1 X114.299 Y54.727 E0.01986 F720.000
G1 X114.299 Y54.593 E0.00373
G1 X114.115 Y53.906 E0.01986
G1 X113.447 Y53.153 F7800.000
G1 X113.948 Y53.654 E0.04506 F1980.000
G1 X114.388 Y53.335 E0.03450
G1 X109.098 Y48.046 E0.47532
G1 X109.857 Y48.046 E0.04819
G1 X114.388 Y52.577 E0.40717
G1 X114.388 Y51.818 E0.04819
G1 X110.615 Y48.046 E0.33903
G1 X111.374 Y48.046 E0.04819
G1 X114.388 Y51.060 E0.27088
G1 X114.388 Y50.302 E0.04819
G1 X112.132 Y48.046 E0.20273
G1 X112.642 Y47.798 F7800.000
G1 X114.388 Y49.543 E0.15688 F1980.000
G1 X114.388 Y48.785 E0.04819
G1 X112.920 Y47.317 E0.13193
G1 X113.197 Y46.836 E0.03528
G1 X114.388 Y48.027 E0.10699
G1 X114.388 Y47.268 E0.04819
G1 X113.475 Y46.355 E0.08204
G1 X114.112 Y46.234 E0.04123
G1 X114.388 Y46.510 E0.02476
G1 F6240
G1 X114.112 Y46.234 E-0.21356
G1 F6240
G1 X113.475 Y46.355 E-0.35562
G1 F6240
G1 X114.334 Y47.214 E-0.66582
