; generated by Slic3r 1.2.6 on 2015-02-06 at 00:27:28

; external perimeters extrusion width = 0.40mm
; perimeters extrusion width = 0.48mm
; infill extrusion width = 0.48mm
; solid infill extrusion width = 0.48mm
; top infill extrusion width = 0.48mm

M190 S90 ; set bed temperature
M104 S225 ; set temperature
G28 ; home all axes
G92 E0.0 ; reset extruder
M109 S225 ; wait for temperature to be reached
G21 ; set units to millimeters
G90 ; use absolute coordinates
M83 ; use relative distances for extrusion
G1 E-1.30000 F3600.00000
G1 Z0.300 F7800.000
G1 X34.928 Y36.022 F7800.000
G1 E1.30000 F3600.00000
M204 S500
G1 X37.307 Y34.384 E0.17132 F2160.000
G1 X40.043 Y33.459 E0.17132
G1 X42.000 Y33.274 E0.11663
G1 X138.000 Y33.274 E5.69490
G1 X140.860 Y33.672 E0.17132
G1 X143.503 Y34.836 E0.17132 F2160.000
G1 X145.728 Y36.678 E0.17132
G1 X147.366 Y39.057 E0.17132
G1 X148.291 Y41.793 E0.17132
G1 X148.476 Y43.750 E0.11663
G1 X148.476 Y136.250 E5.48727
G1 X148.078 Y139.110 E0.17132
G1 X146.914 Y141.753 E0.17132
G1 X145.072 Y143.978 E0.17132
G1 X142.693 Y145.616 E0.17132
G1 X139.957 Y146.541 E0.17132
G1 X138.000 Y146.726 E0.11663
G1 X42.000 Y146.726 E5.69490
G1 X39.140 Y146.328 E0.17132
G1 X36.497 Y145.164 E0.17132
G1 X34.272 Y143.322 E0.17132
G1 X32.634 Y140.943 E0.17132
G1 X31.709 Y138.207 E0.17132
G1 X31.524 Y136.250 E0.11663
G1 X31.524 Y43.750 E5.48727
G1 X31.922 Y40.890 E0.17132
G1 X33.086 Y38.247 E0.17132
G1 X34.890 Y36.068 E0.16776
G1 E-1.30000 F3600.00000
G1 X129.551 Y131.000 F7800.000
G1 E1.30000 F3600.00000
G1 X131.400 Y127.796 E0.21945 F1080.000
G1 X135.100 Y127.796 E0.21944
G1 X136.949 Y131.000 E0.21945
G1 X135.100 Y134.204 E0.21945
G1 X131.400 Y134.204 E0.21944
G1 X129.581 Y131.052 E0.21589
G1 X129.244 Y130.743 F7800.000
G1 E-1.30000 F3600.00000
G1 X129.551 Y49.000 F7800.000
G1 E1.30000 F3600.00000
G1 X131.400 Y45.796 E0.21945 F1080.000
G1 X135.100 Y45.796 E0.21944
G1 X136.949 Y49.000 E0.21945
G1 X135.100 Y52.204 E0.21945
G1 X131.400 Y52.204 E0.21944
G1 X129.581 Y49.052 E0.21589
G1 X129.244 Y48.743 F7800.000
G1 E-1.30000 F3600.00000
G1 X49.374 Y127.321 F7800.000
G1 E1.30000 F3600.00000
G1 X51.498 Y131.000 E0.25203 F1080.000
G1 X49.374 Y134.679 E0.25203
G1 X45.126 Y134.679 E0.25203
G1 X43.002 Y131.000 E0.25203
G1 X45.126 Y127.321 E0.25203
G1 X49.314 Y127.321 E0.24847
G1 X49.100 Y127.796 F7800.000
G1 X50.949 Y131.000 E0.21945 F1080.000
G1 X49.100 Y134.204 E0.21945
G1 X45.400 Y134.204 E0.21945
G1 X43.551 Y131.000 E0.21945
G1 X45.400 Y127.796 E0.21945
G1 X49.040 Y127.796 E0.21589
G1 X49.476 Y127.659 F7800.000
G1 X57.396 Y126.961 F7800.000
G1 X61.644 Y126.961 E0.25203 F1080.000
G1 X63.768 Y130.640 E0.25203
G1 X61.644 Y134.319 E0.25203
G1 X57.396 Y134.319 E0.25203
G1 X55.272 Y130.640 E0.25203
G1 X57.366 Y127.013 E0.24847
G1 X57.670 Y127.436 F7800.000
G1 X61.370 Y127.436 E0.21945 F1080.000
G1 X63.219 Y130.640 E0.21945
G1 X61.370 Y133.844 E0.21945
G1 X57.670 Y133.844 E0.21945
G1 X55.821 Y130.640 E0.21945
G1 X57.640 Y127.488 E0.21589
G1 X57.740 Y127.042 F7800.000
G1 X67.556 Y126.961 F7800.000
G1 X71.804 Y126.961 E0.25203 F1080.000
G1 X73.928 Y130.640 E0.25203
G1 X71.804 Y134.319 E0.25203
G1 X67.556 Y134.319 E0.25203
G1 X65.432 Y130.640 E0.25203
G1 X67.526 Y127.013 E0.24847
G1 X67.830 Y127.436 F7800.000
G1 X71.530 Y127.436 E0.21945 F1080.000
G1 X73.379 Y130.640 E0.21945
G1 X71.530 Y133.844 E0.21945
G1 X67.830 Y133.844 E0.21945
G1 X65.981 Y130.640 E0.21945
G1 X67.800 Y127.488 E0.21589
G1 X67.900 Y127.042 F7800.000
G1 E-1.30000 F3600.00000
G1 X75.592 Y130.640 F7800.000
G1 E1.30000 F3600.00000
G1 X77.716 Y126.961 E0.25203 F1080.000
G1 X81.964 Y126.961 E0.25203
G1 X84.088 Y130.640 E0.25203
G1 X81.964 Y134.319 E0.25203
G1 X77.716 Y134.319 E0.25203
G1 X75.622 Y130.692 E0.24847
G1 X76.141 Y130.640 F7800.000
G1 X77.990 Y127.436 E0.21945 F1080.000
G1 X81.690 Y127.436 E0.21945
G1 X83.539 Y130.640 E0.21945
G1 X81.690 Y133.844 E0.21945
G1 X77.990 Y133.844 E0.21945
G1 X76.171 Y130.692 E0.21589
G1 X75.834 Y130.383 F7800.000
G1 E-1.30000 F3600.00000
G1 X87.876 Y134.319 F7800.000
G1 E1.30000 F3600.00000
G1 X85.752 Y130.640 E0.25203 F1080.000
G1 X87.876 Y126.961 E0.25203
G1 X92.124 Y126.961 E0.25203
G1 X94.248 Y130.640 E0.25203
G1 X92.124 Y134.319 E0.25203
G1 X87.936 Y134.319 E0.24847
G1 X88.150 Y133.844 F7800.000
G1 X86.301 Y130.640 E0.21945 F1080.000
G1 X88.150 Y127.436 E0.21945
G1 X91.850 Y127.436 E0.21945
G1 X93.699 Y130.640 E0.21945
G1 X91.850 Y133.844 E0.21945
G1 X88.210 Y133.844 E0.21589
G1 X87.774 Y133.981 F7800.000
G1 X98.036 Y134.319 F7800.000
G1 X95.912 Y130.640 E0.25203 F1080.000
G1 X98.036 Y126.961 E0.25203
G1 X102.284 Y126.961 E0.25203
G1 X104.408 Y130.640 E0.25203
G1 X102.284 Y134.319 E0.25203
G1 X98.096 Y134.319 E0.24847
G1 X98.310 Y133.844 F7800.000
G1 X96.461 Y130.640 E0.21945 F1080.000
G1 X98.310 Y127.436 E0.21945
G1 X102.010 Y127.436 E0.21945
G1 X103.859 Y130.640 E0.21945
G1 X102.010 Y133.844 E0.21945
G1 X98.370 Y133.844 E0.21589
G1 X97.934 Y133.981 F7800.000
G1 X108.196 Y134.319 F7800.000
G1 X106.072 Y130.640 E0.25203 F1080.000
G1 X108.196 Y126.961 E0.25203
G1 X112.444 Y126.961 E0.25203
G1 X114.568 Y130.640 E0.25203
G1 X112.444 Y134.319 E0.25203
G1 X108.256 Y134.319 E0.24847
G1 X108.470 Y133.844 F7800.000
G1 X106.621 Y130.640 E0.21945 F1080.000
G1 X108.470 Y127.436 E0.21945
G1 X112.170 Y127.436 E0.21945
G1 X114.019 Y130.640 E0.21945
G1 X112.170 Y133.844 E0.21945
G1 X108.530 Y133.844 E0.21589
G1 X108.094 Y133.981 F7800.000
G1 X118.356 Y134.319 F7800.000
G1 X116.232 Y130.640 E0.25203 F1080.000
G1 X118.356 Y126.961 E0.25203
G1 X122.604 Y126.961 E0.25203
G1 X124.728 Y130.640 E0.25203
G1 X122.604 Y134.319 E0.25203
G1 X118.416 Y134.319 E0.24847
G1 X118.630 Y133.844 F7800.000
G1 X116.781 Y130.640 E0.21945 F1080.000
G1 X118.630 Y127.436 E0.21945
G1 X122.330 Y127.436 E0.21945
G1 X124.179 Y130.640 E0.21945
G1 X122.330 Y133.844 E0.21945
G1 X118.690 Y133.844 E0.21589
G1 X118.254 Y133.981 F7800.000
G1 E-1.30000 F3600.00000
G1 X128.516 Y83.519 F7800.000
G1 E1.30000 F3600.00000
G1 X126.392 Y79.840 E0.25203 F1080.000
G1 X128.516 Y76.161 E0.25203
G1 X132.764 Y76.161 E0.25203
G1 X134.888 Y79.840 E0.25203
G1 X132.764 Y83.519 E0.25203
G1 X128.576 Y83.519 E0.24847
G1 X128.790 Y83.044 F7800.000
G1 X126.941 Y79.840 E0.21945 F1080.000
G1 X128.790 Y76.636 E0.21945
G1 X132.490 Y76.636 E0.21945
G1 X134.339 Y79.840 E0.21945
G1 X132.490 Y83.044 E0.21945
G1 X128.850 Y83.044 E0.21589
G1 X128.414 Y83.181 F7800.000
G1 X122.798 Y76.496 F7800.000
G1 X124.728 Y79.840 E0.22909 F1620.000
G1 X122.604 Y83.519 E0.25203
G1 X118.356 Y83.519 E0.25203
G1 X116.232 Y79.840 E0.25203
G1 X118.162 Y76.496 E0.22908
G1 X112.638 Y76.496 E0.32774
G1 X114.568 Y79.840 E0.22909
G1 X112.444 Y83.519 E0.25203
G1 X108.196 Y83.519 E0.25203
G1 X106.072 Y79.840 E0.25203
G1 X108.002 Y76.496 E0.22908
G1 X102.478 Y76.496 E0.32774
G1 X104.408 Y79.840 E0.22909
G1 X102.284 Y83.519 E0.25203
G1 X98.036 Y83.519 E0.25203
G1 X95.912 Y79.840 E0.25203
G1 X97.842 Y76.496 E0.22908
G1 X92.318 Y76.496 E0.32773
G1 X94.248 Y79.840 E0.22908
G1 X92.124 Y83.519 E0.25203
G1 X87.876 Y83.519 E0.25203
G1 X85.752 Y79.840 E0.25203
G1 X87.682 Y76.496 E0.22908
G1 X82.158 Y76.496 E0.32773
G1 X84.088 Y79.840 E0.22908
G1 X81.964 Y83.519 E0.25203
G1 X77.716 Y83.519 E0.25203
G1 X75.592 Y79.840 E0.25203
G1 X77.522 Y76.496 E0.22909
G1 X71.998 Y76.496 E0.32774
G1 X73.928 Y79.840 E0.22908
G1 X71.804 Y83.519 E0.25203
G1 X67.556 Y83.519 E0.25203
G1 X65.432 Y79.840 E0.25203
G1 X67.362 Y76.496 E0.22909
G1 X61.838 Y76.496 E0.32773
G1 X63.768 Y79.840 E0.22908
G1 X61.644 Y83.519 E0.25203
G1 X57.396 Y83.519 E0.25203
G1 X55.272 Y79.840 E0.25203
G1 X57.202 Y76.496 E0.22908
G1 X53.754 Y76.496 E0.20454
G1 X53.754 Y69.850 E0.39421
G1 X53.543 Y69.794 E0.01299
G1 X51.484 Y73.359 E0.24425
G1 X47.236 Y73.359 E0.25203
G1 X45.112 Y69.680 E0.25203
G1 X47.236 Y66.001 E0.25203
G1 X51.484 Y66.001 E0.25203
G1 X53.543 Y69.566 E0.24425
G1 X53.754 Y69.510 E0.01299
G1 X53.754 Y59.690 E0.58251
G1 X53.543 Y59.634 E0.01299
G1 X51.484 Y63.199 E0.24425
G1 X47.236 Y63.199 E0.25203
G1 X45.112 Y59.520 E0.25203
G1 X47.236 Y55.841 E0.25203
G1 X51.484 Y55.841 E0.25203
G1 X53.543 Y59.406 E0.24425
G1 X53.754 Y59.350 E0.01299
G1 X53.754 Y53.004 E0.37642
G1 X57.376 Y53.004 E0.21482
G1 X55.272 Y49.360 E0.24963
G1 X57.396 Y45.681 E0.25203
G1 X61.644 Y45.681 E0.25203
G1 X63.768 Y49.360 E0.25203
G1 X61.664 Y53.004 E0.24963
G1 X67.536 Y53.004 E0.34829
G1 X65.432 Y49.360 E0.24964
G1 X67.556 Y45.681 E0.25203
G1 X71.804 Y45.681 E0.25203
G1 X73.928 Y49.360 E0.25203
G1 X71.824 Y53.004 E0.24963
G1 X77.696 Y53.004 E0.34829
G1 X75.592 Y49.360 E0.24964
G1 X77.716 Y45.681 E0.25203
G1 X81.964 Y45.681 E0.25203
G1 X84.088 Y49.360 E0.25203
G1 X81.984 Y53.004 E0.24963
G1 X87.856 Y53.004 E0.34829
G1 X85.752 Y49.360 E0.24963
G1 X87.876 Y45.681 E0.25203
G1 X92.124 Y45.681 E0.25203
G1 X94.248 Y49.360 E0.25203
G1 X92.144 Y53.004 E0.24963
G1 X98.016 Y53.004 E0.34829
G1 X95.912 Y49.360 E0.24963
G1 X98.036 Y45.681 E0.25203
G1 X102.284 Y45.681 E0.25203
G1 X104.408 Y49.360 E0.25203
G1 X102.304 Y53.004 E0.24964
G1 X108.176 Y53.004 E0.34829
G1 X106.072 Y49.360 E0.24963
G1 X108.196 Y45.681 E0.25203
G1 X112.444 Y45.681 E0.25203
G1 X114.568 Y49.360 E0.25203
G1 X112.464 Y53.004 E0.24964
G1 X118.336 Y53.004 E0.34829
G1 X116.232 Y49.360 E0.24964
G1 X118.356 Y45.681 E0.25203
G1 X122.604 Y45.681 E0.25203
G1 X124.728 Y49.360 E0.25203
G1 X122.624 Y53.004 E0.24964
G1 X126.246 Y53.004 E0.21482
G1 X126.246 Y59.350 E0.37642
G1 X126.457 Y59.406 E0.01299
G1 X128.516 Y55.841 E0.24425
G1 X132.764 Y55.841 E0.25203
G1 X134.888 Y59.520 E0.25203
G1 X132.764 Y63.199 E0.25203
G1 X128.516 Y63.199 E0.25203
G1 X126.457 Y59.634 E0.24425
G1 X126.246 Y59.690 E0.01299
G1 X126.246 Y69.510 E0.58251
G1 X126.457 Y69.566 E0.01299
G1 X128.516 Y66.001 E0.24425
G1 X132.764 Y66.001 E0.25203
G1 X134.888 Y69.680 E0.25203
G1 X132.764 Y73.359 E0.25203
G1 X128.516 Y73.359 E0.25203
G1 X126.457 Y69.794 E0.24425
G1 X126.246 Y69.850 E0.01299
G1 X126.246 Y76.496 E0.39421
G1 X122.858 Y76.496 E0.20099
G1 X124.179 Y79.840 F7800.000
G1 X122.330 Y83.044 E0.21945 F1080.000
G1 X118.630 Y83.044 E0.21945
G1 X116.781 Y79.840 E0.21945
G1 X118.630 Y76.636 E0.21945
G1 X122.330 Y76.636 E0.21945
G1 X124.149 Y79.788 E0.21589
G1 X124.486 Y80.097 F7800.000
G1 E-1.30000 F3600.00000
G1 X114.019 Y79.840 F7800.000
G1 E1.30000 F3600.00000
G1 X112.170 Y83.044 E0.21945 F1080.000
G1 X108.470 Y83.044 E0.21945
G1 X106.621 Y79.840 E0.21945
G1 X108.470 Y76.636 E0.21945
G1 X112.170 Y76.636 E0.21945
G1 X113.989 Y79.788 E0.21589
G1 X114.326 Y80.097 F7800.000
G1 E-1.30000 F3600.00000
G1 X103.859 Y79.840 F7800.000
G1 E1.30000 F3600.00000
G1 X102.010 Y83.044 E0.21945 F1080.000
G1 X98.310 Y83.044 E0.21945
G1 X96.461 Y79.840 E0.21945
G1 X98.310 Y76.636 E0.21945
G1 X102.010 Y76.636 E0.21945
G1 X103.829 Y79.788 E0.21589
G1 X104.166 Y80.097 F7800.000
G1 E-1.30000 F3600.00000
G1 X91.850 Y76.636 F7800.000
G1 E1.30000 F3600.00000
G1 X93.699 Y79.840 E0.21945 F1080.000
G1 X91.850 Y83.044 E0.21945
G1 X88.150 Y83.044 E0.21945
G1 X86.301 Y79.840 E0.21945
G1 X88.150 Y76.636 E0.21945
G1 X91.790 Y76.636 E0.21589
G1 X92.226 Y76.499 F7800.000
G1 X81.690 Y76.636 F7800.000
G1 X83.539 Y79.840 E0.21945 F1080.000
G1 X81.690 Y83.044 E0.21945
G1 X77.990 Y83.044 E0.21945
G1 X76.141 Y79.840 E0.21945
G1 X77.990 Y76.636 E0.21945
G1 X81.630 Y76.636 E0.21589
G1 X82.066 Y76.499 F7800.000
G1 X71.530 Y76.636 F7800.000
G1 X73.379 Y79.840 E0.21945 F1080.000
G1 X71.530 Y83.044 E0.21945
G1 X67.830 Y83.044 E0.21945
G1 X65.981 Y79.840 E0.21945
G1 X67.830 Y76.636 E0.21945
G1 X71.470 Y76.636 E0.21589
G1 X71.906 Y76.499 F7800.000
G1 X61.370 Y76.636 F7800.000
G1 X63.219 Y79.840 E0.21945 F1080.000
G1 X61.370 Y83.044 E0.21945
G1 X57.670 Y83.044 E0.21945
G1 X55.821 Y79.840 E0.21945
G1 X57.670 Y76.636 E0.21945
G1 X61.310 Y76.636 E0.21589
G1 X61.746 Y76.499 F7800.000
G1 E-1.30000 F3600.00000
G1 X51.210 Y72.884 F7800.000
G1 E1.30000 F3600.00000
G1 X47.510 Y72.884 E0.21945 F1080.000
G1 X45.661 Y69.680 E0.21945
G1 X47.510 Y66.476 E0.21945
G1 X51.210 Y66.476 E0.21945
G1 X53.059 Y69.680 E0.21945
G1 X51.240 Y72.832 E0.21589
G1 X51.140 Y73.278 F7800.000
G1 E-1.30000 F3600.00000
G1 X51.210 Y62.724 F7800.000
G1 E1.30000 F3600.00000
G1 X47.510 Y62.724 E0.21945 F1080.000
G1 X45.661 Y59.520 E0.21945
G1 X47.510 Y56.316 E0.21945
G1 X51.210 Y56.316 E0.21945
G1 X53.059 Y59.520 E0.21945
G1 X51.240 Y62.672 E0.21589
G1 X51.140 Y63.118 F7800.000
G1 E-1.30000 F3600.00000
G1 X54.230 Y53.480 F7800.000
G1 E1.30000 F3600.00000
G1 X125.770 Y53.480 E4.24389 F1458.000
G1 X125.770 Y76.020 E1.33712
G1 X54.230 Y76.020 E4.24389
G1 X54.230 Y53.540 E1.33356
G1 X54.230 Y53.080 F7800.000
G1 X57.670 Y52.564 F7800.000
G1 X55.821 Y49.360 E0.21945 F1080.000
G1 X57.670 Y46.156 E0.21945
G1 X61.370 Y46.156 E0.21945
G1 X63.219 Y49.360 E0.21945
G1 X61.370 Y52.564 E0.21945
G1 X57.730 Y52.564 E0.21589
G1 X57.294 Y52.700 F7800.000
G1 E-1.30000 F3600.00000
G1 X65.981 Y49.360 F7800.000
G1 E1.30000 F3600.00000
G1 X67.830 Y46.156 E0.21945 F1080.000
G1 X71.530 Y46.156 E0.21945
G1 X73.379 Y49.360 E0.21945
G1 X71.530 Y52.564 E0.21945
G1 X67.830 Y52.564 E0.21945
G1 X66.011 Y49.412 E0.21589
G1 X65.674 Y49.103 F7800.000
G1 E-1.30000 F3600.00000
G1 X76.141 Y49.360 F7800.000
G1 E1.30000 F3600.00000
G1 X77.990 Y46.156 E0.21945 F1080.000
G1 X81.690 Y46.156 E0.21945
G1 X83.539 Y49.360 E0.21945
G1 X81.690 Y52.564 E0.21945
G1 X77.990 Y52.564 E0.21945
G1 X76.171 Y49.412 E0.21589
G1 X75.834 Y49.103 F7800.000
G1 E-1.30000 F3600.00000
G1 X88.150 Y52.564 F7800.000
G1 E1.30000 F3600.00000
G1 X86.301 Y49.360 E0.21945 F1080.000
G1 X88.150 Y46.156 E0.21945
G1 X91.850 Y46.156 E0.21945
G1 X93.699 Y49.360 E0.21945
G1 X91.850 Y52.564 E0.21945
G1 X88.210 Y52.564 E0.21589
G1 X87.774 Y52.700 F7800.000
G1 X98.310 Y52.564 F7800.000
G1 X96.461 Y49.360 E0.21945 F1080.000
G1 X98.310 Y46.156 E0.21945
G1 X102.010 Y46.156 E0.21945
G1 X103.859 Y49.360 E0.21945
G1 X102.010 Y52.564 E0.21945
G1 X98.370 Y52.564 E0.21589
G1 X97.934 Y52.700 F7800.000
G1 X108.470 Y52.564 F7800.000
G1 X106.621 Y49.360 E0.21945 F1080.000
G1 X108.470 Y46.156 E0.21945
G1 X112.170 Y46.156 E0.21945
G1 X114.019 Y49.360 E0.21945
G1 X112.170 Y52.564 E0.21945
G1 X108.530 Y52.564 E0.21589
G1 X108.094 Y52.700 F7800.000
G1 E-1.30000 F3600.00000
G1 X118.630 Y46.156 F7800.000
G1 E1.30000 F3600.00000
G1 X122.330 Y46.156 E0.21945 F1080.000
G1 X124.179 Y49.360 E0.21945
G1 X122.330 Y52.564 E0.21945
G1 X118.630 Y52.564 E0.21945
G1 X116.781 Y49.360 E0.21945
G1 X118.600 Y46.208 E0.21589
G1 X118.700 Y45.762 F7800.000
G1 E-1.30000 F3600.00000
G1 X128.790 Y56.316 F7800.000
G1 E1.30000 F3600.00000
G1 X132.490 Y56.316 E0.21945 F1080.000
G1 X134.339 Y59.520 E0.21945
G1 X132.490 Y62.724 E0.21945
G1 X128.790 Y62.724 E0.21945
G1 X126.941 Y59.520 E0.21945
G1 X128.760 Y56.368 E0.21589
G1 X128.860 Y55.922 F7800.000
G1 E-1.30000 F3600.00000
G1 X128.790 Y66.476 F7800.000
G1 E1.30000 F3600.00000
G1 X132.490 Y66.476 E0.21945 F1080.000
G1 X134.339 Y69.680 E0.21945
G1 X132.490 Y72.884 E0.21945
G1 X128.790 Y72.884 E0.21945
G1 X126.941 Y69.680 E0.21945
G1 X128.760 Y66.528 E0.21589
G1 X128.860 Y66.082 F7800.000
G1 E-1.30000 F3600.00000
G1 X51.498 Y49.000 F7800.000
G1 E1.30000 F3600.00000
G1 X49.374 Y52.679 E0.25203 F1080.000
G1 X45.126 Y52.679 E0.25203
G1 X43.002 Y49.000 E0.25203
G1 X45.126 Y45.321 E0.25203
G1 X49.374 Y45.321 E0.25203
G1 X51.468 Y48.948 E0.24847
G1 X50.949 Y49.000 F7800.000
G1 X49.100 Y52.204 E0.21945 F1080.000
G1 X45.400 Y52.204 E0.21945
G1 X43.551 Y49.000 E0.21945
G1 X45.400 Y45.796 E0.21945
G1 X49.100 Y45.796 E0.21945
G1 X50.919 Y48.948 E0.21589
G1 X51.256 Y49.257 F7800.000
G1 E-1.30000 F3600.00000
G1 X51.484 Y76.161 F7800.000
G1 E1.30000 F3600.00000
G1 X53.608 Y79.840 E0.25203 F1080.000
G1 X51.484 Y83.519 E0.25203
G1 X47.236 Y83.519 E0.25203
G1 X45.112 Y79.840 E0.25203
G1 X47.236 Y76.161 E0.25203
G1 X51.424 Y76.161 E0.24847
G1 X51.210 Y76.636 F7800.000
G1 X53.059 Y79.840 E0.21945 F1080.000
G1 X51.210 Y83.044 E0.21945
G1 X47.510 Y83.044 E0.21945
G1 X45.661 Y79.840 E0.21945
G1 X47.510 Y76.636 E0.21945
G1 X51.150 Y76.636 E0.21589
