; generated by Slic3r 1.2.7-dev on 2015-04-20 at 11:17:37

; external perimeters extrusion width = 0.40mm
; perimeters extrusion width = 0.48mm
; infill extrusion width = 0.48mm
; solid infill extrusion width = 0.48mm
; top infill extrusion width = 0.48mm

M107
M190 S60 ; set bed temperature
M104 S215 ; set temperature
G28 ; home all axes
G92 E0.0 ; reset extruder
M109 S215 ; wait for temperature to be reached
G21 ; set units to millimeters
G90 ; use absolute coordinates
M83 ; use relative distances for extrusion
G1 E-1.30000 F3600.00000
G1 Z0.300 F7800.000
G1 X39.428 Y53.272 F7800.000
G1 E1.30000 F3600.00000
M204 S500
G1 X41.807 Y51.634 E0.17330 F2160.000
G1 X44.543 Y50.709 E0.17330
G1 X46.500 Y50.524 E0.11798
G1 X133.500 Y50.524 E5.22050
G1 X136.360 Y50.922 E0.17330
G1 X139.003 Y52.086 E0.17330 F2160.000
G1 X141.228 Y53.928 E0.17330
G1 X142.866 Y56.307 E0.17330
G1 X143.791 Y59.043 E0.17330
G1 X143.976 Y61.000 E0.11798
G1 X143.976 Y119.000 E3.48033
G1 X143.578 Y121.860 E0.17330
G1 X142.414 Y124.503 E0.17330
G1 X140.572 Y126.728 E0.17330
G1 X138.193 Y128.366 E0.17330
G1 X135.457 Y129.291 E0.17330
G1 X133.500 Y129.476 E0.11798
G1 X46.500 Y129.476 E5.22050
G1 X43.640 Y129.078 E0.17330
G1 X40.997 Y127.914 E0.17330
G1 X38.772 Y126.072 E0.17330
G1 X37.134 Y123.693 E0.17330
G1 X36.209 Y120.957 E0.17330
G1 X36.024 Y119.000 E0.11798
G1 X36.024 Y61.000 E3.48033
G1 X36.422 Y58.140 E0.17330
G1 X37.586 Y55.497 E0.17330
G1 X39.390 Y53.318 E0.16970
G1 F6240
G1 X41.239 Y52.030 E-1.23500
G1 E-0.06500 F3600.00000
G1 X43.969 Y57.813 F7800.000
G1 E1.30000 F3600.00000
G1 X44.825 Y56.957 E0.07264 F2160.000
G1 X135.175 Y56.957 E5.42146
G1 X137.543 Y59.325 E0.20097
G1 X137.543 Y120.675 E3.68130 F2160.000
G1 X135.175 Y123.043 E0.20097
G1 X44.825 Y123.043 E5.42146
G1 X42.457 Y120.675 E0.20097
G1 X42.457 Y59.325 E3.68130
G1 X43.927 Y57.856 E0.12472
G1 X44.306 Y58.150 F7800.000
G1 X45.022 Y57.433 E0.06082 F2160.000
G1 X134.978 Y57.433 E5.39782
G1 X137.067 Y59.522 E0.17732 F2160.000
G1 X137.067 Y120.478 E3.65765
G1 X134.978 Y122.567 E0.17732
G1 X45.022 Y122.567 E5.39782
G1 X42.933 Y120.478 E0.17732
G1 X42.933 Y59.522 E3.65765
G1 X44.263 Y58.192 E0.11290
G1 X44.642 Y58.486 F7800.000
G1 X45.219 Y57.908 E0.04900 F2160.000
G1 X134.781 Y57.908 E5.37418
G1 X136.592 Y59.719 E0.15368
G1 X136.592 Y120.281 E3.63401 F2160.000
G1 X134.781 Y122.092 E0.15368
G1 X45.219 Y122.092 E5.37418
G1 X43.408 Y120.281 E0.15368
G1 X43.408 Y59.719 E3.63401
G1 X44.600 Y58.528 E0.10108
G1 X44.978 Y58.822 F7800.000
G1 X45.416 Y58.384 E0.03718 F2160.000
G1 X134.584 Y58.384 E5.35053
G1 X136.116 Y59.916 E0.13004 F2160.000
G1 X136.116 Y120.084 E3.61037
G1 X134.584 Y121.616 E0.13004
G1 X45.416 Y121.616 E5.35053
G1 X43.884 Y120.084 E0.13004
G1 X43.884 Y59.916 E3.61037
G1 X44.936 Y58.865 E0.08926
G1 X45.315 Y59.159 F7800.000
G1 X45.613 Y58.860 E0.02536 F2160.000
G1 X134.387 Y58.860 E5.32689
G1 X135.640 Y60.113 E0.10639
G1 X135.640 Y119.887 E3.58673 F2160.000
G1 X134.387 Y121.140 E0.10639
G1 X45.613 Y121.140 E5.32689
G1 X44.360 Y119.887 E0.10639
G1 X44.360 Y60.113 E3.58673
G1 X45.272 Y59.201 E0.07744
G1 X45.651 Y59.495 F7800.000
G1 X45.810 Y59.335 E0.01354 F2160.000
G1 X134.190 Y59.335 E5.30325
G1 X135.165 Y60.310 E0.08275 F2160.000
G1 X135.165 Y119.690 E3.56308
G1 X134.190 Y120.665 E0.08275
G1 X45.810 Y120.665 E5.30325
G1 X44.835 Y119.690 E0.08275
G1 X44.835 Y60.310 E3.56308
G1 X45.609 Y59.537 E0.06562
G1 X45.987 Y59.831 F7800.000
G1 X46.007 Y59.811 E0.00171 F2160.000
G1 X133.993 Y59.811 E5.27960
G1 X134.689 Y60.507 E0.05911
G1 X134.689 Y119.493 E3.53944 F2160.000
G1 X133.993 Y120.189 E0.05911
G1 X46.007 Y120.189 E5.27960
G1 X45.311 Y119.493 E0.05911
G1 X45.311 Y60.507 E3.53944
G1 X45.945 Y59.874 E0.05379
G1 X46.204 Y60.287 F7800.000
G1 X133.796 Y60.287 E5.25596 F2160.000
G1 X134.213 Y60.704 E0.03546 F2160.000
G1 X134.213 Y64.212 E0.21048
G1 X134.128 Y64.235 E0.00531
G1 X134.128 Y64.965 E0.04380
G1 X134.213 Y64.988 E0.00531
G1 X134.213 Y74.372 E0.56311
G1 X134.128 Y74.395 E0.00531
G1 X134.128 Y75.125 E0.04380
G1 X134.213 Y75.148 E0.00531
G1 X134.213 Y84.532 E0.56311
G1 X134.128 Y84.555 E0.00531
G1 X134.128 Y85.285 E0.04380
G1 X134.213 Y85.308 E0.00531
G1 X134.213 Y94.692 E0.56311
G1 X134.128 Y94.715 E0.00531
G1 X134.128 Y95.445 E0.04380
G1 X134.213 Y95.468 E0.00531
G1 X134.213 Y115.012 E1.17277
G1 X134.128 Y115.035 E0.00531
G1 X134.128 Y115.765 E0.04380
G1 X134.213 Y115.788 E0.00531
G1 X134.213 Y119.296 E0.21048
G1 X133.796 Y119.713 E0.03546
G1 X46.204 Y119.713 E5.25596
G1 X45.787 Y119.296 E0.03546
G1 X45.787 Y115.788 E0.21048
G1 X45.872 Y115.765 E0.00531
G1 X45.872 Y115.035 E0.04380
G1 X45.787 Y115.012 E0.00531
G1 X45.787 Y105.628 E0.56311
G1 X45.872 Y105.605 E0.00531
G1 X45.872 Y104.875 E0.04380
G1 X45.787 Y104.852 E0.00531
G1 X45.787 Y95.468 E0.56311
G1 X45.872 Y95.445 E0.00531
G1 X45.872 Y94.715 E0.04380
G1 X45.787 Y94.692 E0.00531
G1 X45.787 Y85.308 E0.56311
G1 X45.872 Y85.285 E0.00531
G1 X45.872 Y84.555 E0.04380
G1 X45.787 Y84.532 E0.00531
G1 X45.787 Y75.148 E0.56311
G1 X45.872 Y75.125 E0.00531
G1 X45.872 Y74.395 E0.04380
G1 X45.787 Y74.372 E0.00531
G1 X45.787 Y64.988 E0.56311
G1 X45.872 Y64.965 E0.00531
G1 X45.872 Y64.235 E0.04380
G1 X45.787 Y64.212 E0.00531
G1 X45.787 Y60.704 E0.21048
G1 X46.162 Y60.329 E0.03186
G1 F6240
G1 X48.415 Y60.328 E-1.23500
G1 E-0.06500 F3600.00000
G1 X47.998 Y62.496 F7800.000
G1 E1.30000 F3600.00000
G1 X48.219 Y62.369 E0.01529 F2160.000
G1 X50.501 Y62.369 E0.13693
G1 X50.722 Y62.496 E0.01529
G1 X51.863 Y64.473 E0.13693
G1 X51.863 Y64.727 E0.01529
G1 X50.722 Y66.704 E0.13693
G1 X50.501 Y66.831 E0.01529
G1 X48.219 Y66.831 E0.13693
G1 X47.998 Y66.704 E0.01529
G1 X46.857 Y64.727 E0.13693
G1 X46.857 Y64.473 E0.01529
G1 X47.968 Y62.548 E0.13333
G1 F6240
G1 X48.219 Y62.369 E-0.16898
G1 F6240
G1 X50.164 Y62.369 E-1.06602
G1 E-0.06500 F3600.00000
G1 X50.226 Y62.845 F7800.000
G1 E1.30000 F3600.00000
G1 X50.447 Y62.972 E0.01529 F2160.000
G1 X51.313 Y64.473 E0.10397
G1 X51.313 Y64.727 E0.01529
G1 X50.447 Y66.228 E0.10397
G1 X50.226 Y66.355 E0.01529
G1 X48.494 Y66.355 E0.10397
G1 X48.273 Y66.228 E0.01529
G1 X47.407 Y64.727 E0.10397
G1 X47.407 Y64.473 E0.01529
G1 X48.273 Y62.972 E0.10397
G1 X48.494 Y62.845 E0.01529
G1 X50.166 Y62.845 E0.10037
G1 X48.548 Y63.448 F7800.000
G1 X48.768 Y63.320 E0.01529 F2160.000
G1 X49.952 Y63.320 E0.07102
G1 X50.172 Y63.448 E0.01529
G1 X50.764 Y64.473 E0.07102
G1 X50.764 Y64.727 E0.01529
G1 X50.172 Y65.752 E0.07102
G1 X49.952 Y65.880 E0.01529
G1 X48.768 Y65.880 E0.07102
G1 X48.548 Y65.752 E0.01529
G1 X47.956 Y64.727 E0.07102
G1 X47.956 Y64.473 E0.01529
G1 X48.518 Y63.500 E0.06742
G1 X49.677 Y63.796 F7800.000
G1 X49.898 Y63.923 E0.01529 F2160.000
G1 X50.215 Y64.473 E0.03806
G1 X50.215 Y64.727 E0.01529
G1 X49.898 Y65.277 E0.03806
G1 X49.677 Y65.404 E0.01529
G1 X49.043 Y65.404 E0.03806
G1 X48.822 Y65.277 E0.01529
G1 X48.505 Y64.727 E0.03806
G1 X48.505 Y64.473 E0.01529
G1 X48.822 Y63.923 E0.03806
G1 X49.043 Y63.796 E0.01529
G1 X49.617 Y63.796 E0.03446
G1 F6240
G1 X49.898 Y63.923 E-0.16898
G1 F6240
G1 X50.215 Y64.473 E-0.34764
G1 F6240
G1 X50.215 Y64.727 E-0.13970
G1 F6240
G1 X49.898 Y65.277 E-0.34765
G1 F6240
G1 X49.677 Y65.404 E-0.13970
G1 F6240
G1 X49.510 Y65.404 E-0.09134
G1 E-0.06500 F3600.00000
G1 X50.722 Y72.656 F7800.000
G1 E1.30000 F3600.00000
G1 X51.863 Y74.633 E0.13693 F2160.000
G1 X51.863 Y74.887 E0.01529
G1 X50.722 Y76.864 E0.13693
G1 X50.501 Y76.991 E0.01529
G1 X48.219 Y76.991 E0.13693
G1 X47.998 Y76.864 E0.01529
G1 X46.857 Y74.887 E0.13693
G1 X46.857 Y74.633 E0.01529
G1 X47.998 Y72.656 E0.13693
G1 X48.219 Y72.529 E0.01529
G1 X50.501 Y72.529 E0.13693
G1 X50.670 Y72.626 E0.01169
G1 X50.226 Y73.005 F7800.000
G1 X50.447 Y73.132 E0.01529 F2160.000
G1 X51.313 Y74.633 E0.10397
G1 X51.313 Y74.887 E0.01529
G1 X50.447 Y76.388 E0.10397
G1 X50.226 Y76.515 E0.01529
G1 X48.494 Y76.515 E0.10397
G1 X48.273 Y76.388 E0.01529
G1 X47.407 Y74.887 E0.10397
G1 X47.407 Y74.633 E0.01529
G1 X48.273 Y73.132 E0.10397
G1 X48.494 Y73.005 E0.01529
G1 X50.166 Y73.005 E0.10037
G1 X50.172 Y73.608 F7800.000
G1 X50.764 Y74.633 E0.07102 F2160.000
G1 X50.764 Y74.887 E0.01529
G1 X50.172 Y75.912 E0.07102
G1 X49.952 Y76.040 E0.01529
G1 X48.768 Y76.040 E0.07102
G1 X48.548 Y75.912 E0.01529
G1 X47.956 Y74.887 E0.07102
G1 X47.956 Y74.633 E0.01529
G1 X48.548 Y73.608 E0.07102
G1 X48.768 Y73.480 E0.01529
G1 X49.952 Y73.480 E0.07102
G1 X50.121 Y73.578 E0.01169
G1 X49.677 Y73.956 F7800.000
G1 X49.898 Y74.083 E0.01529 F2160.000
G1 X50.215 Y74.633 E0.03806
G1 X50.215 Y74.887 E0.01529
G1 X49.898 Y75.437 E0.03806
G1 X49.677 Y75.564 E0.01529
G1 X49.043 Y75.564 E0.03806
G1 X48.822 Y75.437 E0.01529
G1 X48.505 Y74.887 E0.03806
G1 X48.505 Y74.633 E0.01529
G1 X48.822 Y74.083 E0.03806
G1 X49.043 Y73.956 E0.01529
G1 X49.617 Y73.956 E0.03446
G1 F6240
G1 X49.898 Y74.083 E-0.16898
G1 F6240
G1 X50.215 Y74.633 E-0.34765
G1 F6240
G1 X50.215 Y74.887 E-0.13970
G1 F6240
G1 X49.898 Y75.437 E-0.34765
G1 F6240
G1 X49.677 Y75.564 E-0.13970
G1 F6240
G1 X49.511 Y75.564 E-0.09133
G1 E-0.06500 F3600.00000
G1 X50.722 Y82.816 F7800.000
G1 E1.30000 F3600.00000
G1 X51.863 Y84.793 E0.13693 F2160.000
G1 X51.863 Y85.047 E0.01529
G1 X50.722 Y87.024 E0.13693
G1 X50.501 Y87.151 E0.01529
G1 X48.219 Y87.151 E0.13693
G1 X47.998 Y87.024 E0.01529
G1 X46.857 Y85.047 E0.13693
G1 X46.857 Y84.793 E0.01529
G1 X47.998 Y82.816 E0.13693
G1 X48.219 Y82.689 E0.01529
G1 X50.501 Y82.689 E0.13693
G1 X50.670 Y82.786 E0.01169
G1 X50.226 Y83.165 F7800.000
G1 X50.447 Y83.292 E0.01529 F2160.000
G1 X51.313 Y84.793 E0.10397
G1 X51.313 Y85.047 E0.01529
G1 X50.447 Y86.548 E0.10397
G1 X50.226 Y86.675 E0.01529
G1 X48.494 Y86.675 E0.10397
G1 X48.273 Y86.548 E0.01529
G1 X47.407 Y85.047 E0.10397
G1 X47.407 Y84.793 E0.01529
G1 X48.273 Y83.292 E0.10397
G1 X48.494 Y83.165 E0.01529
G1 X50.166 Y83.165 E0.10037
G1 X50.172 Y83.768 F7800.000
G1 X50.764 Y84.793 E0.07102 F2160.000
G1 X50.764 Y85.047 E0.01529
G1 X50.172 Y86.072 E0.07102
G1 X49.952 Y86.200 E0.01529
G1 X48.768 Y86.200 E0.07102
G1 X48.548 Y86.072 E0.01529
G1 X47.956 Y85.047 E0.07102
G1 X47.956 Y84.793 E0.01529
G1 X48.548 Y83.768 E0.07102
G1 X48.768 Y83.640 E0.01529
G1 X49.952 Y83.640 E0.07102
G1 X50.121 Y83.738 E0.01169
G1 X49.677 Y84.116 F7800.000
G1 X49.898 Y84.243 E0.01529 F2160.000
G1 X50.215 Y84.793 E0.03806
G1 X50.215 Y85.047 E0.01529
G1 X49.898 Y85.597 E0.03806
G1 X49.677 Y85.724 E0.01529
G1 X49.043 Y85.724 E0.03806
G1 X48.822 Y85.597 E0.01529
G1 X48.505 Y85.047 E0.03806
G1 X48.505 Y84.793 E0.01529
G1 X48.822 Y84.243 E0.03806
G1 X49.043 Y84.116 E0.01529
G1 X49.617 Y84.116 E0.03446
G1 F6240
G1 X49.898 Y84.243 E-0.16898
G1 F6240
G1 X50.215 Y84.793 E-0.34765
G1 F6240
G1 X50.215 Y85.047 E-0.13969
G1 F6240
G1 X49.898 Y85.597 E-0.34765
G1 F6240
G1 X49.677 Y85.724 E-0.13970
G1 F6240
G1 X49.511 Y85.724 E-0.09133
G1 E-0.06500 F3600.00000
G1 X50.722 Y92.976 F7800.000
G1 E1.30000 F3600.00000
G1 X51.863 Y94.953 E0.13693 F2160.000
G1 X51.863 Y95.207 E0.01529
G1 X50.722 Y97.184 E0.13693
G1 X50.501 Y97.311 E0.01529
G1 X48.219 Y97.311 E0.13693
G1 X47.998 Y97.184 E0.01529
G1 X46.857 Y95.207 E0.13693
G1 X46.857 Y94.953 E0.01529
G1 X47.998 Y92.976 E0.13693
G1 X48.219 Y92.849 E0.01529
G1 X50.501 Y92.849 E0.13693
G1 X50.670 Y92.946 E0.01169
G1 X50.226 Y93.325 F7800.000
G1 X50.447 Y93.452 E0.01529 F2160.000
G1 X51.313 Y94.953 E0.10397
G1 X51.313 Y95.207 E0.01529
G1 X50.447 Y96.708 E0.10397
G1 X50.226 Y96.835 E0.01529
G1 X48.494 Y96.835 E0.10397
G1 X48.273 Y96.708 E0.01529
G1 X47.407 Y95.207 E0.10397
G1 X47.407 Y94.953 E0.01529
G1 X48.273 Y93.452 E0.10397
G1 X48.494 Y93.325 E0.01529
G1 X50.166 Y93.325 E0.10037
G1 X50.172 Y93.928 F7800.000
G1 X50.764 Y94.953 E0.07102 F2160.000
G1 X50.764 Y95.207 E0.01529
G1 X50.172 Y96.232 E0.07102
G1 X49.952 Y96.360 E0.01529
G1 X48.768 Y96.360 E0.07102
G1 X48.548 Y96.232 E0.01529
G1 X47.956 Y95.207 E0.07102
G1 X47.956 Y94.953 E0.01529
G1 X48.548 Y93.928 E0.07102
G1 X48.768 Y93.800 E0.01529
G1 X49.952 Y93.800 E0.07102
G1 X50.121 Y93.898 E0.01169
G1 X49.677 Y94.276 F7800.000
G1 X49.898 Y94.403 E0.01529 F2160.000
G1 X50.215 Y94.953 E0.03806
G1 X50.215 Y95.207 E0.01529
G1 X49.898 Y95.757 E0.03806
G1 X49.677 Y95.884 E0.01529
G1 X49.043 Y95.884 E0.03806
G1 X48.822 Y95.757 E0.01529
G1 X48.505 Y95.207 E0.03806
G1 X48.505 Y94.953 E0.01529
G1 X48.822 Y94.403 E0.03806
G1 X49.043 Y94.276 E0.01529
G1 X49.617 Y94.276 E0.03446
G1 F6240
G1 X49.898 Y94.403 E-0.16898
G1 F6240
G1 X50.215 Y94.953 E-0.34765
G1 F6240
G1 X50.215 Y95.207 E-0.13969
G1 F6240
G1 X49.898 Y95.757 E-0.34765
G1 F6240
G1 X49.677 Y95.884 E-0.13970
G1 F6240
G1 X49.511 Y95.884 E-0.09133
G1 E-0.06500 F3600.00000
G1 X50.722 Y103.136 F7800.000
G1 E1.30000 F3600.00000
G1 X51.863 Y105.113 E0.13693 F2160.000
G1 X51.863 Y105.367 E0.01529
G1 X50.722 Y107.344 E0.13693
G1 X50.501 Y107.471 E0.01529
G1 X48.219 Y107.471 E0.13693
G1 X47.998 Y107.344 E0.01529
G1 X46.857 Y105.367 E0.13693
G1 X46.857 Y105.113 E0.01529
G1 X47.998 Y103.136 E0.13693
G1 X48.219 Y103.009 E0.01529
G1 X50.501 Y103.009 E0.13693
G1 X50.670 Y103.106 E0.01169
G1 X50.226 Y103.485 F7800.000
G1 X50.447 Y103.612 E0.01529 F2160.000
G1 X51.313 Y105.113 E0.10397
G1 X51.313 Y105.367 E0.01529
G1 X50.447 Y106.868 E0.10397
G1 X50.226 Y106.995 E0.01529
G1 X48.494 Y106.995 E0.10397
G1 X48.273 Y106.868 E0.01529
G1 X47.407 Y105.367 E0.10397
G1 X47.407 Y105.113 E0.01529
G1 X48.273 Y103.612 E0.10397
G1 X48.494 Y103.485 E0.01529
G1 X50.166 Y103.485 E0.10037
G1 X50.172 Y104.088 F7800.000
G1 X50.764 Y105.113 E0.07102 F2160.000
G1 X50.764 Y105.367 E0.01529
G1 X50.172 Y106.392 E0.07102
G1 X49.952 Y106.520 E0.01529
G1 X48.768 Y106.520 E0.07102
G1 X48.548 Y106.392 E0.01529
G1 X47.956 Y105.367 E0.07102
G1 X47.956 Y105.113 E0.01529
G1 X48.548 Y104.088 E0.07102
G1 X48.768 Y103.960 E0.01529
G1 X49.952 Y103.960 E0.07102
G1 X50.121 Y104.058 E0.01169
G1 X49.677 Y104.436 F7800.000
G1 X49.898 Y104.563 E0.01529 F2160.000
G1 X50.215 Y105.113 E0.03806
G1 X50.215 Y105.367 E0.01529
G1 X49.898 Y105.917 E0.03806
G1 X49.677 Y106.044 E0.01529
G1 X49.043 Y106.044 E0.03806
G1 X48.822 Y105.917 E0.01529
G1 X48.505 Y105.367 E0.03806
G1 X48.505 Y105.113 E0.01529
G1 X48.822 Y104.563 E0.03806
G1 X49.043 Y104.436 E0.01529
G1 X49.617 Y104.436 E0.03446
G1 F6240
G1 X49.898 Y104.563 E-0.16898
G1 F6240
G1 X50.215 Y105.113 E-0.34765
G1 F6240
G1 X50.215 Y105.367 E-0.13969
G1 F6240
G1 X49.898 Y105.917 E-0.34765
G1 F6240
G1 X49.677 Y106.044 E-0.13970
G1 F6240
G1 X49.511 Y106.044 E-0.09133
G1 E-0.06500 F3600.00000
G1 X50.722 Y113.296 F7800.000
G1 E1.30000 F3600.00000
G1 X51.863 Y115.273 E0.13693 F2160.000
G1 X51.863 Y115.527 E0.01529
G1 X50.722 Y117.504 E0.13693
G1 X50.501 Y117.631 E0.01529
G1 X48.219 Y117.631 E0.13693
G1 X47.998 Y117.504 E0.01529
G1 X46.857 Y115.527 E0.13693
G1 X46.857 Y115.273 E0.01529
G1 X47.998 Y113.296 E0.13693
G1 X48.219 Y113.169 E0.01529
G1 X50.501 Y113.169 E0.13693
G1 X50.670 Y113.266 E0.01169
G1 X50.226 Y113.645 F7800.000
G1 X50.447 Y113.772 E0.01529 F2160.000
G1 X51.313 Y115.273 E0.10397
G1 X51.313 Y115.527 E0.01529
G1 X50.447 Y117.028 E0.10397
G1 X50.226 Y117.155 E0.01529
G1 X48.494 Y117.155 E0.10397
G1 X48.273 Y117.028 E0.01529
G1 X47.407 Y115.527 E0.10397
G1 X47.407 Y115.273 E0.01529
G1 X48.273 Y113.772 E0.10397
G1 X48.494 Y113.645 E0.01529
G1 X50.166 Y113.645 E0.10037
G1 X50.172 Y114.248 F7800.000
G1 X50.764 Y115.273 E0.07102 F2160.000
G1 X50.764 Y115.527 E0.01529
G1 X50.172 Y116.552 E0.07102
G1 X49.952 Y116.680 E0.01529
G1 X48.768 Y116.680 E0.07102
G1 X48.548 Y116.552 E0.01529
G1 X47.956 Y115.527 E0.07102
G1 X47.956 Y115.273 E0.01529
G1 X48.548 Y114.248 E0.07102
G1 X48.768 Y114.120 E0.01529
G1 X49.952 Y114.120 E0.07102
G1 X50.121 Y114.218 E0.01169
G1 X49.677 Y114.596 F7800.000
G1 X49.898 Y114.723 E0.01529 F2160.000
G1 X50.215 Y115.273 E0.03806
G1 X50.215 Y115.527 E0.01529
G1 X49.898 Y116.077 E0.03806
G1 X49.677 Y116.204 E0.01529
G1 X49.043 Y116.204 E0.03806
G1 X48.822 Y116.077 E0.01529
G1 X48.505 Y115.527 E0.03806
G1 X48.505 Y115.273 E0.01529
G1 X48.822 Y114.723 E0.03806
G1 X49.043 Y114.596 E0.01529
G1 X49.617 Y114.596 E0.03446
G1 F6240
G1 X49.898 Y114.723 E-0.16898
