; generated by Slic3r 1.2.7-dev on 2015-02-15 at 20:21:01

; external perimeters extrusion width = 0.40mm
; perimeters extrusion width = 0.48mm
; infill extrusion width = 0.48mm
; solid infill extrusion width = 0.48mm
; top infill extrusion width = 0.48mm

M190 S80 ; set bed temperature
M104 S230 ; set temperature
G28 ; home all axes
G92 E0.0 ; reset extruder
M109 S230 ; wait for temperature to be reached
G21 ; set units to millimeters
G90 ; use absolute coordinates
M83 ; use relative distances for extrusion
G1 E-1.30000 F3600.00000
G1 Z0.300 F7800.000
G1 X39.369 Y53.244 F7800.000
G1 E1.30000 F3600.00000
M204 S500
G1 X41.750 Y51.596 E0.18381 F2160.000
G1 X44.491 Y50.658 E0.18381
G1 X46.500 Y50.464 E0.12812
G1 X133.500 Y50.464 E5.52147
G1 X136.369 Y50.862 E0.18381
G1 X139.021 Y52.027 E0.18381 F2160.000
G1 X141.256 Y53.869 E0.18381
G1 X142.904 Y56.250 E0.18381
G1 X143.842 Y58.991 E0.18381
G1 X144.036 Y61.000 E0.12812
G1 X144.036 Y119.000 E3.68098
G1 X143.638 Y121.869 E0.18381
G1 X142.473 Y124.521 E0.18381
G1 X140.631 Y126.756 E0.18381
G1 X138.250 Y128.404 E0.18381
G1 X135.509 Y129.342 E0.18381
G1 X133.500 Y129.536 E0.12812
G1 X46.500 Y129.536 E5.52147
G1 X43.631 Y129.138 E0.18381
G1 X40.979 Y127.973 E0.18381
G1 X38.744 Y126.131 E0.18381
G1 X37.096 Y123.750 E0.18381
G1 X36.158 Y121.009 E0.18381
G1 X35.964 Y119.000 E0.12812
G1 X35.964 Y61.000 E3.68098
G1 X36.362 Y58.131 E0.18381
G1 X37.527 Y55.479 E0.18381
G1 X39.331 Y53.291 E0.18001
G1 X40.563 Y54.438 F7800.000
G1 X42.839 Y52.162 E0.20430 F2160.000
G1 X137.161 Y52.162 E5.98612
G1 X142.338 Y57.339 E0.46465
G1 X142.338 Y122.661 E4.14563 F2160.000
G1 X137.161 Y127.838 E0.46465
G1 X42.839 Y127.838 E5.98612
G1 X37.662 Y122.661 E0.46465
G1 X37.662 Y57.339 E4.14563
G1 X40.521 Y54.481 E0.25655
G1 X40.942 Y54.817 F7800.000
G1 X43.061 Y52.698 E0.19022 F2160.000
G1 X136.939 Y52.698 E5.95796
G1 X141.802 Y57.561 E0.43649 F2160.000
G1 X141.802 Y122.439 E4.11747
G1 X136.939 Y127.302 E0.43649
G1 X43.061 Y127.302 E5.95796
G1 X38.198 Y122.439 E0.43649
G1 X38.198 Y57.561 E4.11747
G1 X40.899 Y54.860 E0.24247
G1 X41.321 Y55.196 F7800.000
G1 X43.283 Y53.234 E0.17613 F2160.000
G1 X136.717 Y53.234 E5.92980
G1 X141.266 Y57.783 E0.40833
G1 X141.266 Y122.217 E4.08931 F2160.000
G1 X136.717 Y126.766 E0.40833
G1 X43.283 Y126.766 E5.92980
G1 X38.734 Y122.217 E0.40833
G1 X38.734 Y57.783 E4.08931
G1 X41.278 Y55.238 E0.22839
G1 X41.699 Y55.575 F7800.000
G1 X43.505 Y53.769 E0.16205 F2160.000
G1 X136.495 Y53.769 E5.90164
G1 X140.731 Y58.005 E0.38017 F2160.000
G1 X140.731 Y121.995 E4.06115
G1 X136.495 Y126.231 E0.38017
G1 X43.505 Y126.231 E5.90164
G1 X39.269 Y121.995 E0.38017
G1 X39.269 Y58.005 E4.06115
G1 X41.657 Y55.617 E0.21431
G1 X42.078 Y55.953 F7800.000
G1 X43.727 Y54.305 E0.14797 F2160.000
G1 X136.273 Y54.305 E5.87348
G1 X140.195 Y58.227 E0.35201
G1 X140.195 Y121.773 E4.03299 F2160.000
G1 X136.273 Y125.695 E0.35201
G1 X43.727 Y125.695 E5.87348
G1 X39.805 Y121.773 E0.35201
G1 X39.805 Y58.227 E4.03299
G1 X42.036 Y55.996 E0.20023
G1 X42.457 Y56.332 F7800.000
G1 X43.949 Y54.840 E0.13389 F2160.000
G1 X136.051 Y54.840 E5.84532
G1 X139.660 Y58.449 E0.32385 F2160.000
G1 X139.660 Y121.551 E4.00483
G1 X136.051 Y125.160 E0.32385
G1 X43.949 Y125.160 E5.84532
G1 X40.340 Y121.551 E0.32385
G1 X40.340 Y58.449 E4.00483
G1 X42.414 Y56.375 E0.18615
G1 X42.836 Y56.711 F7800.000
G1 X44.170 Y55.376 E0.11981 F2160.000
G1 X135.830 Y55.376 E5.81716
G1 X139.124 Y58.670 E0.29569
G1 X139.124 Y121.330 E3.97667 F2160.000
G1 X135.830 Y124.624 E0.29569
G1 X44.170 Y124.624 E5.81716
G1 X40.876 Y121.330 E0.29569
G1 X40.876 Y58.670 E3.97667
G1 X42.793 Y56.753 E0.17207
G1 X43.214 Y57.090 F7800.000
G1 X44.392 Y55.912 E0.10573 F2160.000
G1 X135.608 Y55.912 E5.78900
G1 X138.588 Y58.892 E0.26753 F2160.000
G1 X138.588 Y121.108 E3.94851
G1 X135.608 Y124.088 E0.26753
G1 X44.392 Y124.088 E5.78900
G1 X41.412 Y121.108 E0.26753
G1 X41.412 Y58.892 E3.94851
G1 X43.172 Y57.132 E0.15799
G1 X43.593 Y57.468 F7800.000
G1 X44.614 Y56.447 E0.09165 F2160.000
G1 X135.386 Y56.447 E5.76083
G1 X138.053 Y59.114 E0.23937
G1 X138.053 Y120.886 E3.92035 F2160.000
G1 X135.386 Y123.553 E0.23937
G1 X44.614 Y123.553 E5.76083
G1 X41.947 Y120.886 E0.23937
G1 X41.947 Y59.114 E3.92035
G1 X43.551 Y57.511 E0.14391
G1 X43.972 Y57.847 F7800.000
G1 X44.836 Y56.983 E0.07757 F2160.000
G1 X135.164 Y56.983 E5.73267
G1 X137.517 Y59.336 E0.21121 F2160.000
G1 X137.517 Y120.664 E3.89218
G1 X135.164 Y123.017 E0.21121
G1 X44.836 Y123.017 E5.73267
G1 X42.483 Y120.664 E0.21121
G1 X42.483 Y59.336 E3.89218
G1 X43.929 Y57.890 E0.12983
G1 X44.351 Y58.226 F7800.000
G1 X45.058 Y57.518 E0.06349 F2160.000
G1 X134.942 Y57.518 E5.70451
G1 X136.982 Y59.558 E0.18305
G1 X136.982 Y120.442 E3.86402 F2160.000
G1 X134.942 Y122.482 E0.18305
G1 X45.058 Y122.482 E5.70451
G1 X43.018 Y120.442 E0.18305
G1 X43.018 Y59.558 E3.86402
G1 X44.308 Y58.268 E0.11575
G1 X44.729 Y58.605 F7800.000
G1 X45.280 Y58.054 E0.04941 F2160.000
G1 X134.720 Y58.054 E5.67635
G1 X136.446 Y59.780 E0.15488 F2160.000
G1 X136.446 Y120.220 E3.83586
G1 X134.720 Y121.946 E0.15488
G1 X45.280 Y121.946 E5.67635
G1 X43.554 Y120.220 E0.15488
G1 X43.554 Y59.780 E3.83586
G1 X44.687 Y58.647 E0.10167
G1 X45.108 Y58.983 F7800.000
G1 X45.502 Y58.590 E0.03533 F2160.000
G1 X134.498 Y58.590 E5.64819
G1 X135.910 Y60.002 E0.12672
G1 X135.910 Y119.998 E3.80770 F2160.000
G1 X134.498 Y121.410 E0.12672
G1 X45.502 Y121.410 E5.64819
G1 X44.090 Y119.998 E0.12672
G1 X44.090 Y60.002 E3.80770
G1 X45.066 Y59.026 E0.08759
G1 X45.487 Y59.362 F7800.000
G1 X45.723 Y59.125 E0.02125 F2160.000
G1 X134.277 Y59.125 E5.62003
G1 X135.375 Y60.223 E0.09856 F2160.000
G1 X135.375 Y119.777 E3.77954
G1 X134.277 Y120.875 E0.09856
G1 X45.723 Y120.875 E5.62003
G1 X44.625 Y119.777 E0.09856
G1 X44.625 Y60.223 E3.77954
G1 X45.444 Y59.405 E0.07350
G1 X45.865 Y59.741 F7800.000
G1 X45.945 Y59.661 E0.00717 F2160.000
G1 X134.055 Y59.661 E5.59187
G1 X134.839 Y60.445 E0.07040
G1 X134.839 Y119.555 E3.75138 F2160.000
G1 X134.055 Y120.339 E0.07040
G1 X45.945 Y120.339 E5.59187
G1 X45.161 Y119.555 E0.07040
G1 X45.161 Y60.445 E3.75138
G1 X45.823 Y59.783 E0.05942
G1 X46.167 Y60.197 F7800.000
G1 X133.833 Y60.197 E5.56371 F2160.000
G1 X134.303 Y60.667 E0.04224 F2160.000
G1 X134.303 Y119.333 E3.72322
G1 X133.833 Y119.803 E0.04224
G1 X46.167 Y119.803 E5.56371
G1 X45.697 Y119.333 E0.04224
G1 X45.697 Y60.667 E3.72322
G1 X46.125 Y60.239 E0.03843
G1 F6240
G1 X48.378 Y60.238 E-1.23500
G1 E-0.06500 F3600.00000
G1 X48.041 Y62.602 F7800.000
G1 E1.30000 F3600.00000
G1 X48.290 Y62.459 E0.01822 F2160.000
G1 X50.430 Y62.459 E0.13587
G1 X50.679 Y62.602 E0.01822
G1 X51.749 Y64.456 E0.13587
G1 X51.749 Y64.744 E0.01822
G1 X50.679 Y66.598 E0.13587
G1 X50.430 Y66.741 E0.01822
G1 X48.290 Y66.741 E0.13587
G1 X48.041 Y66.598 E0.01822
G1 X46.971 Y64.744 E0.13587
G1 X46.971 Y64.456 E0.01822
G1 X48.011 Y62.654 E0.13206
G1 F6240
G1 X48.290 Y62.459 E-0.18652
G1 F6240
G1 X50.203 Y62.459 E-1.04848
G1 E-0.06500 F3600.00000
G1 X50.121 Y62.995 F7800.000
G1 E1.30000 F3600.00000
G1 X50.370 Y63.138 E0.01822 F2160.000
G1 X51.131 Y64.456 E0.09662
G1 X51.131 Y64.744 E0.01822
G1 X50.370 Y66.062 E0.09662
G1 X50.121 Y66.205 E0.01822
G1 X48.599 Y66.205 E0.09662
G1 X48.350 Y66.062 E0.01822
G1 X47.589 Y64.744 E0.09662
G1 X47.589 Y64.456 E0.01822
G1 X48.350 Y63.138 E0.09662
G1 X48.599 Y62.995 E0.01822
G1 X50.061 Y62.995 E0.09281
G1 X50.061 Y63.674 F7800.000
G1 X50.512 Y64.456 E0.05736 F2160.000
G1 X50.512 Y64.744 E0.01822
G1 X50.061 Y65.526 E0.05737
G1 X49.812 Y65.670 E0.01822
G1 X48.908 Y65.670 E0.05736
G1 X48.659 Y65.526 E0.01822
G1 X48.208 Y64.744 E0.05737
G1 X48.208 Y64.456 E0.01822
G1 X48.659 Y63.674 E0.05736
G1 X48.908 Y63.530 E0.01822
G1 X49.812 Y63.530 E0.05736
G1 X50.009 Y63.644 E0.01441
G1 F6240
G1 X50.512 Y64.456 E-0.52413
G1 F6240
G1 X50.512 Y64.744 E-0.15732
G1 F6240
G1 X50.061 Y65.526 E-0.49540
G1 F6240
G1 X49.969 Y65.579 E-0.05815
G1 E-0.06500 F3600.00000
G1 X50.679 Y72.762 F7800.000
G1 E1.30000 F3600.00000
G1 X51.749 Y74.616 E0.13587 F2160.000
G1 X51.749 Y74.904 E0.01822
G1 X50.679 Y76.758 E0.13587
G1 X50.430 Y76.901 E0.01822
G1 X48.290 Y76.901 E0.13587
G1 X48.041 Y76.758 E0.01822
G1 X46.971 Y74.904 E0.13587
G1 X46.971 Y74.616 E0.01822
G1 X48.041 Y72.762 E0.13587
G1 X48.290 Y72.619 E0.01822
G1 X50.430 Y72.619 E0.13587
G1 X50.627 Y72.732 E0.01441
G1 X50.121 Y73.155 F7800.000
G1 X50.370 Y73.298 E0.01822 F2160.000
G1 X51.131 Y74.616 E0.09662
G1 X51.131 Y74.904 E0.01822
G1 X50.370 Y76.222 E0.09662
G1 X50.121 Y76.365 E0.01822
G1 X48.599 Y76.365 E0.09662
G1 X48.350 Y76.222 E0.01822
G1 X47.589 Y74.904 E0.09662
G1 X47.589 Y74.616 E0.01822
G1 X48.350 Y73.298 E0.09662
G1 X48.599 Y73.155 E0.01822
G1 X50.061 Y73.155 E0.09281
G1 X50.061 Y73.834 F7800.000
G1 X50.512 Y74.616 E0.05737 F2160.000
G1 X50.512 Y74.904 E0.01822
G1 X50.061 Y75.686 E0.05737
G1 X49.812 Y75.830 E0.01822
G1 X48.908 Y75.830 E0.05736
G1 X48.659 Y75.686 E0.01822
G1 X48.208 Y74.904 E0.05737
G1 X48.208 Y74.616 E0.01822
G1 X48.659 Y73.834 E0.05737
G1 X48.908 Y73.690 E0.01822
G1 X49.812 Y73.690 E0.05736
G1 X50.009 Y73.804 E0.01441
G1 F6240
G1 X50.512 Y74.616 E-0.52414
G1 F6240
G1 X50.512 Y74.904 E-0.15732
G1 F6240
G1 X50.061 Y75.686 E-0.49540
G1 F6240
G1 X49.969 Y75.739 E-0.05814
G1 E-0.06500 F3600.00000
G1 X50.679 Y82.922 F7800.000
G1 E1.30000 F3600.00000
G1 X51.749 Y84.776 E0.13587 F2160.000
G1 X51.749 Y85.064 E0.01822
G1 X50.679 Y86.918 E0.13587
G1 X50.430 Y87.061 E0.01822
G1 X48.290 Y87.061 E0.13587
G1 X48.041 Y86.918 E0.01822
G1 X46.971 Y85.064 E0.13587
G1 X46.971 Y84.776 E0.01822
G1 X48.041 Y82.922 E0.13587
G1 X48.290 Y82.779 E0.01822
G1 X50.430 Y82.779 E0.13587
G1 X50.627 Y82.892 E0.01441
G1 X50.121 Y83.315 F7800.000
G1 X50.370 Y83.458 E0.01822 F2160.000
G1 X51.131 Y84.776 E0.09662
G1 X51.131 Y85.064 E0.01822
G1 X50.370 Y86.382 E0.09662
G1 X50.121 Y86.525 E0.01822
G1 X48.599 Y86.525 E0.09662
G1 X48.350 Y86.382 E0.01822
G1 X47.589 Y85.064 E0.09662
G1 X47.589 Y84.776 E0.01822
G1 X48.350 Y83.458 E0.09662
G1 X48.599 Y83.315 E0.01822
G1 X50.061 Y83.315 E0.09281
G1 X50.061 Y83.994 F7800.000
G1 X50.512 Y84.776 E0.05737 F2160.000
G1 X50.512 Y85.064 E0.01822
G1 X50.061 Y85.846 E0.05737
G1 X49.812 Y85.990 E0.01822
G1 X48.908 Y85.990 E0.05736
G1 X48.659 Y85.846 E0.01822
G1 X48.208 Y85.064 E0.05737
G1 X48.208 Y84.776 E0.01822
G1 X48.659 Y83.994 E0.05737
G1 X48.908 Y83.850 E0.01822
G1 X49.812 Y83.850 E0.05736
G1 X50.009 Y83.964 E0.01441
G1 F6240
G1 X50.512 Y84.776 E-0.52414
G1 F6240
G1 X50.512 Y85.064 E-0.15732
G1 F6240
G1 X50.061 Y85.846 E-0.49540
G1 F6240
G1 X49.969 Y85.899 E-0.05814
G1 E-0.06500 F3600.00000
G1 X50.679 Y93.082 F7800.000
G1 E1.30000 F3600.00000
G1 X51.749 Y94.936 E0.13587 F2160.000
G1 X51.749 Y95.224 E0.01822
G1 X50.679 Y97.078 E0.13587
G1 X50.430 Y97.221 E0.01822
G1 X48.290 Y97.221 E0.13587
G1 X48.041 Y97.078 E0.01822
G1 X46.971 Y95.224 E0.13587
G1 X46.971 Y94.936 E0.01822
G1 X48.041 Y93.082 E0.13587
G1 X48.290 Y92.939 E0.01822
G1 X50.430 Y92.939 E0.13587
G1 X50.627 Y93.052 E0.01441
G1 X50.121 Y93.475 F7800.000
G1 X50.370 Y93.618 E0.01822 F2160.000
G1 X51.131 Y94.936 E0.09662
G1 X51.131 Y95.224 E0.01822
G1 X50.370 Y96.542 E0.09662
G1 X50.121 Y96.685 E0.01822
G1 X48.599 Y96.685 E0.09662
G1 X48.350 Y96.542 E0.01822
G1 X47.589 Y95.224 E0.09662
G1 X47.589 Y94.936 E0.01822
G1 X48.350 Y93.618 E0.09662
G1 X48.599 Y93.475 E0.01822
G1 X50.061 Y93.475 E0.09281
G1 X50.061 Y94.154 F7800.000
G1 X50.512 Y94.936 E0.05737 F2160.000
G1 X50.512 Y95.224 E0.01822
G1 X50.061 Y96.006 E0.05737
G1 X49.812 Y96.150 E0.01822
G1 X48.908 Y96.150 E0.05736
G1 X48.659 Y96.006 E0.01822
G1 X48.208 Y95.224 E0.05737
G1 X48.208 Y94.936 E0.01822
G1 X48.659 Y94.154 E0.05737
G1 X48.908 Y94.010 E0.01822
G1 X49.812 Y94.010 E0.05736
G1 X50.009 Y94.124 E0.01441
G1 F6240
G1 X50.512 Y94.936 E-0.52414
G1 F6240
G1 X50.512 Y95.224 E-0.15732
G1 F6240
G1 X50.061 Y96.006 E-0.49540
G1 F6240
G1 X49.969 Y96.059 E-0.05814
G1 E-0.06500 F3600.00000
G1 X50.679 Y103.242 F7800.000
G1 E1.30000 F3600.00000
G1 X51.749 Y105.096 E0.13587 F2160.000
G1 X51.749 Y105.384 E0.01822
G1 X50.679 Y107.238 E0.13587
G1 X50.430 Y107.381 E0.01822
G1 X48.290 Y107.381 E0.13587
G1 X48.041 Y107.238 E0.01822
G1 X46.971 Y105.384 E0.13587
G1 X46.971 Y105.096 E0.01822
G1 X48.041 Y103.242 E0.13587
G1 X48.290 Y103.099 E0.01822
G1 X50.430 Y103.099 E0.13587
G1 X50.627 Y103.212 E0.01441
G1 X50.121 Y103.635 F7800.000
G1 X50.370 Y103.778 E0.01822 F2160.000
G1 X51.131 Y105.096 E0.09662
G1 X51.131 Y105.384 E0.01822
G1 X50.370 Y106.702 E0.09662
G1 X50.121 Y106.845 E0.01822
G1 X48.599 Y106.845 E0.09662
G1 X48.350 Y106.702 E0.01822
G1 X47.589 Y105.384 E0.09662
G1 X47.589 Y105.096 E0.01822
G1 X48.350 Y103.778 E0.09662
G1 X48.599 Y103.635 E0.01822
G1 X50.061 Y103.635 E0.09281
G1 X50.061 Y104.314 F7800.000
G1 X50.512 Y105.096 E0.05737 F2160.000
G1 X50.512 Y105.384 E0.01822
G1 X50.061 Y106.166 E0.05737
G1 X49.812 Y106.310 E0.01822
G1 X48.908 Y106.310 E0.05736
G1 X48.659 Y106.166 E0.01822
G1 X48.208 Y105.384 E0.05737
G1 X48.208 Y105.096 E0.01822
G1 X48.659 Y104.314 E0.05737
G1 X48.908 Y104.170 E0.01822
G1 X49.812 Y104.170 E0.05736
G1 X50.009 Y104.284 E0.01441
G1 F6240
G1 X50.512 Y105.096 E-0.52414
G1 F6240
G1 X50.512 Y105.384 E-0.15732
G1 F6240
G1 X50.061 Y106.166 E-0.49540
G1 F6240
G1 X49.969 Y106.219 E-0.05814
G1 E-0.06500 F3600.00000
G1 X50.679 Y113.402 F7800.000
G1 E1.30000 F3600.00000
G1 X51.749 Y115.256 E0.13587 F2160.000
G1 X51.749 Y115.544 E0.01822
G1 X50.679 Y117.398 E0.13587
G1 X50.430 Y117.541 E0.01822
G1 X48.290 Y117.541 E0.13587
G1 X48.041 Y117.398 E0.01822
G1 X46.971 Y115.544 E0.13587
G1 X46.971 Y115.256 E0.01822
G1 X48.041 Y113.402 E0.13587
G1 X48.290 Y113.259 E0.01822
G1 X50.430 Y113.259 E0.13587
G1 X50.627 Y113.372 E0.01441
G1 X50.121 Y113.795 F7800.000
G1 X50.370 Y113.938 E0.01822 F2160.000
G1 X51.131 Y115.256 E0.09662
G1 X51.131 Y115.544 E0.01822
G1 X50.370 Y116.862 E0.09662
G1 X50.121 Y117.005 E0.01822
G1 X48.599 Y117.005 E0.09662
G1 X48.350 Y116.862 E0.01822
G1 X47.589 Y115.544 E0.09662
G1 X47.589 Y115.256 E0.01822
G1 X48.350 Y113.938 E0.09662
G1 X48.599 Y113.795 E0.01822
G1 X50.061 Y113.795 E0.09281
G1 X50.061 Y114.474 F7800.000
G1 X50.512 Y115.256 E0.05737 F2160.000
G1 X50.512 Y115.544 E0.01822
G1 X50.061 Y116.326 E0.05737
G1 X49.812 Y116.470 E0.01822
G1 X48.908 Y116.470 E0.05736
G1 X48.659 Y116.326 E0.01822
G1 X48.208 Y115.544 E0.05737
G1 X48.208 Y115.256 E0.01822
G1 X48.659 Y114.474 E0.05737
G1 X48.908 Y114.330 E0.01822
G1 X49.812 Y114.330 E0.05736
G1 X50.009 Y114.444 E0.01441
G1 F6240
G1 X50.512 Y115.256 E-0.52414
G1 F6240
G1 X50.512 Y115.544 E-0.15732
G1 F6240
G1 X50.061 Y116.326 E-0.49540
G1 F6240
G1 X49.969 Y116.379 E-0.05814
G1 E-0.06500 F3600.00000
G1 X129.321 Y113.402 F7800.000
G1 E1.30000 F3600.00000
G1 X129.570 Y113.259 E0.01822 F2160.000
G1 X131.710 Y113.259 E0.13587
G1 X131.959 Y113.402 E0.01822
G1 X133.029 Y115.256 E0.13587
G1 X133.029 Y115.544 E0.01822
G1 X131.959 Y117.398 E0.13587
G1 X131.710 Y117.541 E0.01822
G1 X129.570 Y117.541 E0.13587
G1 X129.321 Y117.398 E0.01822
G1 X128.251 Y115.544 E0.13587
G1 X128.251 Y115.256 E0.01822
G1 X129.291 Y113.454 E0.13206
G1 F6240
G1 X129.570 Y113.259 E-0.18652
G1 F6240
G1 X131.483 Y113.259 E-1.04848
G1 E-0.06500 F3600.00000
G1 X131.401 Y113.795 F7800.000
G1 E1.30000 F3600.00000
G1 X131.650 Y113.938 E0.01822 F2160.000
G1 X132.411 Y115.256 E0.09662
G1 X132.411 Y115.544 E0.01822
G1 X131.650 Y116.862 E0.09662
G1 X131.401 Y117.005 E0.01822
G1 X129.879 Y117.005 E0.09662
G1 X129.630 Y116.862 E0.01822
G1 X128.869 Y115.544 E0.09662
G1 X128.869 Y115.256 E0.01822
G1 X129.630 Y113.938 E0.09662
G1 X129.879 Y113.795 E0.01822
G1 X131.341 Y113.795 E0.09281
G1 X131.341 Y114.474 F7800.000
G1 X131.792 Y115.256 E0.05737 F2160.000
G1 X131.792 Y115.544 E0.01822
G1 X131.341 Y116.326 E0.05737
G1 X131.092 Y116.470 E0.01822
G1 X130.188 Y116.470 E0.05736
G1 X129.939 Y116.326 E0.01822
G1 X129.488 Y115.544 E0.05737
G1 X129.488 Y115.256 E0.01822
G1 X129.939 Y114.474 E0.05737
G1 X130.188 Y114.330 E0.01822
G1 X131.092 Y114.330 E0.05736
G1 X131.289 Y114.444 E0.01441
G1 F6240
G1 X131.792 Y115.256 E-0.52414
