; generated by Slic3r 1.2.2-dev on 2014-12-23 at 02:44:16

; external perimeters extrusion width = 0.40mm
; perimeters extrusion width = 0.67mm
; infill extrusion width = 0.67mm
; solid infill extrusion width = 0.67mm
; top infill extrusion width = 0.67mm

M190 S90 ; set bed temperature
M104 S225 ; set temperature
G28 ; home all axes
G92 E0.0 ; reset extruder
M109 S225 ; wait for temperature to be reached
G21 ; set units to millimeters
G90 ; use absolute coordinates
M83 ; use relative distances for extrusion
G1 E-1.00000 F1800.00000
G1 Z0.300 F7800.000
G1 X71.004 Y54.287 F7800.000
G1 E1.00000 F1800.00000
G1 X72.753 Y52.828 E0.15217 F1080.000
G1 X76.000 Y51.964 E0.22443
G1 X124.000 Y51.964 E3.20666
G1 X126.243 Y52.361 E0.15217
G1 X128.213 Y53.504 E0.15217
G1 X129.672 Y55.253 E0.15217
G1 X130.536 Y58.500 E0.22443
G1 X130.536 Y141.500 E5.54485
G1 X130.139 Y143.743 E0.15217
G1 X128.996 Y145.713 E0.15217
G1 X127.247 Y147.172 E0.15217
G1 X124.000 Y148.036 E0.22443
G1 X76.000 Y148.036 E3.20666
G1 X73.757 Y147.639 E0.15217
G1 X71.787 Y146.496 E0.15217
G1 X70.328 Y144.747 E0.15217
G1 X69.464 Y141.500 E0.22443
G1 X69.464 Y58.500 E5.54485
G1 X69.861 Y56.257 E0.15217
G1 X70.974 Y54.338 E0.14816
G1 E-1.00000 F1800.00000
G1 X76.618 Y138.630 F7800.000
G1 E1.00000 F1800.00000
G1 X78.101 Y141.200 E0.19821 F540.000
G1 X76.300 Y141.200 E0.12032
G1 X76.300 Y138.716 E0.16597
G1 X76.560 Y138.646 E0.01796
G1 X76.583 Y139.029 F7800.000
G1 E-1.00000 F1800.00000
G1 X121.899 Y141.200 F7800.000
G1 E1.00000 F1800.00000
G1 X123.382 Y138.630 E0.19821 F540.000
G1 X123.700 Y138.716 E0.02197
G1 X123.700 Y141.200 E0.16597
G1 X121.959 Y141.200 E0.11631
G1 X122.205 Y140.943 F7800.000
G1 E-1.00000 F1800.00000
G1 X118.258 Y65.883 F7800.000
G1 E1.00000 F1800.00000
G1 X122.629 Y65.883 E0.29197 F540.000
G1 X122.629 Y134.117 E4.55844
G1 X118.258 Y134.117 E0.29197
G1 X116.017 Y138.000 E0.29951
G1 X117.246 Y140.129 E0.16421
G1 X82.754 Y140.129 E2.30421
G1 X83.983 Y138.000 E0.16421
G1 X81.742 Y134.117 E0.29951
G1 X77.371 Y134.117 E0.29197
G1 X77.371 Y65.883 E4.55844
G1 X81.742 Y65.883 E0.29197
G1 X83.983 Y62.000 E0.29951
G1 X82.754 Y59.871 E0.16421
G1 X117.246 Y59.871 E2.30421
G1 X116.017 Y62.000 E0.16421
G1 X118.228 Y65.831 E0.29550
G1 E-1.00000 F1800.00000
G1 X77.568 Y65.347 F7800.000
G1 E1.00000 F1800.00000
G1 X81.432 Y65.347 E0.25820 F540.000
G1 X83.365 Y62.000 E0.25820
G1 X81.827 Y59.336 E0.20553
G1 X118.173 Y59.336 E2.42816
G1 X116.635 Y62.000 E0.20553
G1 X118.568 Y65.347 E0.25820
G1 X122.432 Y65.347 E0.25820
G1 X122.847 Y64.629 E0.05536
G1 X123.164 Y64.715 E0.02197
G1 X123.164 Y135.285 E4.71452
G1 X122.847 Y135.371 E0.02197
G1 X122.432 Y134.653 E0.05536
G1 X118.568 Y134.653 E0.25820
G1 X116.635 Y138.000 E0.25820
G1 X118.173 Y140.664 E0.20553
G1 X81.827 Y140.664 E2.42816
G1 X83.365 Y138.000 E0.20553
G1 X81.432 Y134.653 E0.25820
G1 X77.568 Y134.653 E0.25820
G1 X77.153 Y135.371 E0.05536
G1 X76.836 Y135.285 E0.02197
G1 X76.836 Y64.715 E4.71452
G1 X77.153 Y64.629 E0.02197
G1 X77.538 Y65.295 E0.05135
G1 X77.877 Y64.811 F7800.000
G1 X81.123 Y64.811 E0.21688 F378.000
G1 X82.746 Y62.000 E0.21688
G1 X80.899 Y58.800 E0.24685
G1 X119.101 Y58.800 E2.55212
G1 X117.254 Y62.000 E0.24685
G1 X118.877 Y64.811 E0.21688
G1 X122.123 Y64.811 E0.21688
G1 X123.382 Y62.630 E0.16824
G1 X123.700 Y62.716 E0.02197
G1 X123.700 Y137.284 E4.98160
G1 X123.382 Y137.370 E0.02197
G1 X122.123 Y135.189 E0.16824
G1 X118.877 Y135.189 E0.21688
G1 X117.254 Y138.000 E0.21688
G1 X119.101 Y141.200 E0.24685
G1 X80.899 Y141.200 E2.55211
G1 X82.746 Y138.000 E0.24685
G1 X81.123 Y135.189 E0.21688
G1 X77.877 Y135.189 E0.21688
G1 X76.618 Y137.370 E0.16824
G1 X76.300 Y137.284 E0.02197
G1 X76.300 Y62.716 E4.98160
G1 X76.618 Y62.630 E0.02197
G1 X77.847 Y64.760 E0.16423
G1 X77.946 Y65.205 F7800.000
G1 E-1.00000 F1800.00000
G1 X121.899 Y58.800 F7800.000
G1 E1.00000 F1800.00000
G1 X123.700 Y58.800 E0.12032 F540.000
G1 X123.700 Y61.284 E0.16597
G1 X123.382 Y61.370 E0.02197
G1 X121.929 Y58.852 E0.19421
G1 X122.275 Y58.937 F7800.000
G1 E-1.00000 F1800.00000
G1 X78.101 Y58.800 F7800.000
G1 E1.00000 F1800.00000
G1 X76.618 Y61.370 E0.19821 F540.000
G1 X76.300 Y61.284 E0.02197
G1 X76.300 Y58.800 E0.16597
G1 X78.041 Y58.800 E0.11632
G1 X77.795 Y59.057 F7800.000
G1 E-1.00000 F1800.00000
G1 X121.665 Y141.006 F7800.000
G1 E1.00000 F1800.00000
G1 X119.335 Y141.006 E0.15561 F378.000
G1 E-1.00000 F1800.00000
G1 X80.665 Y141.006 F7800.000
G1 E1.00000 F1800.00000
G1 X78.335 Y141.006 E0.15561 F378.000
G1 E-1.00000 F1800.00000
G1 X121.665 Y58.994 F7800.000
G1 E1.00000 F1800.00000
G1 X119.335 Y58.994 E0.15561 F378.000
G1 E-1.00000 F1800.00000
G1 X80.665 Y58.994 F7800.000
G1 E1.00000 F1800.00000
G1 X78.335 Y58.994 E0.15561 F378.000
G1 E-1.00000 F1800.00000
G1 X116.031 Y62.761 F7800.000
G1 E1.00000 F1800.00000
G1 X113.509 Y60.240 E0.23825 F1080.000
G1 X114.270 Y60.240 E0.05084
G1 X115.752 Y61.722 E0.14001
G1 X116.031 Y61.239 E0.03722
G1 X115.031 Y60.240 E0.09443
G1 X115.792 Y60.240 E0.05084
G1 X116.309 Y60.757 E0.04885
G1 X116.588 Y60.274 E0.03722
G1 X116.553 Y60.240 E0.00327
G1 E-1.00000 F1800.00000
G1 X117.070 Y64.562 F7800.000
G1 E1.00000 F1800.00000
G1 X112.748 Y60.240 E0.40836 F1080.000
G1 X111.987 Y60.240 E0.05084
G1 X122.260 Y70.513 E0.97059
G1 X122.260 Y71.274 E0.05084
G1 X111.226 Y60.240 E1.04249
G1 X110.465 Y60.240 E0.05084
G1 X122.260 Y72.035 E1.11439
G1 X122.260 Y72.796 E0.05084
G1 X109.704 Y60.240 E1.18628
G1 X108.943 Y60.240 E0.05084
G1 X122.260 Y73.557 E1.25818
G1 X122.260 Y74.318 E0.05084
G1 X108.182 Y60.240 E1.33008
G1 X107.421 Y60.240 E0.05084
G1 X122.260 Y75.079 E1.40197
G1 X122.260 Y75.840 E0.05084
G1 X106.660 Y60.240 E1.47387
G1 X105.899 Y60.240 E0.05084
G1 X122.260 Y76.601 E1.54577
G1 X122.260 Y77.362 E0.05084
G1 X105.138 Y60.240 E1.61766
G1 X104.377 Y60.240 E0.05084
G1 X122.260 Y78.123 E1.68956
G1 X122.260 Y78.884 E0.05084
G1 X103.616 Y60.240 E1.76146
G1 X102.855 Y60.240 E0.05084
G1 X122.260 Y79.645 E1.83335
G1 X122.260 Y80.406 E0.05084
G1 X102.094 Y60.240 E1.90525
G1 X101.333 Y60.240 E0.05084
G1 X122.260 Y81.167 E1.97714
G1 X122.260 Y81.928 E0.05084
G1 X100.572 Y60.240 E2.04904
G1 X99.811 Y60.240 E0.05084
G1 X122.260 Y82.689 E2.12094
G1 X122.260 Y83.450 E0.05084
G1 X99.050 Y60.240 E2.19283
G1 X98.289 Y60.240 E0.05084
G1 X122.260 Y84.211 E2.26473
G1 X122.260 Y84.972 E0.05084
G1 X97.528 Y60.240 E2.33663
G1 X96.767 Y60.240 E0.05084
G1 X122.260 Y85.733 E2.40852
G1 X122.260 Y86.494 E0.05084
G1 X96.006 Y60.240 E2.48042
G1 X95.245 Y60.240 E0.05084
G1 X122.260 Y87.255 E2.55232
G1 X122.260 Y88.016 E0.05084
G1 X94.484 Y60.240 E2.62421
G1 X93.723 Y60.240 E0.05084
G1 X122.260 Y88.777 E2.69611
G1 X122.260 Y89.538 E0.05084
G1 X92.962 Y60.240 E2.76801
G1 X92.201 Y60.240 E0.05084
G1 X122.260 Y90.299 E2.83990
G1 X122.260 Y91.060 E0.05084
G1 X91.440 Y60.240 E2.91180
G1 X90.679 Y60.240 E0.05084
G1 X122.260 Y91.821 E2.98370
G1 X122.260 Y92.582 E0.05084
G1 X89.918 Y60.240 E3.05559
G1 X89.157 Y60.240 E0.05084
G1 X122.260 Y93.343 E3.12749
G1 X122.260 Y94.104 E0.05084
G1 X88.396 Y60.240 E3.19939
G1 X87.635 Y60.240 E0.05084
G1 X122.260 Y94.865 E3.27128
G1 X122.260 Y95.626 E0.05084
G1 X86.874 Y60.240 E3.34318
G1 X86.113 Y60.240 E0.05084
G1 X122.260 Y96.387 E3.41508
G1 X122.260 Y97.148 E0.05084
G1 X85.352 Y60.240 E3.48697
G1 X84.591 Y60.240 E0.05084
G1 X122.260 Y97.909 E3.55887
G1 X122.260 Y98.670 E0.05084
G1 X83.830 Y60.240 E3.63076
G1 X83.833 Y61.003 E0.05104
G1 X122.260 Y99.431 E3.63049
G1 X122.260 Y100.192 E0.05084
G1 X84.284 Y62.215 E3.58788
G1 X84.006 Y62.698 E0.03722
G1 X122.260 Y100.953 E3.61420
G1 X122.260 Y101.714 E0.05084
G1 X83.727 Y63.180 E3.64051
G1 X83.449 Y63.663 E0.03722
G1 X122.260 Y102.475 E3.66683
G1 X122.260 Y103.236 E0.05084
G1 X83.170 Y64.145 E3.69314
G1 X82.892 Y64.628 E0.03722
G1 X122.260 Y103.997 E3.71946
G1 X122.260 Y104.758 E0.05084
G1 X82.613 Y65.110 E3.74578
G1 X82.334 Y65.593 E0.03722
G1 X122.260 Y105.519 E3.77209
G1 X122.260 Y106.280 E0.05084
G1 X82.056 Y66.075 E3.79841
G1 X81.471 Y66.251 E0.04081
G1 X122.260 Y107.041 E3.85368
G1 X122.260 Y107.802 E0.05084
G1 X80.710 Y66.251 E3.92558
G1 X79.949 Y66.251 E0.05084
G1 X122.260 Y108.563 E3.99747
G1 X122.260 Y109.324 E0.05084
G1 X79.188 Y66.251 E4.06937
G1 X78.427 Y66.251 E0.05084
G1 X122.260 Y110.085 E4.14127
G1 X122.260 Y110.846 E0.05084
G1 X77.740 Y66.325 E4.20621
G1 X77.740 Y67.086 E0.05084
G1 X122.260 Y111.607 E4.20621
G1 X122.260 Y112.368 E0.05084
G1 X77.740 Y67.847 E4.20621
G1 X77.740 Y68.608 E0.05084
G1 X122.260 Y113.129 E4.20621
G1 X122.260 Y113.890 E0.05084
G1 X77.740 Y69.369 E4.20621
G1 X77.740 Y70.130 E0.05084
G1 X122.260 Y114.651 E4.20621
G1 X122.260 Y115.412 E0.05084
G1 X77.740 Y70.891 E4.20621
G1 X77.740 Y71.652 E0.05084
G1 X122.260 Y116.173 E4.20621
G1 X122.260 Y116.933 E0.05084
G1 X77.740 Y72.413 E4.20621
G1 X77.740 Y73.174 E0.05084
G1 X122.260 Y117.694 E4.20621
G1 X122.260 Y118.455 E0.05084
G1 X77.740 Y73.935 E4.20621
G1 X77.740 Y74.696 E0.05084
G1 X122.260 Y119.216 E4.20621
G1 X122.260 Y119.977 E0.05084
G1 X77.740 Y75.457 E4.20621
G1 X77.740 Y76.218 E0.05084
G1 X122.260 Y120.738 E4.20621
G1 X122.260 Y121.499 E0.05084
G1 X77.740 Y76.979 E4.20621
G1 X77.740 Y77.740 E0.05084
G1 X122.260 Y122.260 E4.20621
G1 X122.260 Y123.021 E0.05084
G1 X77.740 Y78.501 E4.20621
G1 X77.740 Y79.262 E0.05084
G1 X122.260 Y123.782 E4.20621
G1 X122.260 Y124.543 E0.05084
G1 X77.740 Y80.023 E4.20621
G1 X77.740 Y80.784 E0.05084
G1 X122.260 Y125.304 E4.20621
G1 X122.260 Y126.065 E0.05084
G1 X77.740 Y81.545 E4.20621
G1 X77.740 Y82.306 E0.05084
G1 X122.260 Y126.826 E4.20621
G1 X122.260 Y127.587 E0.05084
G1 X77.740 Y83.066 E4.20621
G1 X77.740 Y83.827 E0.05084
G1 X122.260 Y128.348 E4.20621
G1 X122.260 Y129.109 E0.05084
G1 X77.740 Y84.588 E4.20621
G1 X77.740 Y85.349 E0.05084
G1 X122.260 Y129.870 E4.20621
G1 X122.260 Y130.631 E0.05084
G1 X77.740 Y86.110 E4.20621
G1 X77.740 Y86.871 E0.05084
G1 X122.260 Y131.392 E4.20621
G1 X122.260 Y132.153 E0.05084
G1 X77.740 Y87.632 E4.20621
G1 X77.740 Y88.393 E0.05084
G1 X122.260 Y132.914 E4.20621
G1 X122.260 Y133.675 E0.05084
G1 X77.740 Y89.154 E4.20621
G1 X77.740 Y89.915 E0.05084
G1 X121.573 Y133.749 E4.14126
G1 X120.812 Y133.749 E0.05084
G1 X77.740 Y90.676 E4.06937
G1 X77.740 Y91.437 E0.05084
G1 X120.051 Y133.749 E3.99747
G1 X119.290 Y133.749 E0.05084
G1 X77.740 Y92.198 E3.92557
G1 X77.740 Y92.959 E0.05084
G1 X118.529 Y133.749 E3.85368
G1 X117.944 Y133.925 E0.04081
G1 X77.740 Y93.720 E3.79841
G1 X77.740 Y94.481 E0.05084
G1 X117.666 Y134.407 E3.77209
G1 X117.387 Y134.890 E0.03722
G1 X77.740 Y95.242 E3.74578
G1 X77.740 Y96.003 E0.05084
G1 X117.108 Y135.372 E3.71946
G1 X116.830 Y135.855 E0.03722
G1 X77.740 Y96.764 E3.69314
G1 X77.740 Y97.525 E0.05084
G1 X116.551 Y136.337 E3.66683
G1 X116.273 Y136.820 E0.03722
G1 X77.740 Y98.286 E3.64051
G1 X77.740 Y99.047 E0.05084
G1 X115.994 Y137.302 E3.61420
G1 X115.716 Y137.785 E0.03722
G1 X77.740 Y99.808 E3.58788
G1 X77.740 Y100.569 E0.05084
G1 X116.167 Y138.997 E3.63049
G1 X116.170 Y139.760 E0.05104
G1 X77.740 Y101.330 E3.63076
G1 X77.740 Y102.091 E0.05084
G1 X115.409 Y139.760 E3.55887
G1 X114.648 Y139.760 E0.05084
G1 X77.740 Y102.852 E3.48697
G1 X77.740 Y103.613 E0.05084
G1 X113.887 Y139.760 E3.41507
G1 X113.126 Y139.760 E0.05084
G1 X77.740 Y104.374 E3.34318
G1 X77.740 Y105.135 E0.05084
G1 X112.365 Y139.760 E3.27128
G1 X111.604 Y139.760 E0.05084
G1 X77.740 Y105.896 E3.19939
G1 X77.740 Y106.657 E0.05084
G1 X110.843 Y139.760 E3.12749
G1 X110.082 Y139.760 E0.05084
G1 X77.740 Y107.418 E3.05559
G1 X77.740 Y108.179 E0.05084
G1 X109.321 Y139.760 E2.98370
G1 X108.560 Y139.760 E0.05084
G1 X77.740 Y108.940 E2.91180
G1 X77.740 Y109.701 E0.05084
G1 X107.799 Y139.760 E2.83990
G1 X107.038 Y139.760 E0.05084
G1 X77.740 Y110.462 E2.76801
G1 X77.740 Y111.223 E0.05084
G1 X106.277 Y139.760 E2.69611
G1 X105.516 Y139.760 E0.05084
G1 X77.740 Y111.984 E2.62421
G1 X77.740 Y112.745 E0.05084
G1 X104.755 Y139.760 E2.55232
G1 X103.994 Y139.760 E0.05084
G1 X77.740 Y113.506 E2.48042
G1 X77.740 Y114.267 E0.05084
G1 X103.233 Y139.760 E2.40852
G1 X102.472 Y139.760 E0.05084
G1 X77.740 Y115.028 E2.33663
G1 X77.740 Y115.789 E0.05084
G1 X101.711 Y139.760 E2.26473
G1 X100.950 Y139.760 E0.05084
G1 X77.740 Y116.550 E2.19283
G1 X77.740 Y117.311 E0.05084
G1 X100.189 Y139.760 E2.12094
G1 X99.428 Y139.760 E0.05084
G1 X77.740 Y118.072 E2.04904
G1 X77.740 Y118.833 E0.05084
G1 X98.667 Y139.760 E1.97714
G1 X97.906 Y139.760 E0.05084
G1 X77.740 Y119.594 E1.90525
G1 X77.740 Y120.355 E0.05084
G1 X97.145 Y139.760 E1.83335
G1 X96.384 Y139.760 E0.05084
G1 X77.740 Y121.116 E1.76145
G1 X77.740 Y121.877 E0.05084
G1 X95.623 Y139.760 E1.68956
G1 X94.862 Y139.760 E0.05084
G1 X77.740 Y122.638 E1.61766
G1 X77.740 Y123.399 E0.05084
G1 X94.101 Y139.760 E1.54577
G1 X93.340 Y139.760 E0.05084
G1 X77.740 Y124.160 E1.47387
G1 X77.740 Y124.921 E0.05084
G1 X92.579 Y139.760 E1.40197
G1 X91.818 Y139.760 E0.05084
G1 X77.740 Y125.682 E1.33008
G1 X77.740 Y126.443 E0.05084
G1 X91.057 Y139.760 E1.25818
G1 X90.296 Y139.760 E0.05084
G1 X77.740 Y127.204 E1.18628
G1 X77.740 Y127.965 E0.05084
G1 X89.535 Y139.760 E1.11439
G1 X88.774 Y139.760 E0.05084
G1 X77.740 Y128.726 E1.04249
G1 X77.740 Y129.487 E0.05084
G1 X88.013 Y139.760 E0.97059
G1 X87.252 Y139.760 E0.05084
G1 X82.930 Y135.438 E0.40836
G1 E-1.00000 F1800.00000
G1 X83.969 Y137.239 F7800.000
G1 E1.00000 F1800.00000
G1 X86.491 Y139.760 E0.23825 F1080.000
G1 X85.730 Y139.760 E0.05084
G1 X84.248 Y138.278 E0.14002
G1 X83.969 Y138.761 E0.03722
G1 X84.969 Y139.760 E0.09443
G1 X84.208 Y139.760 E0.05084
G1 X83.691 Y139.243 E0.04885
G1 X83.412 Y139.726 E0.03722
G1 X83.447 Y139.760 E0.00327
G1 E-1.00000 F1800.00000
G1 X81.240 Y133.749 F7800.000
G1 E1.00000 F1800.00000
G1 X77.740 Y130.248 E0.33075 F1080.000
G1 X77.740 Y131.009 E0.05084
G1 X80.479 Y133.749 E0.25885
G1 X79.718 Y133.749 E0.05084
G1 X77.740 Y131.770 E0.18695
G1 X77.740 Y132.531 E0.05084
G1 X78.957 Y133.749 E0.11506
G1 X78.196 Y133.749 E0.05084
G1 X77.740 Y133.292 E0.04316
G1 E-1.00000 F1800.00000
G1 X122.260 Y69.752 F7800.000
G1 E1.00000 F1800.00000
G1 X118.760 Y66.251 E0.33075 F1080.000
G1 X119.521 Y66.251 E0.05084
G1 X122.260 Y68.991 E0.25885
G1 X122.260 Y68.230 E0.05084
G1 X120.282 Y66.251 E0.18696
G1 X121.043 Y66.251 E0.05084
G1 X122.260 Y67.469 E0.11506
G1 X122.260 Y66.708 E0.05084
G1 X121.804 Y66.251 E0.04316
G1 E-1.00000 F1800.00000
G1 Z0.500 F7800.000
G1 X77.065 Y140.191 F7800.000
G1 E1.00000 F1800.00000
G1 X77.421 Y140.807 E0.03716 F1800.000
G1 X76.693 Y140.807 E0.03805
G1 X76.693 Y140.291 E0.02697
G1 X77.007 Y140.207 E0.01702
G1 E-1.00000 F1800.00000
G1 X122.579 Y140.807 F7800.000
G1 E1.00000 F1800.00000
G1 X122.935 Y140.191 E0.03716 F1800.000
G1 X123.307 Y140.291 E0.02015
G1 X123.307 Y140.807 E0.02697
G1 X122.639 Y140.807 E0.03491
G1 E-1.00000 F1800.00000
G1 X122.935 Y59.809 F7800.000
G1 E1.00000 F1800.00000
G1 X122.579 Y59.193 E0.03716 F1800.000
G1 X123.307 Y59.193 E0.03805
G1 X123.307 Y59.709 E0.02697
G1 X122.993 Y59.793 E0.01702
G1 E-1.00000 F1800.00000
G1 X117.333 Y59.821 F7800.000
G1 E1.00000 F1800.00000
G1 X116.075 Y62.000 E0.13145 F1800.000
G1 X118.287 Y65.832 E0.23120
G1 X122.679 Y65.832 E0.22944
G1 X122.679 Y134.167 E3.57016
G1 X118.287 Y134.167 E0.22944
G1 X116.075 Y138.000 E0.23120
G1 X117.333 Y140.179 E0.13145
G1 X82.667 Y140.179 E1.81109
G1 X83.925 Y138.000 E0.13145
G1 X81.713 Y134.167 E0.23120
G1 X77.321 Y134.167 E0.22944
G1 X77.321 Y65.832 E3.57016
G1 X81.713 Y65.832 E0.22944
G1 X83.659 Y62.462 E0.20332
G1 X83.854 Y61.876 E0.03227
G1 X82.667 Y59.821 E0.12398
G1 X117.273 Y59.821 E1.80795
G1 X118.421 Y59.193 F7800.000
G1 X116.800 Y62.000 E0.16936 F1800.000
G1 X118.650 Y65.204 E0.19330
G1 X122.350 Y65.204 E0.19330
G1 X122.935 Y64.191 E0.06111
G1 X123.307 Y64.291 E0.02015
G1 X123.307 Y135.709 E3.73122
G1 X122.935 Y135.809 E0.02015
G1 X122.350 Y134.796 E0.06111
G1 X118.650 Y134.796 E0.19330
G1 X116.800 Y138.000 E0.19330
G1 X118.421 Y140.807 E0.16936
G1 X81.579 Y140.807 E1.92480
G1 X83.200 Y138.000 E0.16936
G1 X81.350 Y134.796 E0.19330
G1 X77.650 Y134.796 E0.19330
G1 X77.065 Y135.809 E0.06111
G1 X76.693 Y135.709 E0.02015
