; generated by Slic3r 1.2.6-dev on 2015-01-23 at 12:23:22

; external perimeters extrusion width = 0.40mm
; perimeters extrusion width = 0.48mm
; infill extrusion width = 0.48mm
; solid infill extrusion width = 0.48mm
; top infill extrusion width = 0.48mm

M107
M190 S60 ; set bed temperature
M104 S200 ; set temperature
G28 ; home all axes
G92 E0.0 ; reset extruder
M109 S200 ; wait for temperature to be reached
G21 ; set units to millimeters
G90 ; use absolute coordinates
M83 ; use relative distances for extrusion
G1 E-1.10000 F1800.00000
G1 Z0.300 F7800.000
G1 X60.983 Y38.336 F7800.000
G1 E1.10000 F1800.00000
M204 S500
G1 X63.336 Y35.983 E0.18897 F2160.000
G1 X116.664 Y35.983 E3.02820
G1 X119.017 Y38.336 E0.18897
G1 X119.017 Y141.664 E5.86743 F2160.000
G1 X116.664 Y144.017 E0.18897
G1 X63.336 Y144.017 E3.02820
G1 X60.983 Y141.664 E0.18897
G1 X60.983 Y38.396 E5.86403
G1 X61.518 Y38.558 F7800.000
G1 X63.558 Y36.518 E0.16378 F2160.000
G1 X116.442 Y36.518 E3.00301
G1 X118.482 Y38.558 E0.16378 F2160.000
G1 X118.482 Y141.442 E5.84224
G1 X116.442 Y143.482 E0.16378
G1 X63.558 Y143.482 E3.00301
G1 X61.518 Y141.442 E0.16378
G1 X61.518 Y38.618 E5.83883
G1 X62.054 Y38.780 F7800.000
G1 X63.780 Y37.054 E0.13858 F2160.000
G1 X116.220 Y37.054 E2.97781
G1 X117.946 Y38.780 E0.13858
G1 X117.946 Y141.220 E5.81704 F2160.000
G1 X116.220 Y142.946 E0.13858
G1 X63.780 Y142.946 E2.97781
G1 X62.054 Y141.220 E0.13858
G1 X62.054 Y38.840 E5.81363
G1 X62.590 Y39.002 F7800.000
G1 X64.002 Y37.590 E0.11338 F2160.000
G1 X115.998 Y37.590 E2.95261
G1 X117.410 Y39.002 E0.11338 F2160.000
G1 X117.410 Y140.998 E5.79184
G1 X115.998 Y142.410 E0.11338
G1 X64.002 Y142.410 E2.95261
G1 X62.590 Y140.998 E0.11338
G1 X62.590 Y39.062 E5.78844
G1 X63.125 Y39.223 F7800.000
G1 X64.223 Y38.125 E0.08819 F2160.000
G1 X115.777 Y38.125 E2.92742
G1 X116.875 Y39.223 E0.08819
G1 X116.875 Y140.777 E5.76665 F2160.000
G1 X115.777 Y141.875 E0.08819
G1 X64.223 Y141.875 E2.92742
G1 X63.125 Y140.777 E0.08819
G1 X63.125 Y39.283 E5.76324
G1 X63.661 Y39.445 F7800.000
G1 X64.445 Y38.661 E0.06299 F2160.000
G1 X115.555 Y38.661 E2.90222
G1 X116.339 Y39.445 E0.06299 F2160.000
G1 X116.339 Y140.555 E5.74145
G1 X115.555 Y141.339 E0.06299
G1 X64.445 Y141.339 E2.90222
G1 X63.661 Y140.555 E0.06299
G1 X63.661 Y39.505 E5.73804
G1 X64.197 Y39.667 F7800.000
G1 X64.667 Y39.197 E0.03779 F2160.000
G1 X115.333 Y39.197 E2.87702
G1 X115.803 Y39.667 E0.03779
G1 X115.803 Y140.333 E5.71625 F2160.000
G1 X115.333 Y140.803 E0.03779
G1 X64.667 Y140.803 E2.87702
G1 X64.197 Y140.333 E0.03779
G1 X64.197 Y39.727 E5.71285
G1 X64.732 Y39.889 F7800.000
G1 X64.889 Y39.732 E0.01260 F2160.000
G1 X115.111 Y39.732 E2.85183
G1 X115.268 Y39.889 E0.01260
G1 X115.268 Y140.111 E5.69106
G1 X115.111 Y140.268 E0.01260
G1 X64.889 Y140.268 E2.85183
G1 X64.732 Y140.111 E0.01260
G1 X64.732 Y39.949 E5.68765
G1 X65.300 Y40.300 F7800.000
G1 X114.700 Y40.300 E2.80516 F1296.000
G1 X114.700 Y139.700 E5.64439
G1 X65.300 Y139.700 E2.80516
G1 X65.300 Y40.360 E5.64098
G1 X65.646 Y40.500 F7800.000
G1 X66.074 Y137.232 F7800.000
G1 X67.189 Y139.164 E0.12667 F1080.000
G1 X65.836 Y139.164 E0.07686
G1 X65.836 Y137.296 E0.10608
G1 X66.016 Y137.248 E0.01060
G1 X67.813 Y139.174 F7800.000
G1 X65.946 Y135.940 E0.21203 F1080.000
G1 X67.813 Y132.706 E0.21203
G1 X71.547 Y132.706 E0.21203
G1 X73.414 Y135.940 E0.21203
G1 X71.547 Y139.174 E0.21203
G1 X67.873 Y139.174 E0.20862
G1 X67.437 Y139.311 F7800.000
G1 E-1.10000 F1800.00000
G1 X72.809 Y122.411 F7800.000
G1 E1.10000 F1800.00000
G1 X69.500 Y124.321 E0.21700 F1080.000
G1 X66.191 Y122.411 E0.21700
G1 X66.191 Y118.589 E0.21700
G1 X69.500 Y116.679 E0.21700
G1 X72.809 Y118.589 E0.21700
G1 X72.809 Y122.351 E0.21359
G1 X72.946 Y122.787 F7800.000
G1 E-1.10000 F1800.00000
G1 X71.367 Y108.694 F7800.000
G1 E1.10000 F1800.00000
G1 X67.633 Y108.694 E0.21203 F1080.000
G1 X65.766 Y105.460 E0.21203
G1 X67.633 Y102.226 E0.21203
G1 X71.367 Y102.226 E0.21203
G1 X73.234 Y105.460 E0.21203
G1 X71.397 Y108.642 E0.20862
G1 X71.297 Y109.088 F7800.000
G1 E-1.10000 F1800.00000
G1 X71.367 Y98.534 F7800.000
G1 E1.10000 F1800.00000
G1 X67.633 Y98.534 E0.21203 F1080.000
G1 X65.766 Y95.300 E0.21203
G1 X67.633 Y92.066 E0.21203
G1 X71.367 Y92.066 E0.21203
G1 X73.234 Y95.300 E0.21203
G1 X71.397 Y98.482 E0.20862
G1 X71.297 Y98.928 F7800.000
G1 X74.700 Y111.300 F7800.000
G1 X74.700 Y80.700 E1.73761 F1296.000
G1 X105.300 Y80.700 E1.73761
G1 X105.300 Y111.300 E1.73761
G1 X74.760 Y111.300 E1.73420
G1 X74.300 Y111.300 F7800.000
G1 E-1.10000 F1800.00000
G1 X71.367 Y88.374 F7800.000
G1 E1.10000 F1800.00000
G1 X67.633 Y88.374 E0.21203 F1080.000
G1 X65.766 Y85.140 E0.21203
G1 X67.633 Y81.906 E0.21203
G1 X71.367 Y81.906 E0.21203
G1 X73.234 Y85.140 E0.21203
G1 X71.397 Y88.322 E0.20862
G1 X71.297 Y88.768 F7800.000
G1 E-1.10000 F1800.00000
G1 X71.367 Y78.214 F7800.000
G1 E1.10000 F1800.00000
G1 X67.633 Y78.214 E0.21203 F1080.000
G1 X67.462 Y77.917 E0.01945
G1 X65.766 Y74.980 E0.19258
G1 X67.633 Y71.746 E0.21203
G1 X71.367 Y71.746 E0.21203
G1 X73.234 Y74.980 E0.21203
G1 X71.397 Y78.162 E0.20862
G1 X71.297 Y78.608 F7800.000
G1 E-1.10000 F1800.00000
G1 X71.367 Y68.054 F7800.000
G1 E1.10000 F1800.00000
G1 X67.633 Y68.054 E0.21203 F1080.000
G1 X65.766 Y64.820 E0.21203
G1 X67.633 Y61.586 E0.21203
G1 X71.367 Y61.586 E0.21203
G1 X73.234 Y64.820 E0.21203
G1 X71.397 Y68.002 E0.20862
G1 X71.297 Y68.448 F7800.000
G1 E-1.10000 F1800.00000
G1 X66.074 Y42.896 F7800.000
G1 E1.10000 F1800.00000
G1 X65.836 Y42.832 E0.01400 F1080.000
G1 X65.836 Y40.836 E0.11336
G1 X67.263 Y40.836 E0.08107
G1 X66.104 Y42.844 E0.13168
G1 X65.766 Y44.500 F7800.000
G1 X67.633 Y41.266 E0.21203 F1080.000
G1 X71.367 Y41.266 E0.21203
G1 X73.234 Y44.500 E0.21203
G1 X71.367 Y47.734 E0.21203
G1 X67.633 Y47.734 E0.21203
G1 X65.796 Y44.552 E0.20862
G1 X65.460 Y44.243 F7800.000
G1 X67.633 Y51.426 F7800.000
G1 X71.367 Y51.426 E0.21203 F1080.000
G1 X73.234 Y54.660 E0.21203
G1 X71.367 Y57.894 E0.21203
G1 X67.633 Y57.894 E0.21203
G1 X65.766 Y54.660 E0.21203
G1 X67.603 Y51.478 E0.20862
G1 X67.702 Y51.032 F7800.000
G1 X74.700 Y49.700 F7800.000
G1 X105.300 Y49.700 E1.73761 F1296.000
G1 X105.300 Y69.800 E1.14137
G1 X74.700 Y69.800 E1.73761
G1 X74.700 Y49.760 E1.13796
G1 X74.700 Y49.300 F7800.000
G1 X75.926 Y44.500 F7800.000
G1 X77.793 Y41.266 E0.21203 F1080.000
G1 X81.527 Y41.266 E0.21203
G1 X83.394 Y44.500 E0.21203
G1 X81.527 Y47.734 E0.21203
G1 X77.793 Y47.734 E0.21203
G1 X75.956 Y44.552 E0.20862
G1 X75.620 Y44.243 F7800.000
G1 E-1.10000 F1800.00000
G1 X86.086 Y44.500 F7800.000
G1 E1.10000 F1800.00000
G1 X87.953 Y41.266 E0.21203 F1080.000
G1 X91.687 Y41.266 E0.21203
G1 X93.554 Y44.500 E0.21203
G1 X91.687 Y47.734 E0.21203
G1 X87.953 Y47.734 E0.21203
G1 X86.116 Y44.552 E0.20862
G1 X85.780 Y44.243 F7800.000
G1 E-1.10000 F1800.00000
G1 X96.246 Y44.500 F7800.000
G1 E1.10000 F1800.00000
G1 X98.113 Y41.266 E0.21203 F1080.000
G1 X101.847 Y41.266 E0.21203
G1 X103.714 Y44.500 E0.21203
G1 X101.847 Y47.734 E0.21203
G1 X98.113 Y47.734 E0.21203
G1 X96.276 Y44.552 E0.20862
G1 X95.940 Y44.243 F7800.000
G1 E-1.10000 F1800.00000
G1 X112.737 Y40.836 F7800.000
G1 E1.10000 F1800.00000
G1 X114.164 Y40.836 E0.08106 F1080.000
G1 X114.164 Y42.832 E0.11336
G1 X113.926 Y42.896 E0.01400
G1 X112.767 Y40.888 E0.13167
G1 X112.367 Y41.266 F7800.000
G1 X114.234 Y44.500 E0.21203 F1080.000
G1 X112.367 Y47.734 E0.21203
G1 X108.633 Y47.734 E0.21203
G1 X106.766 Y44.500 E0.21203
G1 X108.633 Y41.266 E0.21203
G1 X112.307 Y41.266 E0.20863
G1 X112.743 Y41.130 F7800.000
G1 E-1.10000 F1800.00000
G1 X112.007 Y51.426 F7800.000
G1 E1.10000 F1800.00000
G1 X113.874 Y54.660 E0.21203 F1080.000
G1 X112.007 Y57.894 E0.21203
G1 X108.273 Y57.894 E0.21203
G1 X106.406 Y54.660 E0.21203
G1 X108.273 Y51.426 E0.21203
G1 X111.947 Y51.426 E0.20863
G1 X112.383 Y51.289 F7800.000
G1 E-1.10000 F1800.00000
G1 X112.316 Y58.429 F7800.000
G1 E1.10000 F1800.00000
G1 X113.926 Y55.641 E0.18284 F1080.000
G1 X114.164 Y55.705 E0.01400
G1 X114.164 Y63.775 E0.45830
G1 X113.926 Y63.839 E0.01400
G1 X112.316 Y61.051 E0.18284
G1 X107.964 Y61.051 E0.24716
G1 X106.074 Y64.324 E0.21464
G1 X105.836 Y64.260 E0.01400
G1 X105.836 Y55.220 E0.51338
G1 X106.074 Y55.156 E0.01400
G1 X107.964 Y58.429 E0.21464
G1 X112.256 Y58.429 E0.24375
G1 X112.007 Y61.586 F7800.000
G1 X113.874 Y64.820 E0.21203 F1080.000
G1 X112.007 Y68.054 E0.21203
G1 X108.273 Y68.054 E0.21203
G1 X106.406 Y64.820 E0.21203
G1 X108.273 Y61.586 E0.21203
G1 X111.947 Y61.586 E0.20863
G1 X112.383 Y61.449 F7800.000
G1 E-1.10000 F1800.00000
G1 X112.316 Y68.589 F7800.000
G1 E1.10000 F1800.00000
G1 X113.926 Y65.801 E0.18284 F1440.000
G1 X114.164 Y65.865 E0.01400
G1 X114.164 Y73.935 E0.45830
G1 X113.926 Y73.999 E0.01400
G1 X112.316 Y71.211 E0.18284
G1 X107.964 Y71.211 E0.24716
G1 X105.788 Y74.980 E0.24715
G1 X107.964 Y78.749 E0.24715
G1 X112.316 Y78.749 E0.24716
G1 X113.926 Y75.961 E0.18284
G1 X114.164 Y76.025 E0.01400
G1 X114.164 Y84.095 E0.45830
G1 X113.926 Y84.159 E0.01400
G1 X112.316 Y81.371 E0.18284
G1 X107.964 Y81.371 E0.24716
G1 X106.074 Y84.644 E0.21464
G1 X105.836 Y84.580 E0.01400
G1 X105.836 Y80.164 E0.25076
G1 X74.164 Y80.164 E1.79844
G1 X74.164 Y111.836 E1.79844
G1 X105.836 Y111.836 E1.79844
G1 X105.836 Y106.020 E0.33026
G1 X106.074 Y105.956 E0.01400
G1 X107.964 Y109.229 E0.21464
G1 X112.316 Y109.229 E0.24716
G1 X113.926 Y106.441 E0.18284
G1 X114.164 Y106.505 E0.01400
G1 X114.164 Y118.176 E0.66275
G1 X110.500 Y116.060 E0.24027
G1 X106.655 Y118.280 E0.25212
G1 X106.655 Y122.720 E0.25212
G1 X110.500 Y124.940 E0.25211
G1 X114.164 Y122.824 E0.24027
G1 X114.164 Y134.584 E0.66776
G1 X113.926 Y134.647 E0.01400
G1 X112.496 Y132.171 E0.16240
G1 X108.144 Y132.171 E0.24716
G1 X105.968 Y135.940 E0.24715
G1 X107.829 Y139.164 E0.21142
G1 X72.171 Y139.164 E2.02484
G1 X74.032 Y135.940 E0.21142
G1 X71.856 Y132.171 E0.24715
G1 X67.504 Y132.171 E0.24715
G1 X66.074 Y134.648 E0.16240
G1 X65.836 Y134.584 E0.01400
G1 X65.836 Y122.824 E0.66775
G1 X69.500 Y124.940 E0.24027
G1 X73.345 Y122.720 E0.25212
G1 X73.345 Y118.280 E0.25212
G1 X69.500 Y116.060 E0.25212
G1 X65.836 Y118.176 E0.24027
G1 X65.836 Y107.128 E0.62734
G1 X66.074 Y107.064 E0.01400
G1 X67.324 Y109.229 E0.14196
G1 X71.676 Y109.229 E0.24715
G1 X73.852 Y105.460 E0.24715
G1 X71.676 Y101.691 E0.24715
G1 X67.324 Y101.691 E0.24715
G1 X66.074 Y103.856 E0.14196
G1 X65.836 Y103.792 E0.01400
G1 X65.836 Y96.968 E0.38749
G1 X66.074 Y96.904 E0.01400
G1 X67.324 Y99.069 E0.14196
G1 X71.676 Y99.069 E0.24715
G1 X73.852 Y95.300 E0.24715
G1 X71.676 Y91.531 E0.24715
G1 X67.324 Y91.531 E0.24715
G1 X66.074 Y93.696 E0.14196
G1 X65.836 Y93.632 E0.01400
G1 X65.836 Y86.808 E0.38749
G1 X66.074 Y86.744 E0.01400
G1 X67.324 Y88.909 E0.14196
G1 X71.676 Y88.909 E0.24715
G1 X73.852 Y85.140 E0.24715
G1 X71.676 Y81.371 E0.24715
G1 X67.324 Y81.371 E0.24715
G1 X66.074 Y83.536 E0.14196
G1 X65.836 Y83.472 E0.01400
G1 X65.836 Y76.648 E0.38749
G1 X66.074 Y76.584 E0.01400
G1 X67.324 Y78.749 E0.14196
G1 X71.676 Y78.749 E0.24715
G1 X73.852 Y74.980 E0.24715
G1 X71.676 Y71.211 E0.24715
G1 X67.324 Y71.211 E0.24715
G1 X66.074 Y73.376 E0.14196
G1 X65.836 Y73.312 E0.01400
G1 X65.836 Y66.488 E0.38749
G1 X66.074 Y66.424 E0.01400
G1 X67.324 Y68.589 E0.14196
G1 X71.676 Y68.589 E0.24715
G1 X73.852 Y64.820 E0.24715
G1 X71.676 Y61.051 E0.24715
G1 X67.324 Y61.051 E0.24715
G1 X66.074 Y63.216 E0.14196
G1 X65.836 Y63.152 E0.01400
G1 X65.836 Y56.328 E0.38749
G1 X66.074 Y56.264 E0.01400
G1 X67.324 Y58.429 E0.14196
G1 X71.676 Y58.429 E0.24715
G1 X73.852 Y54.660 E0.24715
G1 X71.676 Y50.891 E0.24715
G1 X67.324 Y50.891 E0.24715
G1 X66.074 Y53.056 E0.14196
G1 X65.836 Y52.992 E0.01400
G1 X65.836 Y46.168 E0.38749
G1 X66.074 Y46.104 E0.01400
G1 X67.324 Y48.269 E0.14196
G1 X71.676 Y48.269 E0.24715
G1 X73.852 Y44.500 E0.24715
G1 X71.737 Y40.836 E0.24027
G1 X77.423 Y40.836 E0.32290
G1 X75.308 Y44.500 E0.24027
G1 X77.484 Y48.269 E0.24715
G1 X81.836 Y48.269 E0.24715
G1 X84.012 Y44.500 E0.24715
G1 X81.897 Y40.836 E0.24027
G1 X87.583 Y40.836 E0.32290
G1 X85.468 Y44.500 E0.24027
G1 X87.644 Y48.269 E0.24715
G1 X91.996 Y48.269 E0.24715
G1 X94.172 Y44.500 E0.24715
G1 X92.057 Y40.836 E0.24027
G1 X97.743 Y40.836 E0.32290
G1 X95.628 Y44.500 E0.24027
G1 X97.804 Y48.269 E0.24715
G1 X102.156 Y48.269 E0.24715
G1 X104.332 Y44.500 E0.24715
G1 X102.217 Y40.836 E0.24027
G1 X108.263 Y40.836 E0.34334
G1 X106.148 Y44.500 E0.24027
G1 X108.324 Y48.269 E0.24715
G1 X112.676 Y48.269 E0.24715
G1 X113.926 Y46.104 E0.14196
G1 X114.164 Y46.168 E0.01400
G1 X114.164 Y53.615 E0.42290
G1 X113.926 Y53.679 E0.01400
G1 X112.316 Y50.891 E0.18284
G1 X107.964 Y50.891 E0.24716
G1 X106.074 Y54.164 E0.21464
G1 X105.836 Y54.100 E0.01400
G1 X105.836 Y49.164 E0.28029
G1 X74.164 Y49.164 E1.79844
G1 X74.164 Y70.336 E1.20220
G1 X105.836 Y70.336 E1.79844
G1 X105.836 Y65.380 E0.28143
G1 X106.074 Y65.316 E0.01400
G1 X107.964 Y68.589 E0.21464
G1 X112.256 Y68.589 E0.24375
G1 X101.847 Y71.746 F7800.000
G1 X103.714 Y74.980 E0.21203 F1080.000
G1 X101.847 Y78.214 E0.21203
G1 X98.113 Y78.214 E0.21203
G1 X96.246 Y74.980 E0.21203
G1 X98.113 Y71.746 E0.21203
G1 X101.787 Y71.746 E0.20862
G1 X102.223 Y71.609 F7800.000
G1 X102.156 Y71.211 F7800.000
G1 X104.332 Y74.980 E0.24715 F1080.000
G1 X102.156 Y78.749 E0.24715
G1 X97.804 Y78.749 E0.24715
G1 X95.628 Y74.980 E0.24715
G1 X97.804 Y71.211 E0.24715
G1 X102.096 Y71.211 E0.24374
G1 X81.527 Y71.746 F7800.000
G1 X83.394 Y74.980 E0.21203 F1080.000
G1 X81.527 Y78.214 E0.21203
G1 X77.793 Y78.214 E0.21203
G1 X75.926 Y74.980 E0.21203
G1 X77.793 Y71.746 E0.21203
G1 X81.467 Y71.746 E0.20863
G1 X81.903 Y71.609 F7800.000
G1 X81.836 Y71.211 F7800.000
G1 X84.012 Y74.980 E0.24715 F1080.000
G1 X81.836 Y78.749 E0.24715
G1 X77.484 Y78.749 E0.24715
G1 X75.308 Y74.980 E0.24715
G1 X77.484 Y71.211 E0.24715
G1 X81.776 Y71.211 E0.24375
G1 X87.953 Y71.746 F7800.000
G1 X91.687 Y71.746 E0.21203 F1080.000
G1 X93.554 Y74.980 E0.21203
G1 X91.687 Y78.214 E0.21203
G1 X87.953 Y78.214 E0.21203
G1 X86.086 Y74.980 E0.21203
G1 X87.923 Y71.798 E0.20862
G1 X88.022 Y71.352 F7800.000
G1 X87.644 Y71.211 F7800.000
G1 X91.996 Y71.211 E0.24716 F1080.000
G1 X94.172 Y74.980 E0.24715
G1 X91.996 Y78.749 E0.24715
G1 X87.644 Y78.749 E0.24715
G1 X85.468 Y74.980 E0.24715
G1 X87.614 Y71.263 E0.24374
G1 E-1.10000 F1800.00000
G1 X88.133 Y122.546 F7800.000
G1 E1.10000 F1800.00000
G1 X91.867 Y122.546 E0.21203 F1080.000
G1 X93.734 Y125.780 E0.21203
G1 X91.867 Y129.014 E0.21203
G1 X88.133 Y129.014 E0.21203
G1 X86.266 Y125.780 E0.21203
G1 X88.103 Y122.598 E0.20862
G1 X88.202 Y122.152 F7800.000
G1 X87.824 Y122.011 F7800.000
G1 X92.176 Y122.011 E0.24716 F1080.000
G1 X94.352 Y125.780 E0.24715
G1 X92.176 Y129.549 E0.24715
G1 X87.824 Y129.549 E0.24715
G1 X85.648 Y125.780 E0.24715
G1 X87.794 Y122.063 E0.24374
G1 E-1.10000 F1800.00000
G1 X108.273 Y78.214 F7800.000
G1 E1.10000 F1800.00000
G1 X106.406 Y74.980 E0.21203 F1080.000
G1 X108.273 Y71.746 E0.21203
G1 X112.007 Y71.746 E0.21203
G1 X113.874 Y74.980 E0.21203
G1 X112.007 Y78.214 E0.21203
G1 X108.333 Y78.214 E0.20863
G1 X107.897 Y78.351 F7800.000
G1 X108.273 Y81.906 F7800.000
G1 X112.007 Y81.906 E0.21203 F1080.000
G1 X113.874 Y85.140 E0.21203
G1 X112.007 Y88.374 E0.21203
G1 X108.273 Y88.374 E0.21203
G1 X106.406 Y85.140 E0.21203
G1 X108.243 Y81.958 E0.20862
G1 X108.342 Y81.512 F7800.000
G1 E-1.10000 F1800.00000
G1 X107.964 Y88.909 F7800.000
G1 E1.10000 F1800.00000
G1 X112.316 Y88.909 E0.24716 F1080.000
G1 X113.926 Y86.121 E0.18284
G1 X114.164 Y86.185 E0.01400
G1 X114.164 Y94.255 E0.45830
G1 X113.926 Y94.319 E0.01400
G1 X112.316 Y91.531 E0.18284
G1 X107.964 Y91.531 E0.24716
G1 X106.074 Y94.804 E0.21464
G1 X105.836 Y94.740 E0.01400
G1 X105.836 Y85.700 E0.51338
G1 X106.074 Y85.636 E0.01400
G1 X107.934 Y88.857 E0.21124
G1 X108.273 Y92.066 F7800.000
G1 X112.007 Y92.066 E0.21203 F1080.000
G1 X113.874 Y95.300 E0.21203
G1 X112.007 Y98.534 E0.21203
G1 X108.273 Y98.534 E0.21203
G1 X106.406 Y95.300 E0.21203
G1 X108.243 Y92.118 E0.20862
G1 X108.342 Y91.672 F7800.000
G1 E-1.10000 F1800.00000
G1 X107.964 Y99.069 F7800.000
G1 E1.10000 F1800.00000
G1 X112.316 Y99.069 E0.24716 F1080.000
