; generated by Slic3r 1.1.7 on 2015-01-11 at 16:25:55

; perimeters extrusion width = 0.60mm
; infill extrusion width = 0.60mm
; solid infill extrusion width = 0.60mm
; top infill extrusion width = 0.60mm

G21 ; set units to millimeters
M107
M190 S60 ; wait for bed temperature to be reached
M104 S200 ; set temperature
G28 ; home all axes
G92 E0.0 ; reset extruder
M109 S200 ; wait for temperature to be reached
G90 ; use absolute coordinates
M83 ; use relative distances for extrusion
M204 S500
G1 F1800.000 E-1.00000
G1 Z0.300 F7800.000
G1 X50.822 Y40.769 F7800.000
G1 E1.00000 F1800.000
G1 X53.269 Y38.322 E0.24049 F2160.000
G1 X64.731 Y38.322 E0.79635
G1 X67.178 Y40.769 E0.24049
G1 X67.178 Y48.096 E0.50904 F2160.000
G1 X67.504 Y48.422 E0.03207
G1 X92.496 Y48.422 E1.73644
G1 X92.822 Y48.096 E0.03207
G1 X92.822 Y40.769 E0.50904
G1 X95.269 Y38.322 E0.24049
G1 X106.731 Y38.322 E0.79635
G1 X109.178 Y40.769 E0.24049
G1 X109.178 Y129.231 E6.14647
G1 X106.731 Y131.678 E0.24049
G1 X53.269 Y131.678 E3.71460
G1 X50.822 Y129.231 E0.24049
G1 X50.822 Y40.829 E6.14230
G1 X51.379 Y41.000 F7800.000
G1 X53.500 Y38.879 E0.20843 F2160.000
G1 X64.500 Y38.879 E0.76428
G1 X66.621 Y41.000 E0.20843 F2160.000
G1 X66.621 Y48.653 E0.53171
G1 X66.947 Y48.979 E0.03207
G1 X93.053 Y48.979 E1.81385
G1 X93.379 Y48.653 E0.03207
G1 X93.379 Y41.000 E0.53171
G1 X95.500 Y38.879 E0.20843
G1 X106.500 Y38.879 E0.76428
G1 X108.621 Y41.000 E0.20843
G1 X108.621 Y129.000 E6.11440
G1 X106.500 Y131.121 E0.20843
G1 X53.500 Y131.121 E3.68253
G1 X51.379 Y129.000 E0.20843
G1 X51.379 Y41.060 E6.11023
G1 X51.936 Y41.231 F7800.000
G1 X53.731 Y39.436 E0.17636 F2160.000
G1 X64.269 Y39.436 E0.73222
G1 X66.064 Y41.231 E0.17636
G1 X66.064 Y49.210 E0.55439 F2160.000
G1 X66.390 Y49.536 E0.03207
G1 X93.610 Y49.536 E1.89126
G1 X93.936 Y49.210 E0.03207
G1 X93.936 Y41.231 E0.55439
G1 X95.731 Y39.436 E0.17636
G1 X106.269 Y39.436 E0.73222
G1 X108.064 Y41.231 E0.17636
G1 X108.064 Y128.769 E6.08234
G1 X106.269 Y130.564 E0.17636
G1 X53.731 Y130.564 E3.65046
G1 X51.936 Y128.769 E0.17636
G1 X51.936 Y41.291 E6.07817
G1 X52.493 Y41.462 F7800.000
G1 X53.962 Y39.993 E0.14430 F2160.000
G1 X64.038 Y39.993 E0.70015
G1 X65.507 Y41.462 E0.14430 F2160.000
G1 X65.507 Y49.767 E0.57706
G1 X65.833 Y50.093 E0.03207
G1 X94.167 Y50.093 E1.96868
G1 X94.493 Y49.767 E0.03207
G1 X94.493 Y41.462 E0.57706
G1 X95.962 Y39.993 E0.14430
G1 X106.038 Y39.993 E0.70015
G1 X107.507 Y41.462 E0.14430
G1 X107.507 Y128.538 E6.05027
G1 X106.038 Y130.007 E0.14430
G1 X53.962 Y130.007 E3.61840
G1 X52.493 Y128.538 E0.14430
G1 X52.493 Y41.522 E6.04610
G1 X53.050 Y41.692 F7800.000
G1 X54.192 Y40.550 E0.11223 F2160.000
G1 X63.808 Y40.550 E0.66809
G1 X64.950 Y41.692 E0.11223
G1 X64.950 Y50.324 E0.59974 F2160.000
G1 X65.276 Y50.650 E0.03207
G1 X94.724 Y50.650 E2.04609
G1 X95.050 Y50.324 E0.03207
G1 X95.050 Y41.692 E0.59974
G1 X96.192 Y40.550 E0.11223
G1 X105.808 Y40.550 E0.66809
G1 X106.950 Y41.692 E0.11223
G1 X106.950 Y128.308 E6.01820
G1 X105.808 Y129.450 E0.11223
G1 X54.192 Y129.450 E3.58633
G1 X53.050 Y128.308 E0.11223
G1 X53.050 Y41.752 E6.01404
G1 X53.607 Y41.923 F7800.000
G1 X54.423 Y41.107 E0.08016 F2160.000
G1 X63.577 Y41.107 E0.63602
G1 X64.393 Y41.923 E0.08016 F2160.000
G1 X64.393 Y50.881 E0.62241
G1 X64.719 Y51.207 E0.03207
G1 X95.281 Y51.207 E2.12351
G1 X95.607 Y50.881 E0.03207
G1 X95.607 Y41.923 E0.62241
G1 X96.423 Y41.107 E0.08016
G1 X105.577 Y41.107 E0.63602
G1 X106.393 Y41.923 E0.08016
G1 X106.393 Y128.077 E5.98614
G1 X105.577 Y128.893 E0.08016
G1 X54.423 Y128.893 E3.55427
G1 X53.607 Y128.077 E0.08016
G1 X53.607 Y41.983 E5.98197
G1 X54.164 Y42.154 F7800.000
G1 X54.654 Y41.664 E0.04810 F2160.000
G1 X63.346 Y41.664 E0.60396
G1 X63.836 Y42.154 E0.04810
G1 X63.836 Y51.438 E0.64508 F2160.000
G1 X64.162 Y51.764 E0.03207
G1 X95.838 Y51.764 E2.20092
G1 X96.164 Y51.438 E0.03207
G1 X96.164 Y42.154 E0.64508
G1 X96.654 Y41.664 E0.04810
G1 X105.346 Y41.664 E0.60396
G1 X105.836 Y42.154 E0.04810
G1 X105.836 Y127.846 E5.95407
G1 X105.346 Y128.336 E0.04810
G1 X54.654 Y128.336 E3.52220
G1 X54.164 Y127.846 E0.04810
G1 X54.164 Y42.214 E5.94990
G1 X54.885 Y42.221 F7800.000
G1 X63.115 Y42.221 E0.57189 F2160.000
G1 X63.279 Y42.385 E0.01603
G1 X63.279 Y51.995 E0.66776
G1 X63.605 Y52.321 E0.03207
G1 X96.395 Y52.321 E2.27833
G1 X96.721 Y51.995 E0.03207
G1 X96.721 Y42.385 E0.66776
G1 X96.885 Y42.221 E0.01603
G1 X105.115 Y42.221 E0.57189
G1 X105.279 Y42.385 E0.01603
G1 X105.279 Y127.615 E5.92201
G1 X105.115 Y127.779 E0.01603
G1 X54.885 Y127.779 E3.49014
G1 X54.721 Y127.615 E0.01603
G1 X54.721 Y42.385 E5.92201
G1 X54.842 Y42.264 E0.01186
G1 F1800.000 E-1.00000
G1 X97.343 Y48.427 F7800.000
G1 E1.00000 F1800.000
G1 X97.343 Y45.573 E0.19832 F1296.000
G1 F1800.000 E-1.00000
G1 X62.657 Y48.427 F7800.000
G1 E1.00000 F1800.000
G1 X62.657 Y45.573 E0.19832 F1296.000
G1 F1800.000 E-1.00000
G1 X103.615 Y48.798 F7800.000
G1 E1.00000 F1800.000
G1 X103.615 Y45.202 E0.24989 F1296.000
G1 X100.500 Y43.404 E0.24989
G1 X97.300 Y45.251 E0.25674
G1 X97.300 Y42.800 E0.17031
G1 X104.700 Y42.800 E0.51417
G1 X104.700 Y127.200 E5.86428
G1 X55.300 Y127.200 E3.43241
G1 X55.300 Y42.800 E5.86428
G1 X62.700 Y42.800 E0.51417
G1 X62.700 Y45.251 E0.17031
G1 X59.500 Y43.404 E0.25674
G1 X56.385 Y45.202 E0.24989
G1 X56.385 Y48.798 E0.24989
G1 X59.500 Y50.596 E0.24989
G1 X62.700 Y48.749 E0.25674
G1 X62.700 Y52.900 E0.28843
G1 X97.300 Y52.900 E2.40408
G1 X97.300 Y48.749 E0.28843
G1 X100.500 Y50.596 E0.25674
G1 X103.563 Y48.828 E0.24572
G1 X104.009 Y48.729 F7800.000
G1 F1800.000 E-1.00000
G1 X57.894 Y43.687 F7800.000
G1 E1.00000 F1800.000
G1 X55.857 Y44.864 E0.16345 F1440.000
G1 X55.857 Y43.357 E0.10467
G1 X57.806 Y43.357 E0.13540
G1 X57.879 Y43.629 E0.01959
G1 X61.106 Y43.687 F7800.000
G1 X61.194 Y43.357 E0.02376 F1440.000
G1 X62.143 Y43.357 E0.06592
G1 X62.143 Y44.286 E0.06456
G1 X61.158 Y43.717 E0.07905
G1 F1800.000 E-1.00000
G1 X97.857 Y43.357 F7800.000
G1 E1.00000 F1800.000
G1 X98.806 Y43.357 E0.06592 F1440.000
G1 X98.894 Y43.687 E0.02376
G1 X97.857 Y44.286 E0.08321
G1 X97.857 Y43.417 E0.06039
G1 X102.106 Y43.687 F7800.000
G1 X102.194 Y43.357 E0.02376 F1440.000
G1 X104.143 Y43.357 E0.13540
G1 X104.143 Y44.864 E0.10467
G1 X102.158 Y43.717 E0.15928
G1 F1800.000 E-1.00000
G1 X97.857 Y53.457 F7800.000
G1 E1.00000 F1800.000
G1 X97.857 Y49.714 E0.26009 F1440.000
G1 X100.500 Y51.240 E0.21204
G1 X104.143 Y49.136 E0.29228
G1 X104.143 Y60.506 E0.78998
G1 X103.813 Y60.594 E0.02376
G1 X102.484 Y58.293 E0.18468
G1 X98.156 Y58.293 E0.30067
G1 X95.993 Y62.040 E0.30066
G1 X98.156 Y65.787 E0.30066
G1 X102.484 Y65.787 E0.30066
G1 X103.813 Y63.486 E0.18468
G1 X104.143 Y63.574 E0.02376
G1 X104.143 Y70.666 E0.49276
G1 X103.813 Y70.754 E0.02376
G1 X102.484 Y68.453 E0.18468
G1 X98.156 Y68.453 E0.30067
G1 X95.993 Y72.200 E0.30066
G1 X98.156 Y75.947 E0.30066
G1 X102.484 Y75.947 E0.30066
G1 X103.813 Y73.646 E0.18468
G1 X104.143 Y73.734 E0.02376
G1 X104.143 Y80.826 E0.49276
G1 X103.813 Y80.914 E0.02376
G1 X102.484 Y78.613 E0.18468
G1 X98.156 Y78.613 E0.30067
G1 X95.993 Y82.360 E0.30066
G1 X98.156 Y86.107 E0.30066
G1 X102.484 Y86.107 E0.30066
G1 X103.813 Y83.806 E0.18468
G1 X104.143 Y83.894 E0.02376
G1 X104.143 Y90.986 E0.49276
G1 X103.813 Y91.074 E0.02376
G1 X102.484 Y88.773 E0.18468
G1 X98.156 Y88.773 E0.30067
G1 X95.993 Y92.520 E0.30066
G1 X98.156 Y96.267 E0.30066
G1 X102.484 Y96.267 E0.30066
G1 X103.813 Y93.966 E0.18468
G1 X104.143 Y94.054 E0.02376
G1 X104.143 Y101.146 E0.49276
G1 X103.813 Y101.234 E0.02376
G1 X102.484 Y98.933 E0.18468
G1 X98.156 Y98.933 E0.30067
G1 X95.993 Y102.680 E0.30066
G1 X98.156 Y106.427 E0.30066
G1 X102.484 Y106.427 E0.30066
G1 X103.813 Y104.126 E0.18468
G1 X104.143 Y104.214 E0.02376
G1 X104.143 Y111.306 E0.49276
G1 X103.813 Y111.394 E0.02376
G1 X102.484 Y109.093 E0.18468
G1 X98.156 Y109.093 E0.30067
G1 X95.993 Y112.840 E0.30066
G1 X98.156 Y116.587 E0.30066
G1 X102.484 Y116.587 E0.30066
G1 X103.813 Y114.286 E0.18468
G1 X104.143 Y114.374 E0.02376
G1 X104.143 Y121.466 E0.49276
G1 X103.813 Y121.554 E0.02376
G1 X102.484 Y119.253 E0.18468
G1 X98.156 Y119.253 E0.30067
G1 X95.993 Y123.000 E0.30066
G1 X98.096 Y126.643 E0.29227
G1 X92.384 Y126.643 E0.39689
G1 X94.487 Y123.000 E0.29227
G1 X92.324 Y119.253 E0.30066
G1 X87.996 Y119.253 E0.30066
G1 X85.833 Y123.000 E0.30066
G1 X87.936 Y126.643 E0.29228
G1 X82.224 Y126.643 E0.39690
G1 X84.327 Y123.000 E0.29228
G1 X82.164 Y119.253 E0.30067
G1 X77.836 Y119.253 E0.30066
G1 X75.673 Y123.000 E0.30066
G1 X77.776 Y126.643 E0.29227
G1 X72.064 Y126.643 E0.39689
G1 X74.167 Y123.000 E0.29227
G1 X72.004 Y119.253 E0.30066
G1 X67.676 Y119.253 E0.30067
G1 X65.513 Y123.000 E0.30066
G1 X67.616 Y126.643 E0.29227
G1 X61.904 Y126.643 E0.39689
G1 X64.007 Y123.000 E0.29227
G1 X61.844 Y119.253 E0.30066
G1 X57.516 Y119.253 E0.30066
G1 X56.187 Y121.554 E0.18469
G1 X55.857 Y121.466 E0.02376
G1 X55.857 Y114.374 E0.49276
G1 X56.187 Y114.286 E0.02376
G1 X57.516 Y116.587 E0.18469
G1 X61.844 Y116.587 E0.30066
G1 X64.007 Y112.840 E0.30066
G1 X61.844 Y109.093 E0.30066
G1 X57.516 Y109.093 E0.30066
G1 X56.187 Y111.394 E0.18469
G1 X55.857 Y111.306 E0.02376
G1 X55.857 Y104.214 E0.49276
G1 X56.187 Y104.126 E0.02376
G1 X57.516 Y106.427 E0.18469
G1 X61.844 Y106.427 E0.30066
G1 X64.007 Y102.680 E0.30066
G1 X61.844 Y98.933 E0.30066
G1 X57.516 Y98.933 E0.30066
G1 X56.187 Y101.234 E0.18469
G1 X55.857 Y101.146 E0.02376
G1 X55.857 Y94.054 E0.49276
G1 X56.187 Y93.966 E0.02376
G1 X57.516 Y96.267 E0.18469
G1 X61.844 Y96.267 E0.30066
G1 X64.007 Y92.520 E0.30066
G1 X61.844 Y88.773 E0.30066
G1 X57.516 Y88.773 E0.30066
G1 X56.187 Y91.074 E0.18469
G1 X55.857 Y90.986 E0.02376
G1 X55.857 Y83.894 E0.49276
G1 X56.187 Y83.806 E0.02376
G1 X57.516 Y86.107 E0.18469
G1 X61.844 Y86.107 E0.30066
G1 X64.007 Y82.360 E0.30066
G1 X61.844 Y78.613 E0.30066
G1 X57.516 Y78.613 E0.30066
G1 X56.187 Y80.914 E0.18469
G1 X55.857 Y80.826 E0.02376
G1 X55.857 Y73.734 E0.49276
G1 X56.187 Y73.646 E0.02376
G1 X57.516 Y75.947 E0.18469
G1 X61.844 Y75.947 E0.30066
G1 X64.007 Y72.200 E0.30066
G1 X61.844 Y68.453 E0.30066
G1 X57.516 Y68.453 E0.30066
G1 X56.187 Y70.754 E0.18469
G1 X55.857 Y70.666 E0.02376
G1 X55.857 Y63.574 E0.49276
G1 X56.187 Y63.486 E0.02376
G1 X57.516 Y65.787 E0.18469
G1 X61.844 Y65.787 E0.30066
G1 X64.007 Y62.040 E0.30066
G1 X61.844 Y58.293 E0.30066
G1 X57.516 Y58.293 E0.30066
G1 X56.187 Y60.594 E0.18469
G1 X55.857 Y60.506 E0.02376
G1 X55.857 Y49.136 E0.78998
G1 X59.500 Y51.240 E0.29227
G1 X62.143 Y49.714 E0.21205
G1 X62.143 Y53.457 E0.26009
G1 X97.797 Y53.457 E2.47732
G1 F1800.000 E-1.00000
G1 X103.813 Y124.446 F7800.000
G1 E1.00000 F1800.000
G1 X104.143 Y124.534 E0.02376 F1440.000
G1 X104.143 Y126.643 E0.14653
G1 X102.544 Y126.643 E0.11110
G1 X103.783 Y124.498 E0.17213
G1 F1800.000 E-1.00000
G1 X57.456 Y126.643 F7800.000
G1 E1.00000 F1800.000
G1 X55.857 Y126.643 E0.11110 F1440.000
G1 X55.857 Y124.534 E0.14653
G1 X56.187 Y124.446 E0.02376
G1 X57.426 Y126.591 E0.17213
G1 X61.522 Y126.190 F7800.000
G1 X57.838 Y126.190 E0.25597 F1296.000
G1 X57.651 Y125.867 E0.02595
G1 X55.996 Y123.000 E0.23002
G1 X57.838 Y119.810 E0.25597
G1 X61.522 Y119.810 E0.25597
G1 X63.364 Y123.000 E0.25597
G1 X61.552 Y126.138 E0.25180
G1 X61.453 Y126.584 F7800.000
G1 X67.998 Y119.810 F7800.000
G1 X71.682 Y119.810 E0.25597 F1296.000
G1 X73.524 Y123.000 E0.25597
G1 X71.682 Y126.190 E0.25597
G1 X67.998 Y126.190 E0.25597
G1 X66.156 Y123.000 E0.25597
G1 X67.968 Y119.862 E0.25180
G1 X68.067 Y119.416 F7800.000
G1 X78.158 Y119.810 F7800.000
G1 X81.842 Y119.810 E0.25597 F1296.000
G1 X83.684 Y123.000 E0.25597
G1 X81.842 Y126.190 E0.25597
G1 X78.158 Y126.190 E0.25596
G1 X76.316 Y123.000 E0.25597
G1 X78.128 Y119.862 E0.25180
G1 X78.227 Y119.416 F7800.000
G1 F1800.000 E-1.00000
G1 X86.476 Y123.000 F7800.000
G1 E1.00000 F1800.000
G1 X88.318 Y119.810 E0.25597 F1296.000
G1 X92.002 Y119.810 E0.25597
G1 X93.844 Y123.000 E0.25597
G1 X92.002 Y126.190 E0.25597
G1 X88.318 Y126.190 E0.25597
G1 X86.506 Y123.052 E0.25180
G1 X86.170 Y122.743 F7800.000
G1 F1800.000 E-1.00000
G1 X98.478 Y119.810 F7800.000
G1 E1.00000 F1800.000
G1 X102.162 Y119.810 E0.25597 F1296.000
G1 X104.004 Y123.000 E0.25597
G1 X102.162 Y126.190 E0.25597
G1 X98.478 Y126.190 E0.25597
G1 X96.636 Y123.000 E0.25597
G1 X98.448 Y119.862 E0.25180
G1 X98.547 Y119.416 F7800.000
G1 X102.162 Y116.030 F7800.000
G1 X98.478 Y116.030 E0.25597 F1296.000
G1 X98.291 Y115.707 E0.02595
G1 X96.636 Y112.840 E0.23002
G1 X98.478 Y109.650 E0.25597
G1 X102.162 Y109.650 E0.25597
G1 X104.004 Y112.840 E0.25597
G1 X102.192 Y115.978 E0.25180
G1 X102.093 Y116.424 F7800.000
G1 X92.002 Y116.030 F7800.000
G1 X88.318 Y116.030 E0.25597 F1296.000
G1 X86.476 Y112.840 E0.25597
G1 X88.318 Y109.650 E0.25597
G1 X92.002 Y109.650 E0.25597
G1 X93.844 Y112.840 E0.25597
G1 X92.032 Y115.978 E0.25180
G1 X91.933 Y116.424 F7800.000
G1 X92.324 Y116.587 F7800.000
G1 X87.996 Y116.587 E0.30066 F1440.000
G1 X85.833 Y112.840 E0.30067
G1 X87.996 Y109.093 E0.30066
G1 X92.324 Y109.093 E0.30066
G1 X94.487 Y112.840 E0.30066
G1 X92.354 Y116.536 E0.29649
G1 F1800.000 E-1.00000
G1 X92.002 Y105.870 F7800.000
G1 E1.00000 F1800.000
G1 X88.318 Y105.870 E0.25597 F1296.000
G1 X86.476 Y102.680 E0.25597
G1 X88.318 Y99.490 E0.25597
G1 X92.002 Y99.490 E0.25597
G1 X93.844 Y102.680 E0.25597
G1 X92.032 Y105.818 E0.25180
G1 X91.933 Y106.264 F7800.000
G1 X92.324 Y106.427 F7800.000
G1 X87.996 Y106.427 E0.30066 F1440.000
G1 X85.833 Y102.680 E0.30066
G1 X87.996 Y98.933 E0.30066
G1 X92.324 Y98.933 E0.30066
G1 X94.487 Y102.680 E0.30066
G1 X92.354 Y106.376 E0.29649
G1 X98.478 Y99.490 F7800.000
G1 X102.162 Y99.490 E0.25597 F1296.000
G1 X104.004 Y102.680 E0.25597
G1 X102.162 Y105.870 E0.25597
G1 X98.478 Y105.870 E0.25597
G1 X96.636 Y102.680 E0.25597
G1 X98.448 Y99.542 E0.25180
G1 X98.547 Y99.096 F7800.000
G1 X102.162 Y95.710 F7800.000
G1 X98.478 Y95.710 E0.25597 F1296.000
G1 X96.636 Y92.520 E0.25597
G1 X98.478 Y89.330 E0.25597
G1 X102.162 Y89.330 E0.25597
G1 X104.004 Y92.520 E0.25597
G1 X102.192 Y95.658 E0.25180
G1 X102.093 Y96.104 F7800.000
G1 X92.002 Y95.710 F7800.000
G1 X88.318 Y95.710 E0.25597 F1296.000
G1 X86.476 Y92.520 E0.25597
G1 X88.318 Y89.330 E0.25597
G1 X92.002 Y89.330 E0.25597
G1 X93.844 Y92.520 E0.25597
G1 X92.032 Y95.658 E0.25180
G1 X91.933 Y96.104 F7800.000
G1 X92.324 Y96.267 F7800.000
G1 X87.996 Y96.267 E0.30066 F1440.000
G1 X85.833 Y92.520 E0.30066
G1 X87.996 Y88.773 E0.30066
G1 X92.324 Y88.773 E0.30066
G1 X94.487 Y92.520 E0.30066
G1 X92.354 Y96.216 E0.29649
G1 F1800.000 E-1.00000
G1 X83.684 Y92.520 F7800.000
G1 E1.00000 F1800.000
G1 X81.842 Y95.710 E0.25597 F1296.000
G1 X78.158 Y95.710 E0.25596
G1 X76.316 Y92.520 E0.25597
G1 X78.158 Y89.330 E0.25597
G1 X81.842 Y89.330 E0.25597
G1 X83.654 Y92.468 E0.25180
G1 X83.990 Y92.777 F7800.000
G1 X84.327 Y92.520 F7800.000
G1 X82.164 Y96.267 E0.30067 F1440.000
G1 X77.836 Y96.267 E0.30065
G1 X75.673 Y92.520 E0.30066
G1 X77.836 Y88.773 E0.30066
G1 X82.164 Y88.773 E0.30066
G1 X84.297 Y92.468 E0.29650
G1 X83.684 Y82.360 F7800.000
G1 X81.842 Y85.550 E0.25597 F1296.000
G1 X78.158 Y85.550 E0.25596
G1 X76.316 Y82.360 E0.25597
G1 X78.158 Y79.170 E0.25597
G1 X81.842 Y79.170 E0.25597
G1 X83.654 Y82.308 E0.25180
G1 X83.990 Y82.617 F7800.000
G1 X84.327 Y82.360 F7800.000
G1 X82.164 Y86.107 E0.30067 F1440.000
G1 X77.836 Y86.107 E0.30065
G1 X75.673 Y82.360 E0.30066
G1 X77.836 Y78.613 E0.30066
G1 X82.164 Y78.613 E0.30066
G1 X84.297 Y82.308 E0.29650
G1 X86.476 Y82.360 F7800.000
G1 X88.318 Y79.170 E0.25597 F1296.000
G1 X92.002 Y79.170 E0.25597
G1 X93.844 Y82.360 E0.25597
G1 X92.002 Y85.550 E0.25597
G1 X88.318 Y85.550 E0.25597
G1 X86.506 Y82.412 E0.25180
G1 X86.170 Y82.103 F7800.000
G1 X85.833 Y82.360 F7800.000
G1 X87.996 Y78.613 E0.30066 F1440.000
G1 X92.324 Y78.613 E0.30066
G1 X94.487 Y82.360 E0.30066
G1 X92.324 Y86.107 E0.30066
G1 X87.996 Y86.107 E0.30066
G1 X85.863 Y82.412 E0.29650
G1 F1800.000 E-1.00000
G1 X98.478 Y79.170 F7800.000
G1 E1.00000 F1800.000
G1 X102.162 Y79.170 E0.25597 F1296.000
G1 X104.004 Y82.360 E0.25597
G1 X102.162 Y85.550 E0.25597
G1 X98.478 Y85.550 E0.25597
G1 X96.636 Y82.360 E0.25597
