; generated by Slic3r 1.1.7 on 2014-12-31 at 15:43:42

; perimeters extrusion width = 0.60mm
; infill extrusion width = 0.60mm
; solid infill extrusion width = 0.60mm
; top infill extrusion width = 0.60mm

G21 ; set units to millimeters
M107
M190 S60 ; wait for bed temperature to be reached
M104 S200 ; set temperature
G28 ; home all axes
G92 E0.0 ; reset extruder
M109 S200 ; wait for temperature to be reached
G90 ; use absolute coordinates
M83 ; use relative distances for extrusion
M204 S500
G1 F1800.000 E-1.00000
G1 Z0.300 F7800.000
G1 X34.693 Y50.808 F7800.000
G1 E1.00000 F1800.000
G1 X125.307 Y50.808 E6.29610 F2160.000
G1 X130.692 Y56.193 E0.52909
G1 X130.692 Y113.807 E4.00319 F2160.000
G1 X125.307 Y119.192 E0.52909
G1 X34.693 Y119.192 E6.29610
G1 X29.308 Y113.807 E0.52909
G1 X29.308 Y56.193 E4.00319
G1 X34.650 Y50.851 E0.52492
G1 X34.923 Y51.365 F7800.000
G1 X125.077 Y51.365 E6.26403 F2160.000
G1 X130.135 Y56.423 E0.49702 F2160.000
G1 X130.135 Y113.577 E3.97112
G1 X125.077 Y118.635 E0.49702
G1 X34.923 Y118.635 E6.26403
G1 X29.865 Y113.577 E0.49702
G1 X29.865 Y56.423 E3.97112
G1 X34.881 Y51.408 E0.49285
G1 X35.154 Y51.922 F7800.000
G1 X124.846 Y51.922 E6.23197 F2160.000
G1 X129.578 Y56.654 E0.46496
G1 X129.578 Y113.346 E3.93906 F2160.000
G1 X124.846 Y118.078 E0.46496
G1 X35.154 Y118.078 E6.23197
G1 X30.422 Y113.346 E0.46496
G1 X30.422 Y56.654 E3.93906
G1 X35.112 Y51.965 E0.46079
G1 X35.385 Y52.479 F7800.000
G1 X124.615 Y52.479 E6.19990 F2160.000
G1 X129.021 Y56.885 E0.43289 F2160.000
G1 X129.021 Y113.115 E3.90699
G1 X124.615 Y117.521 E0.43289
G1 X35.385 Y117.521 E6.19990
G1 X30.979 Y113.115 E0.43289
G1 X30.979 Y56.885 E3.90699
G1 X35.342 Y52.522 E0.42872
G1 X35.616 Y53.037 F7800.000
G1 X124.384 Y53.037 E6.16783 F2160.000
G1 X128.463 Y57.116 E0.40082
G1 X128.463 Y112.884 E3.87493 F2160.000
G1 X124.384 Y116.963 E0.40082
G1 X35.616 Y116.963 E6.16783
G1 X31.537 Y112.884 E0.40082
G1 X31.537 Y57.116 E3.87493
G1 X35.573 Y53.079 E0.39666
G1 X35.846 Y53.594 F7800.000
G1 X124.154 Y53.594 E6.13577 F2160.000
G1 X127.906 Y57.346 E0.36876 F2160.000
G1 X127.906 Y112.654 E3.84286
G1 X124.154 Y116.406 E0.36876
G1 X35.846 Y116.406 E6.13577
G1 X32.094 Y112.654 E0.36876
G1 X32.094 Y57.346 E3.84286
G1 X35.804 Y53.636 E0.36459
G1 X36.077 Y54.151 F7800.000
G1 X123.923 Y54.151 E6.10370 F2160.000
G1 X127.349 Y57.577 E0.33669
G1 X127.349 Y112.423 E3.81079 F2160.000
G1 X123.923 Y115.849 E0.33669
G1 X36.077 Y115.849 E6.10370
G1 X32.651 Y112.423 E0.33669
G1 X32.651 Y57.577 E3.81079
G1 X36.035 Y54.193 E0.33252
G1 X36.308 Y54.708 F7800.000
G1 X123.692 Y54.708 E6.07164 F2160.000
G1 X126.792 Y57.808 E0.30463 F2160.000
G1 X126.792 Y112.192 E3.77873
G1 X123.692 Y115.292 E0.30463
G1 X36.308 Y115.292 E6.07164
G1 X33.208 Y112.192 E0.30463
G1 X33.208 Y57.808 E3.77873
G1 X36.265 Y54.750 E0.30046
G1 X36.539 Y55.265 F7800.000
G1 X123.461 Y55.265 E6.03957 F2160.000
G1 X126.235 Y58.039 E0.27256
G1 X126.235 Y111.961 E3.74666 F2160.000
G1 X123.461 Y114.735 E0.27256
G1 X36.539 Y114.735 E6.03957
G1 X33.765 Y111.961 E0.27256
G1 X33.765 Y58.039 E3.74666
G1 X36.496 Y55.307 E0.26839
G1 X36.769 Y55.822 F7800.000
G1 X123.231 Y55.822 E6.00750 F2160.000
G1 X125.678 Y58.269 E0.24049 F2160.000
G1 X125.678 Y111.731 E3.71460
G1 X123.231 Y114.178 E0.24049
G1 X36.769 Y114.178 E6.00750
G1 X34.322 Y111.731 E0.24049
G1 X34.322 Y58.269 E3.71460
G1 X36.727 Y55.864 E0.23633
G1 X37.000 Y56.379 F7800.000
G1 X123.000 Y56.379 E5.97544 F2160.000
G1 X125.121 Y58.500 E0.20843
G1 X125.121 Y111.500 E3.68253 F2160.000
G1 X123.000 Y113.621 E0.20843
G1 X37.000 Y113.621 E5.97544
G1 X34.879 Y111.500 E0.20843
G1 X34.879 Y58.500 E3.68253
G1 X36.958 Y56.421 E0.20426
G1 X37.231 Y56.936 F7800.000
G1 X122.769 Y56.936 E5.94337 F2160.000
G1 X124.564 Y58.731 E0.17636 F2160.000
G1 X124.564 Y111.269 E3.65046
G1 X122.769 Y113.064 E0.17636
G1 X37.231 Y113.064 E5.94337
G1 X35.436 Y111.269 E0.17636
G1 X35.436 Y58.731 E3.65046
G1 X37.188 Y56.978 E0.17219
G1 X37.462 Y57.493 F7800.000
G1 X122.538 Y57.493 E5.91131 F2160.000
G1 X124.007 Y58.962 E0.14430
G1 X124.007 Y111.038 E3.61840 F2160.000
G1 X122.538 Y112.507 E0.14430
G1 X37.462 Y112.507 E5.91131
G1 X35.993 Y111.038 E0.14430
G1 X35.993 Y58.962 E3.61840
G1 X37.419 Y57.536 E0.14013
G1 X37.692 Y58.050 F7800.000
G1 X122.308 Y58.050 E5.87924 F2160.000
G1 X123.450 Y59.192 E0.11223 F2160.000
G1 X123.450 Y110.808 E3.58633
G1 X122.308 Y111.950 E0.11223
G1 X37.692 Y111.950 E5.87924
G1 X36.550 Y110.808 E0.11223
G1 X36.550 Y59.192 E3.58633
G1 X37.650 Y58.093 E0.10806
G1 X37.923 Y58.607 F7800.000
G1 X122.077 Y58.607 E5.84717 F2160.000
G1 X122.893 Y59.423 E0.08016
G1 X122.893 Y110.577 E3.55427 F2160.000
G1 X122.077 Y111.393 E0.08016
G1 X37.923 Y111.393 E5.84717
G1 X37.107 Y110.577 E0.08016
G1 X37.107 Y59.423 E3.55427
G1 X37.881 Y58.650 E0.07600
G1 X38.154 Y59.164 F7800.000
G1 X121.846 Y59.164 E5.81511 F2160.000
G1 X122.336 Y59.654 E0.04810 F2160.000
G1 X122.336 Y110.346 E3.52220
G1 X121.846 Y110.836 E0.04810
G1 X38.154 Y110.836 E5.81511
G1 X37.664 Y110.346 E0.04810
G1 X37.664 Y59.654 E3.52220
G1 X38.111 Y59.207 E0.04393
G1 X38.385 Y59.721 F7800.000
G1 X121.615 Y59.721 E5.78304 F2160.000
G1 X121.779 Y59.885 E0.01603
G1 X121.779 Y110.115 E3.49014
G1 X121.615 Y110.279 E0.01603
G1 X38.385 Y110.279 E5.78304
G1 X38.221 Y110.115 E0.01603
G1 X38.221 Y59.885 E3.49014
G1 X38.342 Y59.764 E0.01186
G1 F1800.000 E-1.00000
G1 X38.994 Y65.665 F7800.000
G1 E1.00000 F1800.000
G1 X38.994 Y63.335 E0.16184 F1296.000
G1 F1800.000 E-1.00000
G1 X121.006 Y65.845 F7800.000
G1 E1.00000 F1800.000
G1 X121.006 Y63.515 E0.16184 F1296.000
G1 X121.006 Y76.005 F7800.000
G1 X121.006 Y73.675 E0.16184 F1296.000
G1 X121.006 Y86.165 F7800.000
G1 X121.006 Y83.835 E0.16184 F1296.000
G1 X121.006 Y96.325 F7800.000
G1 X121.006 Y93.995 E0.16184 F1296.000
G1 X121.006 Y106.485 F7800.000
G1 X121.006 Y104.155 E0.16184 F1296.000
G1 F1800.000 E-1.00000
G1 X38.994 Y106.665 F7800.000
G1 E1.00000 F1800.000
G1 X38.994 Y104.335 E0.16184 F1296.000
G1 F1800.000 E-1.00000
G1 X115.189 Y106.943 F7800.000
G1 E1.00000 F1800.000
G1 X118.000 Y108.566 E0.22557 F1296.000
G1 X121.200 Y106.719 E0.25674
G1 X121.200 Y109.700 E0.20713
G1 X38.800 Y109.700 E5.72532
G1 X38.800 Y106.899 E0.19463
G1 X42.000 Y108.746 E0.25674
G1 X44.596 Y107.248 E0.20827
G1 X46.880 Y108.566 E0.18326
G1 X49.692 Y106.943 E0.22557
G1 X49.692 Y103.697 E0.22557
G1 X46.880 Y102.074 E0.22557
G1 X44.284 Y103.572 E0.20827
G1 X42.000 Y102.254 E0.18326
G1 X38.800 Y104.101 E0.25674
G1 X38.800 Y65.899 E2.65437
G1 X42.000 Y67.746 E0.25674
G1 X44.284 Y66.428 E0.18326
G1 X46.880 Y67.926 E0.20827
G1 X49.692 Y66.303 E0.22557
G1 X49.692 Y63.057 E0.22557
G1 X46.880 Y61.434 E0.22557
G1 X44.596 Y62.752 E0.18326
G1 X42.000 Y61.254 E0.20827
G1 X38.800 Y63.101 E0.25674
G1 X38.800 Y60.300 E0.19463
G1 X121.200 Y60.300 E5.72532
G1 X121.200 Y63.281 E0.20713
G1 X118.000 Y61.434 E0.25674
G1 X115.189 Y63.057 E0.22557
G1 X115.189 Y66.303 E0.22557
G1 X118.000 Y67.926 E0.22557
G1 X121.200 Y66.079 E0.25674
G1 X121.200 Y73.441 E0.51154
G1 X118.000 Y71.594 E0.25674
G1 X115.189 Y73.217 E0.22557
G1 X115.189 Y76.463 E0.22557
G1 X118.000 Y78.086 E0.22557
G1 X121.200 Y76.239 E0.25674
G1 X121.200 Y83.601 E0.51154
G1 X118.000 Y81.754 E0.25674
G1 X115.189 Y83.377 E0.22557
G1 X115.189 Y86.623 E0.22557
G1 X118.000 Y88.246 E0.22557
G1 X121.200 Y86.399 E0.25674
G1 X121.200 Y93.761 E0.51154
G1 X118.000 Y91.914 E0.25674
G1 X115.189 Y93.537 E0.22557
G1 X115.189 Y96.783 E0.22557
G1 X118.000 Y98.406 E0.22557
G1 X121.200 Y96.559 E0.25674
G1 X121.200 Y103.921 E0.51154
G1 X118.000 Y102.074 E0.25674
G1 X115.189 Y103.697 E0.22557
G1 X115.189 Y106.883 E0.22140
G1 X115.052 Y107.319 F7800.000
G1 X118.688 Y108.813 F7800.000
G1 X120.643 Y107.684 E0.15687 F1440.000
G1 X120.643 Y109.143 E0.10138
G1 X118.776 Y109.143 E0.12970
G1 X118.703 Y108.871 E0.01959
G1 F1800.000 E-1.00000
G1 X120.643 Y62.316 F7800.000
G1 E1.00000 F1800.000
G1 X118.688 Y61.187 E0.15687 F1440.000
G1 X118.776 Y60.857 E0.02376
G1 X120.643 Y60.857 E0.12970
G1 X120.643 Y62.256 E0.09721
G1 F1800.000 E-1.00000
G1 X114.631 Y62.735 F7800.000
G1 E1.00000 F1800.000
G1 X114.631 Y66.625 E0.27026 F1440.000
G1 X118.000 Y68.570 E0.27026
G1 X120.643 Y67.044 E0.21204
G1 X120.643 Y72.476 E0.37746
G1 X118.000 Y70.950 E0.21204
G1 X114.631 Y72.895 E0.27026
G1 X114.631 Y76.785 E0.27026
G1 X118.000 Y78.730 E0.27026
G1 X120.643 Y77.204 E0.21204
G1 X120.643 Y82.636 E0.37746
G1 X118.000 Y81.110 E0.21204
G1 X114.631 Y83.055 E0.27026
G1 X114.631 Y86.945 E0.27026
G1 X118.000 Y88.890 E0.27026
G1 X120.643 Y87.364 E0.21204
G1 X120.643 Y92.796 E0.37746
G1 X118.000 Y91.270 E0.21204
G1 X114.631 Y93.215 E0.27026
G1 X114.631 Y97.105 E0.27026
G1 X118.000 Y99.050 E0.27026
G1 X120.643 Y97.524 E0.21204
G1 X120.643 Y102.956 E0.37746
G1 X118.000 Y101.430 E0.21204
G1 X114.631 Y103.375 E0.27026
G1 X114.631 Y107.265 E0.27026
G1 X117.312 Y108.813 E0.21509
G1 X117.224 Y109.143 E0.02376
G1 X108.616 Y109.143 E0.59807
G1 X108.528 Y108.813 E0.02376
G1 X111.209 Y107.265 E0.21509
G1 X111.209 Y103.375 E0.27026
G1 X107.840 Y101.430 E0.27026
G1 X104.471 Y103.375 E0.27026
G1 X104.471 Y107.265 E0.27026
G1 X107.152 Y108.813 E0.21509
G1 X107.064 Y109.143 E0.02376
G1 X98.456 Y109.143 E0.59807
G1 X98.368 Y108.813 E0.02376
G1 X101.049 Y107.265 E0.21509
G1 X101.049 Y103.375 E0.27026
G1 X97.680 Y101.430 E0.27026
G1 X94.311 Y103.375 E0.27026
G1 X94.311 Y107.265 E0.27026
G1 X96.992 Y108.813 E0.21509
G1 X96.904 Y109.143 E0.02376
G1 X88.296 Y109.143 E0.59807
G1 X88.208 Y108.813 E0.02376
G1 X90.889 Y107.265 E0.21509
G1 X90.889 Y103.375 E0.27026
G1 X87.520 Y101.430 E0.27026
G1 X84.151 Y103.375 E0.27026
G1 X84.151 Y107.265 E0.27026
G1 X86.832 Y108.813 E0.21509
G1 X86.744 Y109.143 E0.02376
G1 X78.136 Y109.143 E0.59807
G1 X78.048 Y108.813 E0.02376
G1 X80.729 Y107.265 E0.21509
G1 X80.729 Y103.375 E0.27026
G1 X77.360 Y101.430 E0.27026
G1 X73.991 Y103.375 E0.27026
G1 X73.991 Y107.265 E0.27026
G1 X76.672 Y108.813 E0.21509
G1 X76.584 Y109.143 E0.02376
G1 X67.976 Y109.143 E0.59807
G1 X67.888 Y108.813 E0.02376
G1 X70.569 Y107.265 E0.21509
G1 X70.569 Y103.375 E0.27026
G1 X67.200 Y101.430 E0.27026
G1 X63.831 Y103.375 E0.27026
G1 X63.831 Y107.265 E0.27026
G1 X66.512 Y108.813 E0.21509
G1 X66.424 Y109.143 E0.02376
G1 X57.816 Y109.143 E0.59807
G1 X57.728 Y108.813 E0.02376
G1 X60.409 Y107.265 E0.21509
G1 X60.409 Y103.375 E0.27026
G1 X57.040 Y101.430 E0.27026
G1 X53.671 Y103.375 E0.27026
G1 X53.671 Y107.265 E0.27026
G1 X56.352 Y108.813 E0.21509
G1 X56.264 Y109.143 E0.02376
G1 X47.656 Y109.143 E0.59807
G1 X47.568 Y108.813 E0.02376
G1 X50.249 Y107.265 E0.21509
G1 X50.249 Y103.375 E0.27026
G1 X46.880 Y101.430 E0.27026
G1 X44.284 Y102.929 E0.20827
G1 X42.000 Y101.610 E0.18326
G1 X39.357 Y103.136 E0.21204
G1 X39.357 Y66.864 E2.52028
G1 X42.000 Y68.390 E0.21204
G1 X44.284 Y67.071 E0.18326
G1 X46.880 Y68.570 E0.20827
G1 X50.249 Y66.625 E0.27026
G1 X50.249 Y62.735 E0.27026
G1 X47.568 Y61.187 E0.21509
G1 X47.656 Y60.857 E0.02376
G1 X56.264 Y60.857 E0.59807
G1 X56.352 Y61.187 E0.02376
G1 X53.671 Y62.735 E0.21509
G1 X53.671 Y66.625 E0.27026
G1 X57.040 Y68.570 E0.27026
G1 X60.409 Y66.625 E0.27026
G1 X60.409 Y62.735 E0.27026
G1 X57.728 Y61.187 E0.21509
G1 X57.816 Y60.857 E0.02376
G1 X66.424 Y60.857 E0.59807
G1 X66.512 Y61.187 E0.02376
G1 X63.831 Y62.735 E0.21509
G1 X63.831 Y66.625 E0.27026
G1 X67.200 Y68.570 E0.27026
G1 X70.569 Y66.625 E0.27026
G1 X70.569 Y62.735 E0.27026
G1 X67.888 Y61.187 E0.21509
G1 X67.976 Y60.857 E0.02376
G1 X76.584 Y60.857 E0.59807
G1 X76.672 Y61.187 E0.02376
G1 X73.991 Y62.735 E0.21509
G1 X73.991 Y66.625 E0.27026
G1 X77.360 Y68.570 E0.27026
G1 X80.729 Y66.625 E0.27026
G1 X80.729 Y62.735 E0.27026
G1 X78.048 Y61.187 E0.21509
G1 X78.136 Y60.857 E0.02376
G1 X86.744 Y60.857 E0.59807
G1 X86.832 Y61.187 E0.02376
G1 X84.151 Y62.735 E0.21509
G1 X84.151 Y66.625 E0.27026
G1 X87.520 Y68.570 E0.27026
G1 X90.889 Y66.625 E0.27026
G1 X90.889 Y62.735 E0.27026
G1 X88.208 Y61.187 E0.21509
G1 X88.296 Y60.857 E0.02376
G1 X96.904 Y60.857 E0.59807
G1 X96.992 Y61.187 E0.02376
G1 X94.311 Y62.735 E0.21509
G1 X94.311 Y66.625 E0.27026
G1 X97.680 Y68.570 E0.27026
G1 X101.049 Y66.625 E0.27026
G1 X101.049 Y62.735 E0.27026
G1 X98.368 Y61.187 E0.21509
G1 X98.456 Y60.857 E0.02376
G1 X107.064 Y60.857 E0.59807
G1 X107.152 Y61.187 E0.02376
G1 X104.471 Y62.735 E0.21509
G1 X104.471 Y66.625 E0.27026
G1 X107.840 Y68.570 E0.27026
G1 X111.209 Y66.625 E0.27026
G1 X111.209 Y62.735 E0.27026
G1 X108.528 Y61.187 E0.21509
G1 X108.616 Y60.857 E0.02376
G1 X117.224 Y60.857 E0.59807
G1 X117.312 Y61.187 E0.02376
G1 X114.683 Y62.705 E0.21092
G1 F1800.000 E-1.00000
G1 X41.001 Y61.187 F7800.000
G1 E1.00000 F1800.000
G1 X39.357 Y62.136 E0.13185 F1440.000
G1 X39.357 Y60.857 E0.08888
G1 X40.912 Y60.857 E0.10804
G1 X40.985 Y61.129 E0.01959
G1 X43.000 Y61.187 F7800.000
G1 X43.088 Y60.857 E0.02376 F1440.000
G1 X46.104 Y60.857 E0.20954
G1 X46.192 Y61.187 E0.02376
G1 X44.596 Y62.109 E0.12808
G1 X43.051 Y61.217 E0.12391
G1 F1800.000 E-1.00000
G1 X43.000 Y108.813 F7800.000
G1 E1.00000 F1800.000
G1 X44.596 Y107.891 E0.12808 F1440.000
G1 X46.192 Y108.813 E0.12808
G1 X46.104 Y109.143 E0.02376
G1 X43.088 Y109.143 E0.20954
G1 X43.015 Y108.871 E0.01959
G1 X41.000 Y108.813 F7800.000
G1 X40.912 Y109.143 E0.02376 F1440.000
G1 X39.357 Y109.143 E0.10804
G1 X39.357 Y107.864 E0.08888
G1 X40.949 Y108.783 E0.12768
G1 F1800.000 E-1.00000
G1 X94.869 Y106.943 F7800.000
G1 E1.00000 F1800.000
G1 X94.869 Y103.697 E0.22557 F1296.000
G1 X97.680 Y102.074 E0.22557
G1 X100.492 Y103.697 E0.22557
G1 X100.492 Y106.943 E0.22557
G1 X97.680 Y108.566 E0.22557
G1 X94.920 Y106.973 E0.22140
G1 X94.475 Y106.874 F7800.000
G1 F1800.000 E-1.00000
G1 X105.029 Y106.943 F7800.000
G1 E1.00000 F1800.000
G1 X105.029 Y103.697 E0.22557 F1296.000
G1 X107.840 Y102.074 E0.22557
G1 X110.652 Y103.697 E0.22557
G1 X110.652 Y106.943 E0.22557
G1 X107.840 Y108.566 E0.22557
G1 X105.080 Y106.973 E0.22140
G1 X104.635 Y106.874 F7800.000
G1 X105.029 Y96.783 F7800.000
G1 X105.029 Y93.537 E0.22557 F1296.000
G1 X107.840 Y91.914 E0.22557
G1 X110.652 Y93.537 E0.22557
G1 X110.652 Y96.783 E0.22557
G1 X107.840 Y98.406 E0.22557
G1 X105.080 Y96.813 E0.22140
G1 X104.635 Y96.714 F7800.000
G1 X104.471 Y97.105 F7800.000
G1 X104.471 Y93.215 E0.27026 F1440.000
G1 X107.840 Y91.270 E0.27026
G1 X111.209 Y93.215 E0.27026
G1 X111.209 Y97.105 E0.27026
G1 X107.840 Y99.050 E0.27026
G1 X104.523 Y97.135 E0.26609
G1 X100.492 Y96.783 F7800.000
G1 X97.680 Y98.406 E0.22557 F1296.000
G1 X94.869 Y96.783 E0.22557
G1 X94.869 Y93.537 E0.22557
G1 X97.680 Y91.914 E0.22557
G1 X100.492 Y93.537 E0.22557
G1 X100.492 Y96.723 E0.22140
G1 X100.628 Y97.159 F7800.000
G1 X101.049 Y97.105 F7800.000
G1 X97.680 Y99.050 E0.27026 F1440.000
G1 X94.311 Y97.105 E0.27026
G1 X94.311 Y93.215 E0.27026
G1 X97.680 Y91.270 E0.27026
G1 X101.049 Y93.215 E0.27026
G1 X101.049 Y97.045 E0.26609
G1 F1800.000 E-1.00000
G1 X90.332 Y96.783 F7800.000
G1 E1.00000 F1800.000
G1 X87.520 Y98.406 E0.22557 F1296.000
G1 X84.709 Y96.783 E0.22557
G1 X84.709 Y93.537 E0.22557
G1 X87.520 Y91.914 E0.22557
G1 X90.332 Y93.537 E0.22557
G1 X90.332 Y96.723 E0.22140
G1 X90.468 Y97.159 F7800.000
G1 X90.889 Y97.105 F7800.000
G1 X87.520 Y99.050 E0.27026 F1440.000
G1 X84.151 Y97.105 E0.27026
G1 X84.151 Y93.215 E0.27026
G1 X87.520 Y91.270 E0.27026
G1 X90.889 Y93.215 E0.27026
G1 X90.889 Y97.045 E0.26609
G1 F1800.000 E-1.00000
G1 X80.172 Y96.783 F7800.000
G1 E1.00000 F1800.000
G1 X77.360 Y98.406 E0.22557 F1296.000
G1 X74.549 Y96.783 E0.22557
G1 X74.549 Y93.537 E0.22557
G1 X77.360 Y91.914 E0.22557
G1 X80.172 Y93.537 E0.22557
G1 X80.172 Y96.723 E0.22140
G1 X80.308 Y97.159 F7800.000
G1 X80.729 Y97.105 F7800.000
G1 X77.360 Y99.050 E0.27026 F1440.000
G1 X73.991 Y97.105 E0.27026
G1 X73.991 Y93.215 E0.27026
G1 X77.360 Y91.270 E0.27026
G1 X80.729 Y93.215 E0.27026
G1 X80.729 Y97.045 E0.26609
G1 F1800.000 E-1.00000
G1 X70.012 Y96.783 F7800.000
G1 E1.00000 F1800.000
G1 X67.200 Y98.406 E0.22557 F1296.000
G1 X64.389 Y96.783 E0.22557
G1 X64.389 Y93.537 E0.22557
G1 X67.200 Y91.914 E0.22557
G1 X70.012 Y93.537 E0.22557
G1 X70.012 Y96.723 E0.22140
