; generated by Slic3r 1.2.9 on 2015-07-31 at 16:30:59

; external perimeters extrusion width = 0.50mm
; perimeters extrusion width = 0.72mm
; infill extrusion width = 0.72mm
; solid infill extrusion width = 0.72mm
; top infill extrusion width = 0.72mm

M107
M104 S210 ; set temperature
G28 ; home all axes
G1 Z5 F5000 ; lift nozzle

M109 S210 ; wait for temperature to be reached
G21 ; set units to millimeters
G90 ; use absolute coordinates
M82 ; use absolute distances for extrusion
G92 E0
G1 Z0.350 F7800.000
G1 E-2.00000 F2400.00000
G92 E0
G1 X69.915 Y45.753 F7800.000
G1 E2.00000 F2400.00000
G1 F1800
G1 X71.668 Y44.274 E2.07096
G1 X73.820 Y43.481 E2.14192
G1 X75.000 Y43.375 E2.17858
G1 X125.000 Y43.375 E3.72564
G1 X127.259 Y43.772 E3.79660
G1 F1800
G1 X129.247 Y44.915 E3.86757
G1 X130.726 Y46.668 E3.93853
G1 X131.519 Y48.820 E4.00949
G1 X131.625 Y50.000 E4.04614
G1 X131.625 Y150.000 E7.14027
G1 X131.228 Y152.259 E7.21124
G1 X130.085 Y154.247 E7.28220
G1 X128.332 Y155.726 E7.35316
G1 X126.180 Y156.519 E7.42412
G1 X125.000 Y156.625 E7.46077
G1 X75.000 Y156.625 E9.00784
G1 X72.741 Y156.228 E9.07880
G1 X70.753 Y155.085 E9.14976
G1 X69.274 Y153.332 E9.22073
G1 X68.481 Y151.180 E9.29169
G1 X68.375 Y150.000 E9.32834
G1 X68.375 Y50.000 E12.42247
G1 X68.772 Y47.741 E12.49343
G1 X69.878 Y45.818 E12.56208
G1 E10.56208 F2400.00000
G92 E0
G1 X124.292 Y145.500 F7800.000
G1 E2.00000 F2400.00000
G1 F1800
G1 X122.396 Y148.784 E2.11732
G1 X118.604 Y148.784 E2.23464
G1 X116.708 Y145.500 E2.35196
G1 X118.604 Y142.216 E2.46927
G1 X122.396 Y142.216 E2.58659
G1 X124.254 Y145.435 E2.70159
G1 X124.725 Y145.750 F7800.000
G1 E0.70159 F2400.00000
G92 E0
G1 X116.940 Y148.400 F7800.000
G1 E2.00000 F2400.00000
G1 F1800
G1 X113.900 Y148.400 E2.09404
G1 X115.420 Y145.768 E2.18808
G1 X116.902 Y148.335 E2.27980
G1 X116.600 Y141.600 F7800.000
G1 F1800
G1 X116.600 Y138.207 E2.38477
G1 X116.878 Y138.133 E2.39367
G1 X117.883 Y139.873 E2.45586
G1 X123.400 Y139.873 E2.62658
G1 X123.400 Y140.967 E2.66041
G1 X117.883 Y140.967 E2.83113
G1 X115.420 Y145.232 E2.98352
G1 X113.323 Y141.600 E3.11329
G1 X116.525 Y141.600 E3.21236
G1 X107.357 Y141.600 F7800.000
G1 F1800
G1 X105.260 Y145.232 E3.34213
G1 X103.163 Y141.600 E3.47190
G1 X107.282 Y141.600 E3.59935
G1 X105.260 Y145.768 F7800.000
G1 F1800
G1 X106.780 Y148.400 E3.69339
G1 X103.740 Y148.400 E3.78743
G1 X105.222 Y145.833 E3.87915
G1 E1.87915 F2400.00000
G92 E0
G1 X96.620 Y148.400 F7800.000
G1 E2.00000 F2400.00000
G1 F1800
G1 X93.580 Y148.400 E2.09404
G1 X95.100 Y145.768 E2.18808
G1 X96.582 Y148.335 E2.27980
G1 X95.100 Y145.232 F7800.000
G1 F1800
G1 X93.003 Y141.600 E2.40957
G1 X97.197 Y141.600 E2.53934
G1 X95.137 Y145.167 E2.66679
G1 E0.66679 F2400.00000
G92 E0
G1 X84.785 Y145.500 F7800.000
G1 E2.00000 F2400.00000
G1 F1800
G1 X86.460 Y148.400 E2.10362
G1 X83.060 Y148.400 E2.20880
G1 X84.735 Y145.500 E2.31242
G1 X82.117 Y140.967 E2.47439
G1 X76.600 Y140.967 E2.64511
G1 X76.600 Y139.316 E2.69619
G1 X76.878 Y139.241 E2.70509
G1 X77.243 Y139.873 E2.72768
G1 X82.477 Y139.873 E2.88965
G1 X83.122 Y138.756 E2.92956
G1 X83.400 Y138.831 E2.93846
G1 X83.400 Y141.600 E3.02413
G1 X87.037 Y141.600 E3.13666
G1 X84.823 Y145.435 E3.27369
G1 X85.507 Y145.500 F7800.000
G1 F1800
G1 X87.542 Y149.025 E3.39964
G1 X81.978 Y149.025 E3.57179
G1 X84.013 Y145.500 E3.69774
G1 X81.757 Y141.591 E3.83738
G1 X77.243 Y141.591 E3.97703
G1 X76.253 Y143.307 E4.03833
G1 X75.975 Y143.233 E4.04723
G1 X75.975 Y136.984 E4.24059
G1 X76.253 Y136.909 E4.24949
G1 X77.603 Y139.249 E4.33307
G1 X82.117 Y139.249 E4.47272
G1 X83.747 Y136.424 E4.57362
G1 X84.025 Y136.499 E4.58253
G1 X84.025 Y140.975 E4.72102
G1 X115.975 Y140.975 E5.70959
G1 X115.975 Y135.875 E5.86738
G1 X116.253 Y135.801 E5.87629
G1 X118.243 Y139.249 E5.99947
G1 X122.757 Y139.249 E6.13912
G1 X123.747 Y137.533 E6.20042
G1 X124.025 Y137.607 E6.20932
G1 X124.025 Y143.233 E6.38338
G1 X123.747 Y143.307 E6.39228
G1 X122.757 Y141.591 E6.45359
G1 X118.243 Y141.591 E6.59323
G1 X115.987 Y145.500 E6.73287
G1 X118.022 Y149.025 E6.85882
G1 X112.818 Y149.025 E7.01984
G1 X114.853 Y145.500 E7.14578
G1 X112.597 Y141.591 E7.28543
G1 X108.083 Y141.591 E7.42507
G1 X105.827 Y145.500 E7.56472
G1 X107.862 Y149.025 E7.69066
G1 X102.658 Y149.025 E7.85168
G1 X104.693 Y145.500 E7.97763
G1 X102.437 Y141.591 E8.11727
G1 X97.923 Y141.591 E8.25691
G1 X95.667 Y145.500 E8.39656
G1 X97.702 Y149.025 E8.52250
G1 X92.498 Y149.025 E8.68352
G1 X94.533 Y145.500 E8.80947
G1 X92.277 Y141.591 E8.94911
G1 X87.763 Y141.591 E9.08876
G1 X85.544 Y145.435 E9.22608
G1 E7.22608 F2400.00000
G92 E0
G1 X118.604 Y138.624 F7800.000
G1 E2.00000 F2400.00000
G1 F1800
G1 X116.708 Y135.340 E2.11732
G1 X118.604 Y132.056 E2.23464
G1 X122.396 Y132.056 E2.35196
G1 X124.292 Y135.340 E2.46928
G1 X122.396 Y138.624 E2.58660
G1 X118.679 Y138.624 E2.70159
G1 X118.171 Y138.874 F7800.000
G1 E0.70159 F2400.00000
G92 E0
G1 X117.883 Y130.807 F7800.000
G1 E2.00000 F2400.00000
G1 F1800
G1 X116.878 Y132.547 E2.06219
G1 X116.600 Y132.473 E2.07109
G1 X116.600 Y128.047 E2.20802
G1 X116.878 Y127.973 E2.21692
G1 X117.883 Y129.713 E2.27911
G1 X123.400 Y129.713 E2.44983
G1 X123.400 Y130.807 E2.48365
G1 X117.958 Y130.807 E2.65205
G1 X118.243 Y131.431 F7800.000
G1 F1800
G1 X116.253 Y134.879 E2.77524
G1 X115.975 Y134.805 E2.78414
G1 X115.975 Y125.715 E3.06539
G1 X116.253 Y125.641 E3.07429
G1 X118.243 Y129.089 E3.19747
G1 X122.757 Y129.089 E3.33712
G1 X123.747 Y127.373 E3.39842
G1 X124.025 Y127.447 E3.40732
G1 X124.025 Y133.073 E3.58138
G1 X123.747 Y133.147 E3.59028
G1 X122.757 Y131.431 E3.65159
G1 X118.318 Y131.431 E3.78891
G1 X118.604 Y128.464 F7800.000
G1 F1800
G1 X116.708 Y125.180 E3.90623
G1 X118.604 Y121.896 E4.02355
G1 X122.396 Y121.896 E4.14087
G1 X124.292 Y125.180 E4.25819
G1 X122.396 Y128.464 E4.37551
G1 X118.679 Y128.464 E4.49051
G1 X118.171 Y128.714 F7800.000
G1 E2.49051 F2400.00000
G92 E0
G1 X118.604 Y118.304 F7800.000
G1 E2.00000 F2400.00000
G1 F1800
G1 X116.708 Y115.020 E2.11732
G1 X118.604 Y111.736 E2.23464
G1 X122.396 Y111.736 E2.35196
G1 X124.292 Y115.020 E2.46928
G1 X122.396 Y118.304 E2.58660
G1 X118.679 Y118.304 E2.70159
G1 X118.171 Y118.554 F7800.000
G1 X112.597 Y118.929 F7800.000
G1 F1800
G1 X108.083 Y118.929 E2.84124
G1 X105.827 Y115.020 E2.98089
G1 X108.083 Y111.111 E3.12053
G1 X112.597 Y111.111 E3.26018
G1 X114.853 Y115.020 E3.39982
G1 X112.634 Y118.864 E3.53715
G1 X112.236 Y118.304 F7800.000
G1 F1800
G1 X108.444 Y118.304 E3.65446
G1 X106.548 Y115.020 E3.77178
G1 X108.444 Y111.736 E3.88910
G1 X112.236 Y111.736 E4.00642
G1 X114.132 Y115.020 E4.12374
G1 X112.273 Y118.239 E4.23874
G1 X112.236 Y118.804 F7800.000
G1 E2.23874 F2400.00000
G92 E0
G1 X105.260 Y114.752 F7800.000
G1 E2.00000 F2400.00000
G1 F1800
G1 X102.863 Y110.600 E2.14835
G1 X107.657 Y110.600 E2.29669
G1 X105.297 Y114.687 E2.44272
G1 X105.260 Y115.288 F7800.000
G1 F1800
G1 X107.346 Y118.900 E2.57178
G1 X103.175 Y118.900 E2.70083
G1 X105.222 Y115.353 E2.82756
G1 E0.82756 F2400.00000
G92 E0
G1 X97.186 Y118.900 F7800.000
G1 E2.00000 F2400.00000
G1 F1800
G1 X93.015 Y118.900 E2.12905
G1 X95.100 Y115.288 E2.25811
G1 X97.148 Y118.835 E2.38484
G1 X95.100 Y114.752 F7800.000
G1 F1800
G1 X92.703 Y110.600 E2.53319
G1 X97.497 Y110.600 E2.68154
G1 X95.137 Y114.687 E2.82756
G1 X95.667 Y115.020 F7800.000
G1 F1800
G1 X97.923 Y111.111 E2.96721
G1 X102.437 Y111.111 E3.10686
G1 X104.693 Y115.020 E3.24650
G1 X102.437 Y118.929 E3.38615
G1 X97.923 Y118.929 E3.52579
G1 X95.704 Y115.085 E3.66312
G1 X96.388 Y115.020 F7800.000
G1 F1800
G1 X98.284 Y111.736 E3.78044
G1 X102.076 Y111.736 E3.89775
G1 X103.972 Y115.020 E4.01507
G1 X102.076 Y118.304 E4.13239
G1 X98.284 Y118.304 E4.24971
G1 X96.426 Y115.085 E4.36471
G1 X95.955 Y114.770 F7800.000
G1 X92.277 Y118.929 F7800.000
G1 F1800
G1 X87.763 Y118.929 E4.50435
G1 X85.507 Y115.020 E4.64400
G1 X87.763 Y111.111 E4.78365
G1 X92.277 Y111.111 E4.92329
G1 X94.533 Y115.020 E5.06294
G1 X92.314 Y118.864 E5.20026
G1 X91.916 Y118.304 F7800.000
G1 F1800
G1 X88.124 Y118.304 E5.31758
G1 X86.228 Y115.020 E5.43490
G1 X88.124 Y111.736 E5.55222
G1 X91.916 Y111.736 E5.66954
G1 X93.812 Y115.020 E5.78686
G1 X91.953 Y118.239 E5.90186
G1 X91.916 Y118.804 F7800.000
G1 E3.90186 F2400.00000
G92 E0
G1 X83.400 Y110.600 F7800.000
G1 E2.00000 F2400.00000
G1 F1800
G1 X87.337 Y110.600 E2.12182
G1 X84.940 Y114.752 E2.27017
G1 X82.477 Y110.487 E2.42256
G1 X77.243 Y110.487 E2.58453
G1 X76.878 Y111.119 E2.60712
G1 X76.600 Y111.044 E2.61602
G1 X76.600 Y108.836 E2.68435
G1 X76.878 Y108.761 E2.69326
G1 X77.243 Y109.393 E2.71584
G1 X82.477 Y109.393 E2.87781
G1 X83.122 Y108.276 E2.91772
G1 X83.400 Y108.351 E2.92662
G1 X83.400 Y110.525 E2.99389
G1 X83.400 Y118.900 F7800.000
G1 F1800
G1 X83.400 Y121.689 E3.08018
G1 X83.122 Y121.764 E3.08908
G1 X82.477 Y120.647 E3.12899
G1 X77.243 Y120.647 E3.29096
G1 X76.878 Y121.279 E3.31354
G1 X76.600 Y121.204 E3.32245
G1 X76.600 Y118.996 E3.39078
G1 X76.878 Y118.921 E3.39968
G1 X77.243 Y119.553 E3.42227
G1 X82.477 Y119.553 E3.58424
G1 X84.940 Y115.288 E3.73663
G1 X87.026 Y118.900 E3.86569
G1 X83.475 Y118.900 E3.97554
G1 X116.600 Y118.900 F7800.000
G1 F1800
G1 X113.335 Y118.900 E4.07657
G1 X115.420 Y115.288 E4.20562
G1 X117.883 Y119.553 E4.35802
G1 X123.400 Y119.553 E4.52874
G1 X123.400 Y120.647 E4.56256
G1 X117.883 Y120.647 E4.73328
G1 X116.878 Y122.387 E4.79547
G1 X116.600 Y122.313 E4.80437
G1 X116.600 Y118.975 E4.90764
G1 X116.600 Y110.600 F7800.000
G1 F1800
G1 X116.600 Y107.727 E4.99652
G1 X116.878 Y107.653 E5.00542
G1 X117.883 Y109.393 E5.06761
G1 X123.400 Y109.393 E5.23833
G1 X123.400 Y110.487 E5.27215
G1 X117.883 Y110.487 E5.44287
G1 X115.420 Y114.752 E5.59527
G1 X113.023 Y110.600 E5.74361
G1 X116.525 Y110.600 E5.85197
G1 X115.975 Y109.975 F7800.000
G1 F1800
G1 X115.975 Y105.395 E5.99367
G1 X116.253 Y105.321 E6.00257
G1 X118.243 Y108.769 E6.12576
G1 X122.757 Y108.769 E6.26540
G1 X123.747 Y107.053 E6.32671
G1 X124.025 Y107.127 E6.33561
G1 X124.025 Y112.753 E6.50967
G1 X123.747 Y112.827 E6.51857
G1 X122.757 Y111.111 E6.57987
G1 X118.243 Y111.111 E6.71952
G1 X115.987 Y115.020 E6.85916
G1 X118.243 Y118.929 E6.99881
G1 X122.757 Y118.929 E7.13845
G1 X123.747 Y117.213 E7.19976
G1 X124.025 Y117.287 E7.20866
G1 X124.025 Y122.913 E7.38272
G1 X123.747 Y122.987 E7.39162
G1 X122.757 Y121.271 E7.45292
G1 X118.243 Y121.271 E7.59257
G1 X116.253 Y124.719 E7.71575
G1 X115.975 Y124.645 E7.72465
G1 X115.975 Y119.525 E7.88306
G1 X84.025 Y119.525 E8.87163
G1 X84.025 Y124.021 E9.01075
G1 X83.747 Y124.096 E9.01965
G1 X82.117 Y121.271 E9.12056
G1 X77.603 Y121.271 E9.26020
G1 X76.253 Y123.611 E9.34378
G1 X75.975 Y123.536 E9.35269
G1 X75.975 Y116.664 E9.56534
G1 X76.253 Y116.589 E9.57424
G1 X77.603 Y118.929 E9.65782
G1 X82.117 Y118.929 E9.79746
G1 X84.373 Y115.020 E9.93711
G1 X82.117 Y111.111 E10.07675
G1 X77.603 Y111.111 E10.21640
G1 X76.253 Y113.451 E10.29998
G1 X75.975 Y113.376 E10.30888
G1 X75.975 Y106.504 E10.52153
G1 X76.253 Y106.429 E10.53043
G1 X77.603 Y108.769 E10.61402
G1 X82.117 Y108.769 E10.75366
G1 X83.747 Y105.944 E10.85457
G1 X84.025 Y106.019 E10.86347
G1 X84.025 Y109.975 E10.98588
G1 X115.900 Y109.975 E11.97212
G1 X118.604 Y108.144 F7800.000
G1 F1800
G1 X116.708 Y104.860 E12.08944
G1 X118.604 Y101.576 E12.20676
G1 X122.396 Y101.576 E12.32408
G1 X124.292 Y104.860 E12.44140
G1 X122.396 Y108.144 E12.55872
G1 X118.679 Y108.144 E12.67372
G1 X118.171 Y108.394 F7800.000
G1 E10.67372 F2400.00000
G92 E0
G1 X117.883 Y100.327 F7800.000
G1 E2.00000 F2400.00000
G1 F1800
G1 X116.878 Y102.067 E2.06219
G1 X116.600 Y101.993 E2.07109
G1 X116.600 Y97.567 E2.20802
G1 X116.878 Y97.493 E2.21692
G1 X117.883 Y99.233 E2.27911
G1 X123.400 Y99.233 E2.44983
G1 X123.400 Y100.327 E2.48365
G1 X117.958 Y100.327 E2.65205
G1 X118.243 Y100.951 F7800.000
G1 F1800
G1 X116.253 Y104.399 E2.77524
G1 X115.975 Y104.325 E2.78414
G1 X115.975 Y95.235 E3.06539
G1 X116.253 Y95.161 E3.07429
G1 X118.243 Y98.609 E3.19747
G1 X122.757 Y98.609 E3.33712
G1 X123.747 Y96.893 E3.39842
G1 X124.025 Y96.967 E3.40732
G1 X124.025 Y102.593 E3.58138
G1 X123.747 Y102.667 E3.59029
G1 X122.757 Y100.951 E3.65159
G1 X118.318 Y100.951 E3.78891
G1 X118.604 Y97.984 F7800.000
G1 F1800
G1 X116.708 Y94.700 E3.90623
G1 X118.604 Y91.416 E4.02355
G1 X122.396 Y91.416 E4.14087
G1 X124.292 Y94.700 E4.25819
G1 X122.396 Y97.984 E4.37551
G1 X118.679 Y97.984 E4.49051
G1 X118.171 Y98.234 F7800.000
G1 E2.49051 F2400.00000
G92 E0
G1 X117.883 Y90.167 F7800.000
G1 E2.00000 F2400.00000
G1 F1800
G1 X116.878 Y91.907 E2.06219
G1 X116.600 Y91.833 E2.07109
G1 X116.600 Y87.407 E2.20802
G1 X116.878 Y87.333 E2.21692
G1 X117.883 Y89.073 E2.27911
G1 X123.400 Y89.073 E2.44983
G1 X123.400 Y90.167 E2.48365
G1 X117.958 Y90.167 E2.65205
G1 X118.243 Y90.791 F7800.000
G1 F1800
G1 X116.253 Y94.239 E2.77524
G1 X115.975 Y94.165 E2.78414
G1 X115.975 Y85.075 E3.06539
G1 X116.253 Y85.001 E3.07429
G1 X118.243 Y88.449 E3.19747
G1 X122.757 Y88.449 E3.33712
G1 X123.747 Y86.733 E3.39842
G1 X124.025 Y86.807 E3.40732
G1 X124.025 Y92.433 E3.58138
G1 X123.747 Y92.507 E3.59029
G1 X122.757 Y90.791 E3.65159
G1 X118.318 Y90.791 E3.78891
G1 X118.604 Y87.824 F7800.000
G1 F1800
G1 X116.708 Y84.540 E3.90623
G1 X118.604 Y81.256 E4.02355
G1 X122.396 Y81.256 E4.14087
G1 X124.292 Y84.540 E4.25819
G1 X122.396 Y87.824 E4.37551
G1 X118.679 Y87.824 E4.49051
G1 X118.171 Y88.074 F7800.000
G1 E2.49051 F2400.00000
G92 E0
G1 X102.617 Y68.753 F7800.000
G1 E2.00000 F2400.00000
G1 F1800
G1 X97.383 Y68.753 E2.16197
G1 X94.765 Y64.220 E2.32394
G1 X97.383 Y59.687 E2.48592
G1 X102.617 Y59.687 E2.64789
G1 X105.235 Y64.220 E2.80986
G1 X102.655 Y68.689 E2.96951
G1 X102.257 Y68.129 F7800.000
G1 F1800
G1 X97.743 Y68.129 E3.10915
G1 X95.487 Y64.220 E3.24880
G1 X97.743 Y60.311 E3.38844
G1 X102.257 Y60.311 E3.52809
G1 X104.513 Y64.220 E3.66773
G1 X102.294 Y68.064 E3.80506
G1 X101.896 Y67.504 F7800.000
G1 F1800
G1 X98.104 Y67.504 E3.92238
G1 X96.208 Y64.220 E4.03970
G1 X98.104 Y60.936 E4.15702
G1 X101.896 Y60.936 E4.27433
G1 X103.792 Y64.220 E4.39165
G1 X101.933 Y67.439 E4.50665
G1 X101.896 Y68.004 F7800.000
G1 X116.600 Y77.400 F7800.000
G1 F1800
G1 X83.400 Y77.400 E5.53389
G1 X83.400 Y81.049 E5.64679
G1 X83.122 Y81.124 E5.65569
G1 X82.477 Y80.007 E5.69560
G1 X77.243 Y80.007 E5.85757
G1 X76.878 Y80.639 E5.88016
G1 X76.600 Y80.564 E5.88906
G1 X76.600 Y58.348 E6.57647
G1 X76.878 Y58.273 E6.58538
G1 X77.063 Y58.593 E6.59683
G1 X82.297 Y58.593 E6.75880
G1 X84.915 Y54.060 E6.92077
G1 X83.494 Y51.600 E7.00866
G1 X116.506 Y51.600 E8.03007
G1 X115.085 Y54.060 E8.11797
G1 X117.703 Y58.593 E8.27994
G1 X122.937 Y58.593 E8.44192
G1 X123.122 Y58.273 E8.45336
G1 X123.400 Y58.348 E8.46226
G1 X123.400 Y80.007 E9.13242
G1 X117.883 Y80.007 E9.30314
G1 X116.878 Y81.747 E9.36533
G1 X116.600 Y81.673 E9.37423
G1 X116.600 Y77.475 E9.50411
G1 X115.975 Y78.025 F7800.000
G1 F1800
G1 X84.025 Y78.025 E10.49267
G1 X84.025 Y83.381 E10.65840
G1 X83.747 Y83.456 E10.66730
G1 X82.117 Y80.631 E10.76821
G1 X77.603 Y80.631 E10.90785
G1 X76.253 Y82.971 E10.99143
G1 X75.975 Y82.896 E11.00034
G1 X75.975 Y56.015 E11.83207
G1 X76.253 Y55.941 E11.84097
G1 X77.423 Y57.969 E11.91341
G1 X81.937 Y57.969 E12.05306
G1 X84.193 Y54.060 E12.19270
G1 X82.412 Y50.975 E12.30293
G1 X117.588 Y50.975 E13.39131
G1 X115.807 Y54.060 E13.50154
G1 X118.063 Y57.969 E13.64118
G1 X122.577 Y57.969 E13.78083
G1 X123.747 Y55.941 E13.85327
G1 X124.025 Y56.015 E13.86217
G1 X124.025 Y82.273 E14.67461
G1 X123.747 Y82.347 E14.68351
G1 X122.757 Y80.631 E14.74481
G1 X118.243 Y80.631 E14.88446
G1 X116.253 Y84.079 E15.00764
G1 X115.975 Y84.005 E15.01654
G1 X115.975 Y78.100 E15.19924
G1 X118.424 Y57.344 F7800.000
G1 F1800
G1 X116.528 Y54.060 E15.31656
G1 X118.424 Y50.776 E15.43388
G1 X122.216 Y50.776 E15.55120
G1 X124.112 Y54.060 E15.66852
G1 X122.216 Y57.344 E15.78584
G1 X118.499 Y57.344 E15.90084
G1 X117.991 Y57.594 F7800.000
G1 E13.90084 F2400.00000
G92 E0
G1 X123.747 Y52.179 F7800.000
G1 E2.00000 F2400.00000
G1 F1800
G1 X123.052 Y50.975 E2.04302
G1 X124.025 Y50.975 E2.07313
G1 X124.025 Y52.105 E2.10808
G1 X123.820 Y52.160 E2.11466
G1 E0.11466 F2400.00000
G92 E0
G1 X81.576 Y50.776 F7800.000
